JunhaAgu/can_excavator_plot/datafolder/from_excavator.txt
time [ms], ACyl_LC [bar], ACyl_SC [bar], Swing_L [bar], Swing_R [bar], BCyl_LC [bar], BCyl_SC [bar], KCyl_LC [bar], KCyl_SC [bar], Body_Pitch_Angle [rad], Body_Roll_Angle [rad], Boom_Joint_Angle [rad], Arm_Joint_Angle [rad], Bkt_Joint_Angle [rad], Swing_Angle [rad], Boom_Joint_Rate [rad/s], Arm_Joint_Rate [rad/s], Bkt_Joint_Rate [rad/s], Swing_Rate [rad/s], GPS_Easting [m], GPS_Northing [m], GPS_Elevation [m], GPS_Latitude [deg], GPS_Longitude [deg], GPS_Sea_Level [m]
26.158866, 24.100000, 111.500000, 0.000000, 0.000000, 145.500000, 12.400000, 40.500000, 84.000000, 0.014835, 0.003141, -0.713818, 1.745526, 1.056005, -0.441330, -0.742371, 1.815347, 1.098245, -0.458983, 12297829382473033728.000000, 13527612320720336896.000000, 14757395258967642112.000000, 238.633118, 238.633118, 3592.250000
26.258221, 24.100000, 111.500000, 0.000000, 0.000000, 145.500000, 12.400000, 40.500000, 84.000000, 0.014835, 0.003141, -0.713818, 1.745526, 1.056005, -0.441330, -2.747229, 6.717900, 4.064182, -1.698520, 12297829382473033728.000000, 13527612320720336896.000000, 14757395258967642112.000000, 238.633118, 238.633118, 3592.250000
26.363510, 24.100000, 111.500000, 0.000000, 0.000000, 145.500000, 12.400000, 40.500000, 84.000000, 0.014835, 0.003141, -0.713818, 1.745526, 1.056005, -0.441330, -4.844001, 11.845212, 7.166092, -2.994884, 12297829382473033728.000000, 13527612320720336896.000000, 14757395258967642112.000000, 238.633118, 238.633118, 3592.250000
26.462866, 24.100000, 111.500000, 0.000000, 0.000000, 145.500000, 12.400000, 40.500000, 84.000000, 0.014835, 0.003141, -0.713818, 1.745526, 1.056005, -0.441330, -6.178310, 15.108047, 9.140037, -3.819843, 12297829382473033728.000000, 13527612320720336896.000000, 14757395258967642112.000000, 238.633118, 238.633118, 3592.250000
26.568084, 24.100000, 111.500000, 0.000000, 0.000000, 145.500000, 12.400000, 40.500000, 84.000000, 0.014835, 0.003141, -0.713818, 1.745526, 1.056005, -0.441330, -6.898324, 16.868721, 10.205206, -4.265003, 12297829382473033728.000000, 13527612320720336896.000000, 14757395258967642112.000000, 238.633118, 238.633118, 3592.250000
26.667432, 24.100000, 111.500000, 0.000000, 0.000000, 145.500000, 12.400000, 40.500000, 84.000000, 0.014835, 0.003141, -0.713818, 1.745526, 1.056005, -0.441330, -7.138217, 17.455341, 10.560099, -4.413321, 12297829382473033728.000000, 13527612320720336896.000000, 14757395258967642112.000000, 238.633118, 238.633118, 3592.250000
26.772808, 24.100000, 111.500000, 0.000000, 0.000000, 145.500000, 12.400000, 40.500000, 84.000000, 0.014835, 0.003141, -0.713818, 1.745526, 1.056005, -0.441330, -7.016323, 17.157270, 10.379772, -4.337958, 12297829382473033728.000000, 13527612320720336896.000000, 14757395258967642112.000000, 238.633118, 238.633118, 3592.250000
26.872099, 24.100000, 111.500000, 0.000000, 0.000000, 145.500000, 12.400000, 40.500000, 84.000000, 0.014835, 0.003141, -0.713818, 1.745526, 1.056005, -0.441330, -6.634431, 16.223415, 9.814811, -4.101847, 12297829382473033728.000000, 13527612320720336896.000000, 14757395258967642112.000000, 238.633118, 238.633118, 3592.250000
26.977393, 24.100000, 111.500000, 0.000000, 0.000000, 145.500000, 12.400000, 40.500000, 84.000000, 0.014835, 0.003141, -0.713818, 1.745526, 1.056005, -0.441330, -6.077963, 14.862663, 8.991586, -3.757802, 12297829382473033728.000000, 13527612320720336896.000000, 14757395258967642112.000000, 238.633118, 238.633118, 3592.250000
27.076689, 24.100000, 111.500000, 0.000000, 0.000000, 145.500000, 12.400000, 40.500000, 84.000000, 0.014835, 0.003141, -0.713818, 1.745526, 1.056005, -0.441330, -5.416788, 13.245867, 8.013459, -3.349019, 12297829382473033728.000000, 13527612320720336896.000000, 14757395258967642112.000000, 238.633118, 238.633118, 3592.250000
27.182045, 24.100000, 111.500000, 0.000000, 0.000000, 145.500000, 12.400000, 40.500000, 84.000000, 0.014835, 0.003141, -0.713818, 1.745526, 1.056005, -0.441330, -4.706464, 11.508887, 6.962625, -2.909850, 12297829382473033728.000000, 13527612320720336896.000000, 14757395258967642112.000000, 238.633118, 238.633118, 3592.250000
27.281474, 24.100000, 111.500000, 0.000000, 0.000000, 145.500000, 12.400000, 40.500000, 84.000000, 0.014835, 0.003141, -0.713818, 1.745526, 1.056005, -0.441330, -3.989751, 9.756282, 5.902337, -2.466730, 12297829382473033728.000000, 13527612320720336896.000000, 14757395258967642112.000000, 238.633118, 238.633118, 3592.250000
27.386880, 24.100000, 111.500000, 0.000000, 0.000000, 145.500000, 12.400000, 40.500000, 84.000000, 0.014835, 0.003141, -0.713818, 1.745526, 1.056005, -0.441330, -3.298242, 8.065310, 4.879336, -2.039194, 12297829382473033728.000000, 13527612320720336896.000000, 14757395258967642112.000000, 238.633118, 238.633118, 3592.250000
27.486097, 24.100000, 111.500000, 0.000000, 0.000000, 145.500000, 12.400000, 40.500000, 84.000000, 0.014835, 0.003141, -0.713818, 1.745526, 1.056005, -0.441330, -2.654037, 6.490012, 3.926316, -1.640903, 12297829382473033728.000000, 13527612320720336896.000000, 14757395258967642112.000000, 238.633118, 238.633118, 3592.250000
27.591553, 24.100000, 111.500000, 0.000000, 0.000000, 145.500000, 12.400000, 40.500000, 84.000000, 0.014835, 0.003141, -0.713818, 1.745526, 1.056005, -0.441330, -2.071355, 5.065157, 3.064310, -1.280650, 12297829382473033728.000000, 13527612320720336896.000000, 14757395258967642112.000000, 238.633118, 238.633118, 3592.250000
27.690842, 24.100000, 111.500000, 0.000000, 0.000000, 145.500000, 12.400000, 40.500000, 84.000000, 0.014835, 0.003141, -0.713818, 1.745526, 1.056005, -0.441330, -1.558048, 3.809949, 2.304937, -0.963290, 12297829382473033728.000000, 13527612320720336896.000000, 14757395258967642112.000000, 238.633118, 238.633118, 3592.250000
27.796141, 24.100000, 111.500000, 0.000000, 0.000000, 145.500000, 12.400000, 40.500000, 84.000000, 0.014835, 0.003141, -0.713818, 1.745526, 1.056005, -0.441330, -1.116977, 2.731383, 1.652429, -0.690591, 12297829382473033728.000000, 13527612320720336896.000000, 14757395258967642112.000000, 238.633118, 238.633118, 3592.250000
27.895508, 24.100000, 111.500000, 0.000000, 0.000000, 145.500000, 12.400000, 40.500000, 84.000000, 0.014835, 0.003141, -0.713818, 1.745526, 1.056005, -0.441330, -0.747227, 1.827219, 1.105429, -0.461986, 12297829382473033728.000000, 13527612320720336896.000000, 14757395258967642112.000000, 238.633118, 238.633118, 3592.250000
28.000729, 24.100000, 111.500000, 0.000000, 0.000000, 145.500000, 12.400000, 40.500000, 84.000000, 0.014835, 0.003141, -0.713818, 1.745526, 1.056005, -0.441330, -0.445152, 1.088543, 0.658546, -0.275223, 12297829382473033728.000000, 13527612320720336896.000000, 14757395258967642112.000000, 238.633118, 238.633118, 3592.250000
28.100021, 24.100000, 111.500000, 0.000000, 0.000000, 145.500000, 12.400000, 40.500000, 84.000000, 0.014835, 0.003141, -0.713818, 1.745526, 1.056005, -0.441330, -0.205258, 0.501923, 0.303654, -0.126905, 12297829382473033728.000000, 13527612320720336896.000000, 14757395258967642112.000000, 238.633118, 238.633118, 3592.250000
28.205379, 24.100000, 111.500000, 0.000000, 0.000000, 145.500000, 12.400000, 40.500000, 84.000000, 0.014835, 0.003141, -0.713818, 1.745526, 1.056005, -0.441330, -0.020929, 0.051176, 0.030962, -0.012940, 12297829382473033728.000000, 13527612320720336896.000000, 14757395258967642112.000000, 238.633118, 238.633118, 3592.250000
28.304750, 24.100000, 111.500000, 0.000000, 0.000000, 145.500000, 12.400000, 40.500000, 84.000000, 0.014835, 0.003141, -0.713818, 1.745526, 1.056005, -0.441330, 0.115002, -0.281220, -0.170131, 0.071102, 12297829382473033728.000000, 13527612320720336896.000000, 14757395258967642112.000000, 238.633118, 238.633118, 3592.250000
28.409965, 24.100000, 111.500000, 0.000000, 0.000000, 145.500000, 12.400000, 40.500000, 84.000000, 0.014835, 0.003141, -0.713818, 1.745526, 1.056005, -0.441330, 0.209803, -0.513040, -0.310377, 0.129714, 12297829382473033728.000000, 13527612320720336896.000000, 14757395258967642112.000000, 238.633118, 238.633118, 3592.250000
28.509416, 24.100000, 111.500000, 0.000000, 0.000000, 145.500000, 12.400000, 40.500000, 84.000000, 0.014835, 0.003141, -0.713818, 1.745526, 1.056005, -0.441330, 0.270515, -0.661501, -0.400192, 0.167250, 12297829382473033728.000000, 13527612320720336896.000000, 14757395258967642112.000000, 238.633118, 238.633118, 3592.250000
28.614635, 24.100000, 111.500000, 0.000000, 0.000000, 145.500000, 12.400000, 40.500000, 84.000000, 0.014835, 0.003141, -0.713818, 1.745526, 1.056005, -0.441330, 0.303718, -0.742693, -0.449312, 0.187778, 12297829382473033728.000000, 13527612320720336896.000000, 14757395258967642112.000000, 238.633118, 238.633118, 3592.250000
28.713923, 24.100000, 111.500000, 0.000000, 0.000000, 145.500000, 12.400000, 40.500000, 84.000000, 0.014835, 0.003141, -0.713818, 1.745526, 1.056005, -0.441330, 0.315381, -0.771213, -0.466566, 0.194989, 12297829382473033728.000000, 13527612320720336896.000000, 14757395258967642112.000000, 238.633118, 238.633118, 3592.250000
28.819202, 24.100000, 111.500000, 0.000000, 0.000000, 145.500000, 12.400000, 40.500000, 84.000000, 0.014835, 0.003141, -0.713818, 1.745526, 1.056005, -0.441330, 0.310775, -0.759949, -0.459752, 0.192142, 12297829382473033728.000000, 13527612320720336896.000000, 14757395258967642112.000000, 238.633118, 238.633118, 3592.250000
28.918491, 24.100000, 111.500000, 0.000000, 0.000000, 145.500000, 12.400000, 40.500000, 84.000000, 0.014835, 0.003141, -0.713818, 1.745526, 1.056005, -0.441330, 0.294441, -0.720007, -0.435588, 0.182043, 12297829382473033728.000000, 13527612320720336896.000000, 14757395258967642112.000000, 238.633118, 238.633118, 3592.250000
29.023871, 24.100000, 111.500000, 0.000000, 0.000000, 145.500000, 12.400000, 40.500000, 84.000000, 0.014835, 0.003141, -0.713818, 1.745526, 1.056005, -0.441330, 0.270194, -0.660717, -0.399719, 0.167052, 12297829382473033728.000000, 13527612320720336896.000000, 14757395258967642112.000000, 238.633118, 238.633118, 3592.250000
29.123172, 24.100000, 111.500000, 0.000000, 0.000000, 145.500000, 12.400000, 40.500000, 84.000000, 0.014835, 0.003141, -0.713818, 1.745526, 1.056005, -0.441330, 0.241162, -0.589723, -0.356769, 0.149103, 12297829382473033728.000000, 13527612320720336896.000000, 14757395258967642112.000000, 238.633118, 238.633118, 3592.250000
29.228443, 24.100000, 111.500000, 0.000000, 0.000000, 145.500000, 12.400000, 40.500000, 84.000000, 0.014835, 0.003141, -0.713818, 1.745526, 1.056005, -0.441330, 0.209834, -0.513114, -0.310423, 0.129733, 12297829382473033728.000000, 13527612320720336896.000000, 14757395258967642112.000000, 238.633118, 238.633118, 3592.250000
29.327814, 24.100000, 111.500000, 0.000000, 0.000000, 145.500000, 12.400000, 40.500000, 84.000000, 0.014835, 0.003141, -0.713818, 1.745526, 1.056005, -0.441330, 0.178129, -0.435586, -0.263520, 0.110131, 12297829382473033728.000000, 13527612320720336896.000000, 14757395258967642112.000000, 238.633118, 238.633118, 3592.250000
29.433010, 24.100000, 111.500000, 0.000000, 0.000000, 145.500000, 12.400000, 40.500000, 84.000000, 0.014835, 0.003141, -0.713818, 1.745526, 1.056005, -0.441330, 0.147471, -0.360618, -0.218166, 0.091177, 12297829382473033728.000000, 13527612320720336896.000000, 14757395258967642112.000000, 238.633118, 238.633118, 3592.250000
29.532380, 24.100000, 111.500000, 0.000000, 0.000000, 145.500000, 12.400000, 40.500000, 84.000000, 0.014835, 0.003141, -0.713818, 1.745526, 1.056005, -0.441330, 0.118859, -0.290650, -0.175837, 0.073487, 12297829382473033728.000000, 13527612320720336896.000000, 14757395258967642112.000000, 238.633118, 238.633118, 3592.250000
29.637654, 24.100000, 111.500000, 0.000000, 0.000000, 145.500000, 12.400000, 40.500000, 84.000000, 0.014835, 0.003141, -0.713818, 1.745526, 1.056005, -0.441330, 0.092938, -0.227265, -0.137490, 0.057461, 12297829382473033728.000000, 13527612320720336896.000000, 14757395258967642112.000000, 238.633118, 238.633118, 3592.250000
29.737021, 24.100000, 111.500000, 0.000000, 0.000000, 145.500000, 12.400000, 40.500000, 84.000000, 0.014835, 0.003141, -0.713818, 1.745526, 1.056005, -0.441330, 0.070070, -0.171346, -0.103660, 0.043322, 12297829382473033728.000000, 13527612320720336896.000000, 14757395258967642112.000000, 238.633118, 238.633118, 3592.250000
29.842375, 24.100000, 111.500000, 0.000000, 0.000000, 145.500000, 12.400000, 40.500000, 84.000000, 0.014835, 0.003141, -0.713818, 1.745526, 1.056005, -0.441330, 0.050393, -0.123229, -0.074551, 0.031157, 12297829382473033728.000000, 13527612320720336896.000000, 14757395258967642112.000000, 238.633118, 238.633118, 3592.250000
29.941670, 24.100000, 111.500000, 0.000000, 0.000000, 145.500000, 12.400000, 40.500000, 84.000000, 0.014835, 0.003141, -0.713818, 1.745526, 1.056005, -0.441330, 0.033874, -0.082835, -0.050113, 0.020944, 12297829382473033728.000000, 13527612320720336896.000000, 14757395258967642112.000000, 238.633118, 238.633118, 3592.250000
30.046978, 24.100000, 111.500000, 0.000000, 0.000000, 145.500000, 12.400000, 40.500000, 84.000000, 0.014835, 0.003141, -0.713818, 1.745526, 1.056005, -0.441330, 0.020359, -0.049784, -0.030118, 0.012587, 12297829382473033728.000000, 13527612320720336896.000000, 14757395258967642112.000000, 238.633118, 238.633118, 3592.250000
30.146429, 24.100000, 111.500000, 0.000000, 0.000000, 145.500000, 12.400000, 40.500000, 84.000000, 0.014835, 0.003141, -0.713818, 1.745526, 1.056005, -0.441330, 0.009607, -0.023491, -0.014212, 0.005939, 12297829382473033728.000000, 13527612320720336896.000000, 14757395258967642112.000000, 238.633118, 238.633118, 3592.250000
30.251671, 24.100000, 111.500000, 0.000000, 0.000000, 145.500000, 12.400000, 40.500000, 84.000000, 0.014835, 0.003141, -0.713818, 1.745526, 1.056005, -0.441330, 0.001328, -0.003247, -0.001965, 0.000821, 12297829382473033728.000000, 13527612320720336896.000000, 14757395258967642112.000000, 238.633118, 238.633118, 3592.250000
30.350981, 24.100000, 111.500000, 0.000000, 0.000000, 145.500000, 12.400000, 40.500000, 84.000000, 0.014835, 0.003141, -0.713818, 1.745526, 1.056005, -0.441330, -0.004793, 0.011721, 0.007091, -0.002963, 12297829382473033728.000000, 13527612320720336896.000000, 14757395258967642112.000000, 238.633118, 238.633118, 3592.250000
30.456300, 24.100000, 111.500000, 0.000000, 0.000000, 145.500000, 12.400000, 40.500000, 84.000000, 0.014835, 0.003141, -0.713818, 1.745526, 1.056005, -0.441330, -0.009078, 0.022199, 0.013430, -0.005613, 12297829382473033728.000000, 13527612320720336896.000000, 14757395258967642112.000000, 238.633118, 238.633118, 3592.250000
30.555609, 24.100000, 111.500000, 0.000000, 0.000000, 145.500000, 12.400000, 40.500000, 84.000000, 0.014835, 0.003141, -0.713818, 1.745526, 1.056005, -0.441330, -0.011839, 0.028951, 0.017515, -0.007320, 12297829382473033728.000000, 13527612320720336896.000000, 14757395258967642112.000000, 238.633118, 238.633118, 3592.250000
30.660840, 24.100000, 111.500000, 0.000000, 0.000000, 145.500000, 12.400000, 40.500000, 84.000000, 0.014835, 0.003141, -0.713818, 1.745526, 1.056005, -0.441330, -0.013369, 0.032691, 0.019777, -0.008265, 12297829382473033728.000000, 13527612320720336896.000000, 14757395258967642112.000000, 238.633118, 238.633118, 3592.250000
30.760232, 24.100000, 111.500000, 0.000000, 0.000000, 145.500000, 12.400000, 40.500000, 84.000000, 0.014835, 0.003141, -0.713818, 1.745526, 1.056005, -0.441330, -0.013932, 0.034068, 0.020610, -0.008614, 12297829382473033728.000000, 13527612320720336896.000000, 14757395258967642112.000000, 238.633118, 238.633118, 3592.250000
30.865465, 24.100000, 111.500000, 0.000000, 0.000000, 145.500000, 12.400000, 40.500000, 84.000000, 0.014835, 0.003141, -0.713818, 1.745526, 1.056005, -0.441330, -0.013763, 0.033656, 0.020361, -0.008509, 12297829382473033728.000000, 13527612320720336896.000000, 14757395258967642112.000000, 238.633118, 238.633118, 3592.250000
30.964838, 24.100000, 111.500000, 0.000000, 0.000000, 145.500000, 12.400000, 40.500000, 84.000000, 0.014835, 0.003141, -0.713818, 1.745526, 1.056005, -0.441330, -0.013066, 0.031951, 0.019330, -0.008078, 12297829382473033728.000000, 13527612320720336896.000000, 14757395258967642112.000000, 238.633118, 238.633118, 3592.250000
31.069037, 24.100000, 111.500000, 0.000000, 0.000000, 145.500000, 12.400000, 40.500000, 84.000000, 0.014835, 0.003141, -0.713818, 1.745526, 1.056005, -0.441330, -0.012010, 0.029369, 0.017768, -0.007426, 12297829382473033728.000000, 13527612320720336896.000000, 14757395258967642112.000000, 238.633118, 238.633118, 3592.250000
31.168422, 24.100000, 111.500000, 0.000000, 0.000000, 145.500000, 12.400000, 40.500000, 84.000000, 0.014835, 0.003141, -0.713818, 1.745526, 1.056005, -0.441330, -0.010736, 0.026253, 0.015882, -0.006638, 12297829382473033728.000000, 13527612320720336896.000000, 14757395258967642112.000000, 238.633118, 238.633118, 3592.250000
31.273612, 24.100000, 111.500000, 0.000000, 0.000000, 145.500000, 12.400000, 40.500000, 84.000000, 0.014835, 0.003141, -0.713818, 1.745526, 1.056005, -0.441330, -0.009355, 0.022875, 0.013839, -0.005784, 12297829382473033728.000000, 13527612320720336896.000000, 14757395258967642112.000000, 238.633118, 238.633118, 3592.250000
31.372916, 24.100000, 111.500000, 0.000000, 0.000000, 145.500000, 12.400000, 40.500000, 84.000000, 0.014835, 0.003141, -0.713818, 1.745526, 1.056005, -0.441330, -0.007952, 0.019446, 0.011764, -0.004917, 12297829382473033728.000000, 13527612320720336896.000000, 14757395258967642112.000000, 238.633118, 238.633118, 3592.250000
31.478317, 24.100000, 111.500000, 0.000000, 0.000000, 145.500000, 12.400000, 40.500000, 84.000000, 0.014835, 0.003141, -0.713818, 1.745526, 1.056005, -0.441330, -0.006593, 0.016123, 0.009754, -0.004076, 12297829382473033728.000000, 13527612320720336896.000000, 14757395258967642112.000000, 238.633118, 238.633118, 3592.250000
31.577769, 24.100000, 111.500000, 0.000000, 0.000000, 145.500000, 12.400000, 40.500000, 84.000000, 0.014835, 0.003141, -0.713818, 1.745526, 1.056005, -0.441330, -0.005322, 0.013015, 0.007874, -0.003291, 12297829382473033728.000000, 13527612320720336896.000000, 14757395258967642112.000000, 238.633118, 238.633118, 3592.250000
31.683006, 24.100000, 111.500000, 0.000000, 0.000000, 145.500000, 12.400000, 40.500000, 84.000000, 0.014835, 0.003141, -0.713818, 1.745526, 1.056005, -0.441330, -0.004169, 0.010196, 0.006168, -0.002578, 12297829382473033728.000000, 13527612320720336896.000000, 14757395258967642112.000000, 238.633118, 238.633118, 3592.250000
31.782395, 24.100000, 111.500000, 0.000000, 0.000000, 145.500000, 12.400000, 40.500000, 84.000000, 0.014835, 0.003141, -0.713818, 1.745526, 1.056005, -0.441330, -0.003151, 0.007705, 0.004661, -0.001948, 12297829382473033728.000000, 13527612320720336896.000000, 14757395258967642112.000000, 238.633118, 238.633118, 3592.250000
31.887638, 24.100000, 111.500000, 0.000000, 0.000000, 145.500000, 12.400000, 40.500000, 84.000000, 0.014835, 0.003141, -0.713818, 1.745526, 1.056005, -0.441330, -0.002273, 0.005558, 0.003363, -0.001405, 12297829382473033728.000000, 13527612320720336896.000000, 14757395258967642112.000000, 238.633118, 238.633118, 3592.250000
31.987010, 24.100000, 111.500000, 0.000000, 0.000000, 145.500000, 12.400000, 40.500000, 84.000000, 0.014835, 0.003141, -0.713818, 1.745526, 1.056005, -0.441330, -0.001535, 0.003754, 0.002271, -0.000949, 12297829382473033728.000000, 13527612320720336896.000000, 14757395258967642112.000000, 238.633118, 238.633118, 3592.250000
32.092322, 24.100000, 111.500000, 0.000000, 0.000000, 145.500000, 12.400000, 40.500000, 84.000000, 0.014835, 0.003141, -0.713818, 1.745526, 1.056005, -0.441330, -0.000930, 0.002275, 0.001376, -0.000575, 12297829382473033728.000000, 13527612320720336896.000000, 14757395258967642112.000000, 238.633118, 238.633118, 3592.250000
32.191658, 24.100000, 111.500000, 0.000000, 0.000000, 145.500000, 12.400000, 40.500000, 84.000000, 0.014835, 0.003141, -0.713818, 1.745526, 1.056005, -0.441330, -0.000449, 0.001097, 0.000664, -0.000277, 12297829382473033728.000000, 13527612320720336896.000000, 14757395258967642112.000000, 238.633118, 238.633118, 3592.250000
32.296891, 24.100000, 111.500000, 0.000000, 0.000000, 145.500000, 12.400000, 40.500000, 84.000000, 0.014835, 0.003141, -0.713818, 1.745526, 1.056005, -0.441330, -0.000077, 0.000188, 0.000114, -0.000047, 12297829382473033728.000000, 13527612320720336896.000000, 14757395258967642112.000000, 238.633118, 238.633118, 3592.250000
32.396291, 24.100000, 111.500000, 0.000000, 0.000000, 145.500000, 12.400000, 40.500000, 84.000000, 0.014835, 0.003141, -0.713818, 1.745526, 1.056005, -0.441330, 0.000199, -0.000486, -0.000294, 0.000123, 12297829382473033728.000000, 13527612320720336896.000000, 14757395258967642112.000000, 238.633118, 238.633118, 3592.250000
32.501547, 24.100000, 111.500000, 0.000000, 0.000000, 145.500000, 12.400000, 40.500000, 84.000000, 0.014835, 0.003141, -0.713818, 1.745526, 1.056005, -0.441330, 0.000392, -0.000960, -0.000581, 0.000243, 12297829382473033728.000000, 13527612320720336896.000000, 14757395258967642112.000000, 238.633118, 238.633118, 3592.250000
32.600862, 24.100000, 111.500000, 0.000000, 0.000000, 145.500000, 12.400000, 40.500000, 84.000000, 0.014835, 0.003141, -0.713818, 1.745526, 1.056005, -0.441330, 0.000518, -0.001267, -0.000766, 0.000320, 12297829382473033728.000000, 13527612320720336896.000000, 14757395258967642112.000000, 238.633118, 238.633118, 3592.250000
32.706123, 24.100000, 111.500000, 0.000000, 0.000000, 145.500000, 12.400000, 40.500000, 84.000000, 0.014835, 0.003141, -0.713818, 1.745526, 1.056005, -0.441330, 0.000588, -0.001439, -0.000870, 0.000364, 12297829382473033728.000000, 13527612320720336896.000000, 14757395258967642112.000000, 238.633118, 238.633118, 3592.250000
32.805454, 24.100000, 111.500000, 0.000000, 0.000000, 145.500000, 12.400000, 40.500000, 84.000000, 0.014835, 0.003141, -0.713818, 1.745526, 1.056005, -0.441330, 0.000615, -0.001505, -0.000910, 0.000380, 12297829382473033728.000000, 13527612320720336896.000000, 14757395258967642112.000000, 238.633118, 238.633118, 3592.250000
32.910792, 24.100000, 111.500000, 0.000000, 0.000000, 145.500000, 12.400000, 40.500000, 84.000000, 0.014835, 0.003141, -0.713818, 1.745526, 1.056005, -0.441330, 0.000609, -0.001490, -0.000902, 0.000377, 12297829382473033728.000000, 13527612320720336896.000000, 14757395258967642112.000000, 238.633118, 238.633118, 3592.250000
33.010051, 24.100000, 111.500000, 0.000000, 0.000000, 145.500000, 12.400000, 40.500000, 84.000000, 0.014835, 0.003141, -0.713818, 1.745526, 1.056005, -0.441330, 0.000580, -0.001418, -0.000858, 0.000358, 12297829382473033728.000000, 13527612320720336896.000000, 14757395258967642112.000000, 238.633118, 238.633118, 3592.250000
33.115366, 24.100000, 111.500000, 0.000000, 0.000000, 145.500000, 12.400000, 40.500000, 84.000000, 0.014835, 0.003141, -0.713818, 1.745526, 1.056005, -0.441330, 0.000534, -0.001305, -0.000790, 0.000330, 12297829382473033728.000000, 13527612320720336896.000000, 14757395258967642112.000000, 238.633118, 238.633118, 3592.250000
33.214702, 24.100000, 111.500000, 0.000000, 0.000000, 145.500000, 12.400000, 40.500000, 84.000000, 0.014835, 0.003141, -0.713818, 1.745526, 1.056005, -0.441330, 0.000478, -0.001169, -0.000707, 0.000295, 12297829382473033728.000000, 13527612320720336896.000000, 14757395258967642112.000000, 238.633118, 238.633118, 3592.250000
33.319986, 24.100000, 111.500000, 0.000000, 0.000000, 145.500000, 12.400000, 40.500000, 84.000000, 0.014835, 0.003141, -0.713818, 1.745526, 1.056005, -0.441330, 0.000417, -0.001020, -0.000617, 0.000258, 12297829382473033728.000000, 13527612320720336896.000000, 14757395258967642112.000000, 238.633118, 238.633118, 3592.250000
33.419311, 24.100000, 111.500000, 0.000000, 0.000000, 145.500000, 12.400000, 40.500000, 84.000000, 0.014835, 0.003141, -0.713818, 1.745526, 1.056005, -0.441330, 0.000355, -0.000868, -0.000525, 0.000219, 12297829382473033728.000000, 13527612320720336896.000000, 14757395258967642112.000000, 238.633118, 238.633118, 3592.250000
33.524549, 24.100000, 111.500000, 0.000000, 0.000000, 145.500000, 12.400000, 40.500000, 84.000000, 0.014835, 0.003141, -0.713818, 1.745526, 1.056005, -0.441330, 0.000295, -0.000721, -0.000436, 0.000182, 12297829382473033728.000000, 13527612320720336896.000000, 14757395258967642112.000000, 238.633118, 238.633118, 3592.250000
33.623961, 24.100000, 111.500000, 0.000000, 0.000000, 145.500000, 12.400000, 40.500000, 84.000000, 0.014835, 0.003141, -0.713818, 1.745526, 1.056005, -0.441330, 0.000238, -0.000583, -0.000353, 0.000147, 12297829382473033728.000000, 13527612320720336896.000000, 14757395258967642112.000000, 238.633118, 238.633118, 3592.250000
33.729359, 24.100000, 111.500000, 0.000000, 0.000000, 145.500000, 12.400000, 40.500000, 84.000000, 0.014835, 0.003141, -0.713818, 1.745526, 1.056005, -0.441330, 0.000187, -0.000457, -0.000277, 0.000116, 12297829382473033728.000000, 13527612320720336896.000000, 14757395258967642112.000000, 238.633118, 238.633118, 3592.250000
33.828533, 24.100000, 111.500000, 0.000000, 0.000000, 145.500000, 12.400000, 40.500000, 84.000000, 0.014835, 0.003141, -0.713818, 1.745526, 1.056005, -0.441330, 0.000142, -0.000346, -0.000210, 0.000088, 12297829382473033728.000000, 13527612320720336896.000000, 14757395258967642112.000000, 238.633118, 238.633118, 3592.250000
33.933853, 24.100000, 111.500000, 0.000000, 0.000000, 145.500000, 12.400000, 40.500000, 84.000000, 0.014835, 0.003141, -0.713818, 1.745526, 1.056005, -0.441330, 0.000103, -0.000251, -0.000152, 0.000063, 12297829382473033728.000000, 13527612320720336896.000000, 14757395258967642112.000000, 238.633118, 238.633118, 3592.250000
34.033200, 24.100000, 111.500000, 0.000000, 0.000000, 145.500000, 12.400000, 40.500000, 84.000000, 0.014835, 0.003141, -0.713818, 1.745526, 1.056005, -0.441330, 0.000070, -0.000170, -0.000103, 0.000043, 12297829382473033728.000000, 13527612320720336896.000000, 14757395258967642112.000000, 238.633118, 238.633118, 3592.250000
34.138418, 24.100000, 111.500000, 0.000000, 0.000000, 145.500000, 12.400000, 40.500000, 84.000000, 0.014835, 0.003141, -0.713818, 1.745526, 1.056005, -0.441330, 0.000042, -0.000104, -0.000063, 0.000026, 12297829382473033728.000000, 13527612320720336896.000000, 14757395258967642112.000000, 238.633118, 238.633118, 3592.250000
34.237777, 24.100000, 111.500000, 0.000000, 0.000000, 145.500000, 12.400000, 40.500000, 84.000000, 0.014835, 0.003141, -0.713818, 1.745526, 1.056005, -0.441330, 0.000021, -0.000051, -0.000031, 0.000013, 12297829382473033728.000000, 13527612320720336896.000000, 14757395258967642112.000000, 238.633118, 238.633118, 3592.250000
34.342028, 24.100000, 111.500000, 0.000000, 0.000000, 145.500000, 12.400000, 40.500000, 84.000000, 0.014835, 0.003141, -0.713818, 1.745526, 1.056005, -0.441330, 0.000004, -0.000010, -0.000006, 0.000003, 12297829382473033728.000000, 13527612320720336896.000000, 14757395258967642112.000000, 238.633118, 238.633118, 3592.250000
34.441356, 24.100000, 111.500000, 0.000000, 0.000000, 145.500000, 12.400000, 40.500000, 84.000000, 0.014835, 0.003141, -0.713818, 1.745526, 1.056005, -0.441330, -0.000008, 0.000020, 0.000012, -0.000005, 12297829382473033728.000000, 13527612320720336896.000000, 14757395258967642112.000000, 238.633118, 238.633118, 3592.250000
34.546706, 24.100000, 111.500000, 0.000000, 0.000000, 145.500000, 12.400000, 40.500000, 84.000000, 0.014835, 0.003141, -0.713818, 1.745526, 1.056005, -0.441330, -0.000017, 0.000041, 0.000025, -0.000010, 12297829382473033728.000000, 13527612320720336896.000000, 14757395258967642112.000000, 238.633118, 238.633118, 3592.250000
34.645971, 24.100000, 111.500000, 0.000000, 0.000000, 145.500000, 12.400000, 40.500000, 84.000000, 0.014835, 0.003141, -0.713818, 1.745526, 1.056005, -0.441330, -0.000023, 0.000055, 0.000034, -0.000014, 12297829382473033728.000000, 13527612320720336896.000000, 14757395258967642112.000000, 238.633118, 238.633118, 3592.250000
34.751167, 24.100000, 111.500000, 0.000000, 0.000000, 145.500000, 12.400000, 40.500000, 84.000000, 0.014835, 0.003141, -0.713818, 1.745526, 1.056005, -0.441330, -0.000026, 0.000063, 0.000038, -0.000016, 12297829382473033728.000000, 13527612320720336896.000000, 14757395258967642112.000000, 238.633118, 238.633118, 3592.250000
34.850591, 24.100000, 111.500000, 0.000000, 0.000000, 145.500000, 12.400000, 40.500000, 84.000000, 0.014835, 0.003141, -0.713818, 1.745526, 1.056005, -0.441330, -0.000027, 0.000066, 0.000040, -0.000017, 12297829382473033728.000000, 13527612320720336896.000000, 14757395258967642112.000000, 238.633118, 238.633118, 3592.250000
34.955941, 24.100000, 111.500000, 0.000000, 0.000000, 145.500000, 12.400000, 40.500000, 84.000000, 0.014835, 0.003141, -0.713818, 1.745526, 1.056005, -0.441330, -0.000027, 0.000066, 0.000040, -0.000017, 12297829382473033728.000000, 13527612320720336896.000000, 14757395258967642112.000000, 238.633118, 238.633118, 3592.250000
35.055233, 24.100000, 111.500000, 0.000000, 0.000000, 145.500000, 12.400000, 40.500000, 84.000000, 0.014835, 0.003141, -0.713818, 1.745526, 1.056005, -0.441330, -0.000026, 0.000063, 0.000038, -0.000016, 12297829382473033728.000000, 13527612320720336896.000000, 14757395258967642112.000000, 238.633118, 238.633118, 3592.250000
35.160585, 24.100000, 111.500000, 0.000000, 0.000000, 145.500000, 12.400000, 40.500000, 84.000000, 0.014835, 0.003141, -0.713818, 1.745526, 1.056005, -0.441330, -0.000024, 0.000058, 0.000035, -0.000015, 12297829382473033728.000000, 13527612320720336896.000000, 14757395258967642112.000000, 238.633118, 238.633118, 3592.250000
35.259989, 24.100000, 111.500000, 0.000000, 0.000000, 145.500000, 12.400000, 40.500000, 84.000000, 0.014835, 0.003141, -0.713818, 1.745526, 1.056005, -0.441330, -0.000021, 0.000052, 0.000031, -0.000013, 12297829382473033728.000000, 13527612320720336896.000000, 14757395258967642112.000000, 238.633118, 238.633118, 3592.250000
35.365344, 24.100000, 111.500000, 0.000000, 0.000000, 145.500000, 12.400000, 40.500000, 84.000000, 0.014835, 0.003141, -0.713818, 1.745526, 1.056005, -0.441330, -0.000019, 0.000045, 0.000027, -0.000011, 12297829382473033728.000000, 13527612320720336896.000000, 14757395258967642112.000000, 238.633118, 238.633118, 3592.250000
35.464535, 24.100000, 111.500000, 0.000000, 0.000000, 145.500000, 12.400000, 40.500000, 84.000000, 0.014835, 0.003141, -0.713818, 1.745526, 1.056005, -0.441330, -0.000016, 0.000039, 0.000023, -0.000010, 12297829382473033728.000000, 13527612320720336896.000000, 14757395258967642112.000000, 238.633118, 238.633118, 3592.250000
35.569887, 24.100000, 111.500000, 0.000000, 0.000000, 145.500000, 12.400000, 40.500000, 84.000000, 0.014835, 0.003141, -0.713818, 1.745526, 1.056005, -0.441330, -0.000013, 0.000032, 0.000019, -0.000008, 12297829382473033728.000000, 13527612320720336896.000000, 14757395258967642112.000000, 238.633118, 238.633118, 3592.250000
35.669162, 24.100000, 111.500000, 0.000000, 0.000000, 145.500000, 12.400000, 40.500000, 84.000000, 0.014835, 0.003141, -0.713818, 1.745526, 1.056005, -0.441330, -0.000011, 0.000026, 0.000016, -0.000007, 12297829382473033728.000000, 13527612320720336896.000000, 14757395258967642112.000000, 238.633118, 238.633118, 3592.250000
35.774428, 24.100000, 111.500000, 0.000000, 0.000000, 145.500000, 12.400000, 40.500000, 84.000000, 0.014835, 0.003141, -0.713818, 1.745526, 1.056005, -0.441330, -0.000008, 0.000021, 0.000012, -0.000005, 12297829382473033728.000000, 13527612320720336896.000000, 14757395258967642112.000000, 238.633118, 238.633118, 3592.250000
35.873848, 24.100000, 111.500000, 0.000000, 0.000000, 145.500000, 12.400000, 40.500000, 84.000000, 0.014835, 0.003141, -0.713818, 1.745526, 1.056005, -0.441330, -0.000006, 0.000016, 0.000009, -0.000004, 12297829382473033728.000000, 13527612320720336896.000000, 14757395258967642112.000000, 238.633118, 238.633118, 3592.250000
35.979106, 24.100000, 111.500000, 0.000000, 0.000000, 145.500000, 12.400000, 40.500000, 84.000000, 0.014835, 0.003141, -0.713818, 1.745526, 1.056005, -0.441330, -0.000005, 0.000011, 0.000007, -0.000003, 12297829382473033728.000000, 13527612320720336896.000000, 14757395258967642112.000000, 238.633118, 238.633118, 3592.250000
36.078449, 24.100000, 111.500000, 0.000000, 0.000000, 145.500000, 12.400000, 40.500000, 84.000000, 0.014835, 0.003141, -0.713818, 1.745526, 1.056005, -0.441330, -0.000003, 0.000008, 0.000005, -0.000002, 12297829382473033728.000000, 13527612320720336896.000000, 14757395258967642112.000000, 238.633118, 238.633118, 3592.250000
36.183805, 24.100000, 111.500000, 0.000000, 0.000000, 145.500000, 12.400000, 40.500000, 84.000000, 0.014835, 0.003141, -0.713818, 1.745526, 1.056005, -0.441330, -0.000002, 0.000005, 0.000003, -0.000001, 12297829382473033728.000000, 13527612320720336896.000000, 14757395258967642112.000000, 238.633118, 238.633118, 3592.250000
36.282990, 24.100000, 111.500000, 0.000000, 0.000000, 145.500000, 12.400000, 40.500000, 84.000000, 0.014835, 0.003141, -0.713818, 1.745526, 1.056005, -0.441330, -0.000001, 0.000002, 0.000001, -0.000001, 12297829382473033728.000000, 13527612320720336896.000000, 14757395258967642112.000000, 238.633118, 238.633118, 3592.250000
36.388323, 24.100000, 111.500000, 0.000000, 0.000000, 145.500000, 12.400000, 40.500000, 84.000000, 0.014835, 0.003141, -0.713818, 1.745526, 1.056005, -0.441330, -0.000000, 0.000001, 0.000000, -0.000000, 12297829382473033728.000000, 13527612320720336896.000000, 14757395258967642112.000000, 238.633118, 238.633118, 3592.250000
36.487753, 24.100000, 111.500000, 0.000000, 0.000000, 145.500000, 12.400000, 40.500000, 84.000000, 0.014835, 0.003141, -0.713818, 1.745526, 1.056005, -0.441330, 0.000000, -0.000001, -0.000000, 0.000000, 12297829382473033728.000000, 13527612320720336896.000000, 14757395258967642112.000000, 238.633118, 238.633118, 3592.250000
36.593005, 24.100000, 111.500000, 0.000000, 0.000000, 145.500000, 12.400000, 40.500000, 84.000000, 0.014835, 0.003141, -0.713818, 1.745526, 1.056005, -0.441330, 0.000001, -0.000002, -0.000001, 0.000000, 12297829382473033728.000000, 13527612320720336896.000000, 14757395258967642112.000000, 238.633118, 238.633118, 3592.250000
36.692417, 24.100000, 111.500000, 0.000000, 0.000000, 145.500000, 12.400000, 40.500000, 84.000000, 0.014835, 0.003141, -0.713818, 1.745526, 1.056005, -0.441330, 0.000001, -0.000002, -0.000001, 0.000001, 12297829382473033728.000000, 13527612320720336896.000000, 14757395258967642112.000000, 238.633118, 238.633118, 3592.250000
36.797769, 24.100000, 111.500000, 0.000000, 0.000000, 145.500000, 12.400000, 40.500000, 84.000000, 0.014835, 0.003141, -0.713818, 1.745526, 1.056005, -0.441330, 0.000001, -0.000003, -0.000002, 0.000001, 12297829382473033728.000000, 13527612320720336896.000000, 14757395258967642112.000000, 238.633118, 238.633118, 3592.250000
36.897037, 24.100000, 111.500000, 0.000000, 0.000000, 145.500000, 12.400000, 40.500000, 84.000000, 0.014835, 0.003141, -0.713818, 1.745526, 1.056005, -0.441330, 0.000001, -0.000003, -0.000002, 0.000001, 12297829382473033728.000000, 13527612320720336896.000000, 14757395258967642112.000000, 238.633118, 238.633118, 3592.250000
37.002368, 24.100000, 111.500000, 0.000000, 0.000000, 145.500000, 12.400000, 40.500000, 84.000000, 0.014835, 0.003141, -0.713818, 1.745526, 1.056005, -0.441330, 0.000001, -0.000003, -0.000002, 0.000001, 12297829382473033728.000000, 13527612320720336896.000000, 14757395258967642112.000000, 238.633118, 238.633118, 3592.250000
37.101632, 24.100000, 111.500000, 0.000000, 0.000000, 145.500000, 12.400000, 40.500000, 84.000000, 0.014835, 0.003141, -0.713818, 1.745526, 1.056005, -0.441330, 0.000001, -0.000003, -0.000002, 0.000001, 12297829382473033728.000000, 13527612320720336896.000000, 14757395258967642112.000000, 238.633118, 238.633118, 3592.250000
37.206975, 24.100000, 111.500000, 0.000000, 0.000000, 145.500000, 12.400000, 40.500000, 84.000000, 0.014835, 0.003141, -0.713818, 1.745526, 1.056005, -0.441330, 0.000001, -0.000003, -0.000002, 0.000001, 12297829382473033728.000000, 13527612320720336896.000000, 14757395258967642112.000000, 238.633118, 238.633118, 3592.250000
37.306324, 24.100000, 111.500000, 0.000000, 0.000000, 145.500000, 12.400000, 40.500000, 84.000000, 0.014835, 0.003141, -0.713818, 1.745526, 1.056005, -0.441330, 0.000001, -0.000002, -0.000001, 0.000001, 12297829382473033728.000000, 13527612320720336896.000000, 14757395258967642112.000000, 238.633118, 238.633118, 3592.250000
37.411686, 24.100000, 111.500000, 0.000000, 0.000000, 145.500000, 12.400000, 40.500000, 84.000000, 0.014835, 0.003141, -0.713818, 1.745526, 1.056005, -0.441330, 0.000001, -0.000002, -0.000001, 0.000001, 12297829382473033728.000000, 13527612320720336896.000000, 14757395258967642112.000000, 238.633118, 238.633118, 3592.250000
37.511017, 24.100000, 111.500000, 0.000000, 0.000000, 145.500000, 12.400000, 40.500000, 84.000000, 0.014835, 0.003141, -0.713818, 1.745526, 1.056005, -0.441330, 0.000001, -0.000002, -0.000001, 0.000000, 12297829382473033728.000000, 13527612320720336896.000000, 14757395258967642112.000000, 238.633118, 238.633118, 3592.250000
37.616290, 24.100000, 111.500000, 0.000000, 0.000000, 145.500000, 12.400000, 40.500000, 84.000000, 0.014835, 0.003141, -0.713818, 1.745526, 1.056005, -0.441330, 0.000001, -0.000001, -0.000001, 0.000000, 12297829382473033728.000000, 13527612320720336896.000000, 14757395258967642112.000000, 238.633118, 238.633118, 3592.250000
37.715659, 24.100000, 111.500000, 0.000000, 0.000000, 145.500000, 12.400000, 40.500000, 84.000000, 0.014835, 0.003141, -0.713818, 1.745526, 1.056005, -0.441330, 0.000000, -0.000001, -0.000001, 0.000000, 12297829382473033728.000000, 13527612320720336896.000000, 14757395258967642112.000000, 238.633118, 238.633118, 3592.250000
37.820927, 24.100000, 111.500000, 0.000000, 0.000000, 145.500000, 12.400000, 40.500000, 84.000000, 0.014835, 0.003141, -0.713818, 1.745526, 1.056005, -0.441330, 0.000000, -0.000001, -0.000001, 0.000000, 12297829382473033728.000000, 13527612320720336896.000000, 14757395258967642112.000000, 238.633118, 238.633118, 3592.250000
37.920363, 24.100000, 111.500000, 0.000000, 0.000000, 145.500000, 12.400000, 40.500000, 84.000000, 0.014835, 0.003141, -0.713818, 1.745526, 1.056005, -0.441330, 0.000000, -0.000001, -0.000000, 0.000000, 12297829382473033728.000000, 13527612320720336896.000000, 14757395258967642112.000000, 238.633118, 238.633118, 3592.250000
38.025567, 24.100000, 111.500000, 0.000000, 0.000000, 145.500000, 12.400000, 40.500000, 84.000000, 0.014835, 0.003141, -0.713818, 1.745526, 1.056005, -0.441330, 0.000000, -0.000001, -0.000000, 0.000000, 12297829382473033728.000000, 13527612320720336896.000000, 14757395258967642112.000000, 238.633118, 238.633118, 3592.250000
38.124913, 24.100000, 111.500000, 0.000000, 0.000000, 145.500000, 12.400000, 40.500000, 84.000000, 0.014835, 0.003141, -0.713818, 1.745526, 1.056005, -0.441330, 0.000000, -0.000000, -0.000000, 0.000000, 12297829382473033728.000000, 13527612320720336896.000000, 14757395258967642112.000000, 238.633118, 238.633118, 3592.250000
38.230288, 24.100000, 111.500000, 0.000000, 0.000000, 145.500000, 12.400000, 40.500000, 84.000000, 0.014835, 0.003141, -0.713818, 1.745526, 1.056005, -0.441330, 0.000000, -0.000000, -0.000000, 0.000000, 12297829382473033728.000000, 13527612320720336896.000000, 14757395258967642112.000000, 238.633118, 238.633118, 3592.250000
38.329576, 24.100000, 111.500000, 0.000000, 0.000000, 145.500000, 12.400000, 40.500000, 84.000000, 0.014835, 0.003141, -0.713818, 1.745526, 1.056005, -0.441330, 0.000000, -0.000000, -0.000000, 0.000000, 12297829382473033728.000000, 13527612320720336896.000000, 14757395258967642112.000000, 238.633118, 238.633118, 3592.250000
38.434856, 24.100000, 111.500000, 0.000000, 0.000000, 145.500000, 12.400000, 40.500000, 84.000000, 0.014835, 0.003141, -0.713818, 1.745526, 1.056005, -0.441330, 0.000000, -0.000000, -0.000000, 0.000000, 12297829382473033728.000000, 13527612320720336896.000000, 14757395258967642112.000000, 238.633118, 238.633118, 3592.250000
38.534149, 24.100000, 111.500000, 0.000000, 0.000000, 145.500000, 12.400000, 40.500000, 84.000000, 0.014835, 0.003141, -0.713818, 1.745526, 1.056005, -0.441330, -0.000000, 0.000000, 0.000000, -0.000000, 12297829382473033728.000000, 13527612320720336896.000000, 14757395258967642112.000000, 238.633118, 238.633118, 3592.250000
38.639471, 24.100000, 111.500000, 0.000000, 0.000000, 145.500000, 12.400000, 40.500000, 84.000000, 0.014835, 0.003141, -0.713818, 1.745526, 1.056005, -0.441330, -0.000000, 0.000000, 0.000000, -0.000000, 12297829382473033728.000000, 13527612320720336896.000000, 14757395258967642112.000000, 238.633118, 238.633118, 3592.250000
38.738841, 24.100000, 111.500000, 0.000000, 0.000000, 145.500000, 12.400000, 40.500000, 84.000000, 0.014835, 0.003141, -0.713818, 1.745526, 1.056005, -0.441330, -0.000000, 0.000000, 0.000000, -0.000000, 12297829382473033728.000000, 13527612320720336896.000000, 14757395258967642112.000000, 238.633118, 238.633118, 3592.250000
38.844217, 24.100000, 111.500000, 0.000000, 0.000000, 145.500000, 12.400000, 40.500000, 84.000000, 0.014835, 0.003141, -0.713818, 1.745526, 1.056005, -0.441330, -0.000000, 0.000000, 0.000000, -0.000000, 12297829382473033728.000000, 13527612320720336896.000000, 14757395258967642112.000000, 238.633118, 238.633118, 3592.250000
38.943571, 24.100000, 111.500000, 0.000000, 0.000000, 145.500000, 12.400000, 40.500000, 84.000000, 0.014835, 0.003141, -0.713818, 1.745526, 1.056005, -0.441330, -0.000000, 0.000000, 0.000000, -0.000000, 12297829382473033728.000000, 13527612320720336896.000000, 14757395258967642112.000000, 238.633118, 238.633118, 3592.250000
39.048872, 24.100000, 111.500000, 0.000000, 0.000000, 145.500000, 12.400000, 40.500000, 84.000000, 0.014835, 0.003141, -0.713818, 1.745526, 1.056005, -0.441330, -0.000000, 0.000000, 0.000000, -0.000000, 12297829382473033728.000000, 13527612320720336896.000000, 14757395258967642112.000000, 238.633118, 238.633118, 3592.250000
39.148250, 24.100000, 111.500000, 0.000000, 0.000000, 145.500000, 12.400000, 40.500000, 84.000000, 0.014835, 0.003141, -0.713818, 1.745526, 1.056005, -0.441330, -0.000000, 0.000000, 0.000000, -0.000000, 12297829382473033728.000000, 13527612320720336896.000000, 14757395258967642112.000000, 238.633118, 238.633118, 3592.250000
39.253523, 24.100000, 111.500000, 0.000000, 0.000000, 145.500000, 12.400000, 40.500000, 84.000000, 0.014835, 0.003141, -0.713818, 1.745526, 1.056005, -0.441330, -0.000000, 0.000000, 0.000000, -0.000000, 12297829382473033728.000000, 13527612320720336896.000000, 14757395258967642112.000000, 238.633118, 238.633118, 3592.250000
39.352877, 24.100000, 111.500000, 0.000000, 0.000000, 145.500000, 12.400000, 40.500000, 84.000000, 0.014835, 0.003141, -0.713818, 1.745526, 1.056005, -0.441330, -0.000000, 0.000000, 0.000000, -0.000000, 12297829382473033728.000000, 13527612320720336896.000000, 14757395258967642112.000000, 238.633118, 238.633118, 3592.250000
39.458174, 24.100000, 111.500000, 0.000000, 0.000000, 145.500000, 12.400000, 40.500000, 84.000000, 0.014835, 0.003141, -0.713818, 1.745526, 1.056005, -0.441330, -0.000000, 0.000000, 0.000000, -0.000000, 12297829382473033728.000000, 13527612320720336896.000000, 14757395258967642112.000000, 238.633118, 238.633118, 3592.250000
39.557541, 24.100000, 111.500000, 0.000000, 0.000000, 145.500000, 12.400000, 40.500000, 84.000000, 0.014835, 0.003141, -0.713818, 1.745526, 1.056005, -0.441330, -0.000000, 0.000000, 0.000000, -0.000000, 12297829382473033728.000000, 13527612320720336896.000000, 14757395258967642112.000000, 238.633118, 238.633118, 3592.250000
39.662891, 24.100000, 111.500000, 0.000000, 0.000000, 145.500000, 12.400000, 40.500000, 84.000000, 0.014835, 0.003141, -0.713818, 1.745526, 1.056005, -0.441330, -0.000000, 0.000000, 0.000000, -0.000000, 12297829382473033728.000000, 13527612320720336896.000000, 14757395258967642112.000000, 238.633118, 238.633118, 3592.250000
39.762116, 24.100000, 111.500000, 0.000000, 0.000000, 145.500000, 12.400000, 40.500000, 84.000000, 0.014835, 0.003141, -0.713818, 1.745526, 1.056005, -0.441330, -0.000000, 0.000000, 0.000000, -0.000000, 12297829382473033728.000000, 13527612320720336896.000000, 14757395258967642112.000000, 238.633118, 238.633118, 3592.250000
39.866446, 24.100000, 111.500000, 0.000000, 0.000000, 145.500000, 12.400000, 40.500000, 84.000000, 0.014835, 0.003141, -0.713818, 1.745526, 1.056005, -0.441330, -0.000000, 0.000000, 0.000000, -0.000000, 12297829382473033728.000000, 13527612320720336896.000000, 14757395258967642112.000000, 238.633118, 238.633118, 3592.250000
39.965803, 24.100000, 111.500000, 0.000000, 0.000000, 145.500000, 12.400000, 40.500000, 84.000000, 0.014835, 0.003141, -0.713818, 1.745526, 1.056005, -0.441330, -0.000000, 0.000000, 0.000000, -0.000000, 12297829382473033728.000000, 13527612320720336896.000000, 14757395258967642112.000000, 238.633118, 238.633118, 3592.250000
40.071019, 24.100000, 111.500000, 0.000000, 0.000000, 145.500000, 12.400000, 40.500000, 84.000000, 0.014835, 0.003141, -0.713818, 1.745526, 1.056005, -0.441330, -0.000000, 0.000000, 0.000000, -0.000000, 12297829382473033728.000000, 13527612320720336896.000000, 14757395258967642112.000000, 238.633118, 238.633118, 3592.250000
40.170367, 24.100000, 111.500000, 0.000000, 0.000000, 145.500000, 12.400000, 40.500000, 84.000000, 0.014835, 0.003141, -0.713818, 1.745526, 1.056005, -0.441330, -0.000000, 0.000000, 0.000000, -0.000000, 12297829382473033728.000000, 13527612320720336896.000000, 14757395258967642112.000000, 238.633118, 238.633118, 3592.250000
40.275641, 24.100000, 111.500000, 0.000000, 0.000000, 145.500000, 12.400000, 40.500000, 84.000000, 0.014835, 0.003141, -0.713818, 1.745526, 1.056005, -0.441330, -0.000000, 0.000000, 0.000000, -0.000000, 12297829382473033728.000000, 13527612320720336896.000000, 14757395258967642112.000000, 238.633118, 238.633118, 3592.250000
40.374984, 24.100000, 111.500000, 0.000000, 0.000000, 145.500000, 12.400000, 40.500000, 84.000000, 0.014835, 0.003141, -0.713818, 1.745526, 1.056005, -0.441330, -0.000000, 0.000000, 0.000000, -0.000000, 12297829382473033728.000000, 13527612320720336896.000000, 14757395258967642112.000000, 238.633118, 238.633118, 3592.250000
40.480288, 24.100000, 111.500000, 0.000000, 0.000000, 145.500000, 12.400000, 40.500000, 84.000000, 0.014835, 0.003141, -0.713818, 1.745526, 1.056005, -0.441330, -0.000000, 0.000000, 0.000000, -0.000000, 12297829382473033728.000000, 13527612320720336896.000000, 14757395258967642112.000000, 238.633118, 238.633118, 3592.250000
40.579636, 24.100000, 111.500000, 0.000000, 0.000000, 145.500000, 12.400000, 40.500000, 84.000000, 0.014835, 0.003141, -0.713818, 1.745526, 1.056005, -0.441330, 0.000000, -0.000000, -0.000000, 0.000000, 12297829382473033728.000000, 13527612320720336896.000000, 14757395258967642112.000000, 238.633118, 238.633118, 3592.250000
40.684901, 24.100000, 111.500000, 0.000000, 0.000000, 145.500000, 12.400000, 40.500000, 84.000000, 0.014835, 0.003141, -0.713818, 1.745526, 1.056005, -0.441330, 0.000000, -0.000000, -0.000000, 0.000000, 12297829382473033728.000000, 13527612320720336896.000000, 14757395258967642112.000000, 238.633118, 238.633118, 3592.250000
40.784240, 24.100000, 111.500000, 0.000000, 0.000000, 145.500000, 12.400000, 40.500000, 84.000000, 0.014835, 0.003141, -0.713818, 1.745526, 1.056005, -0.441330, 0.000000, -0.000000, -0.000000, 0.000000, 12297829382473033728.000000, 13527612320720336896.000000, 14757395258967642112.000000, 238.633118, 238.633118, 3592.250000
40.889481, 24.100000, 111.500000, 0.000000, 0.000000, 145.500000, 12.400000, 40.500000, 84.000000, 0.014835, 0.003141, -0.713818, 1.745526, 1.056005, -0.441330, 0.000000, -0.000000, -0.000000, 0.000000, 12297829382473033728.000000, 13527612320720336896.000000, 14757395258967642112.000000, 238.633118, 238.633118, 3592.250000
40.988909, 24.100000, 111.500000, 0.000000, 0.000000, 145.500000, 12.400000, 40.500000, 84.000000, 0.014835, 0.003141, -0.713818, 1.745526, 1.056005, -0.441330, 0.000000, -0.000000, -0.000000, 0.000000, 12297829382473033728.000000, 13527612320720336896.000000, 14757395258967642112.000000, 238.633118, 238.633118, 3592.250000
41.093225, 24.100000, 111.500000, 0.000000, 0.000000, 145.500000, 12.400000, 40.500000, 84.000000, 0.014835, 0.003141, -0.713818, 1.745526, 1.056005, -0.441330, 0.000000, -0.000000, -0.000000, 0.000000, 12297829382473033728.000000, 13527612320720336896.000000, 14757395258967642112.000000, 238.633118, 238.633118, 3592.250000
41.192553, 24.100000, 111.500000, 0.000000, 0.000000, 145.500000, 12.400000, 40.500000, 84.000000, 0.014835, 0.003141, -0.713818, 1.745526, 1.056005, -0.441330, 0.000000, -0.000000, -0.000000, 0.000000, 12297829382473033728.000000, 13527612320720336896.000000, 14757395258967642112.000000, 238.633118, 238.633118, 3592.250000
41.297821, 24.100000, 111.500000, 0.000000, 0.000000, 145.500000, 12.400000, 40.500000, 84.000000, 0.014835, 0.003141, -0.713818, 1.745526, 1.056005, -0.441330, 0.000000, -0.000000, -0.000000, 0.000000, 12297829382473033728.000000, 13527612320720336896.000000, 14757395258967642112.000000, 238.633118, 238.633118, 3592.250000
41.397012, 24.100000, 111.500000, 0.000000, 0.000000, 145.500000, 12.400000, 40.500000, 84.000000, 0.014835, 0.003141, -0.713818, 1.745526, 1.056005, -0.441330, 0.000000, -0.000000, -0.000000, 0.000000, 12297829382473033728.000000, 13527612320720336896.000000, 14757395258967642112.000000, 238.633118, 238.633118, 3592.250000
41.502362, 24.100000, 111.500000, 0.000000, 0.000000, 145.500000, 12.400000, 40.500000, 84.000000, 0.014835, 0.003141, -0.713818, 1.745526, 1.056005, -0.441330, 0.000000, -0.000000, -0.000000, 0.000000, 12297829382473033728.000000, 13527612320720336896.000000, 14757395258967642112.000000, 238.633118, 238.633118, 3592.250000
41.601636, 24.100000, 111.500000, 0.000000, 0.000000, 145.500000, 12.400000, 40.500000, 84.000000, 0.014835, 0.003141, -0.713818, 1.745526, 1.056005, -0.441330, 0.000000, -0.000000, -0.000000, 0.000000, 12297829382473033728.000000, 13527612320720336896.000000, 14757395258967642112.000000, 238.633118, 238.633118, 3592.250000
41.706901, 24.100000, 111.500000, 0.000000, 0.000000, 145.500000, 12.400000, 40.500000, 84.000000, 0.014835, 0.003141, -0.713818, 1.745526, 1.056005, -0.441330, 0.000000, -0.000000, -0.000000, 0.000000, 12297829382473033728.000000, 13527612320720336896.000000, 14757395258967642112.000000, 238.633118, 238.633118, 3592.250000
41.806329, 24.100000, 111.500000, 0.000000, 0.000000, 145.500000, 12.400000, 40.500000, 84.000000, 0.014835, 0.003141, -0.713818, 1.745526, 1.056005, -0.441330, 0.000000, -0.000000, -0.000000, 0.000000, 12297829382473033728.000000, 13527612320720336896.000000, 14757395258967642112.000000, 238.633118, 238.633118, 3592.250000
41.911585, 24.100000, 111.500000, 0.000000, 0.000000, 145.500000, 12.400000, 40.500000, 84.000000, 0.014835, 0.003141, -0.713818, 1.745526, 1.056005, -0.441330, 0.000000, -0.000000, -0.000000, 0.000000, 12297829382473033728.000000, 13527612320720336896.000000, 14757395258967642112.000000, 238.633118, 238.633118, 3592.250000
42.011019, 24.100000, 111.500000, 0.000000, 0.000000, 145.500000, 12.400000, 40.500000, 84.000000, 0.014835, 0.003141, -0.713818, 1.745526, 1.056005, -0.441330, 0.000000, -0.000000, -0.000000, 0.000000, 12297829382473033728.000000, 13527612320720336896.000000, 14757395258967642112.000000, 238.633118, 238.633118, 3592.250000
42.116319, 24.100000, 111.500000, 0.000000, 0.000000, 145.500000, 12.400000, 40.500000, 84.000000, 0.014835, 0.003141, -0.713818, 1.745526, 1.056005, -0.441330, 0.000000, -0.000000, -0.000000, 0.000000, 12297829382473033728.000000, 13527612320720336896.000000, 14757395258967642112.000000, 238.633118, 238.633118, 3592.250000
42.215533, 24.100000, 111.500000, 0.000000, 0.000000, 145.500000, 12.400000, 40.500000, 84.000000, 0.014835, 0.003141, -0.713818, 1.745526, 1.056005, -0.441330, 0.000000, -0.000000, -0.000000, 0.000000, 12297829382473033728.000000, 13527612320720336896.000000, 14757395258967642112.000000, 238.633118, 238.633118, 3592.250000
42.320904, 24.100000, 111.500000, 0.000000, 0.000000, 145.500000, 12.400000, 40.500000, 84.000000, 0.014835, 0.003141, -0.713818, 1.745526, 1.056005, -0.441330, 0.000000, -0.000000, -0.000000, 0.000000, 12297829382473033728.000000, 13527612320720336896.000000, 14757395258967642112.000000, 238.633118, 238.633118, 3592.250000
42.420276, 24.100000, 111.500000, 0.000000, 0.000000, 145.500000, 12.400000, 40.500000, 84.000000, 0.014835, 0.003141, -0.713818, 1.745526, 1.056005, -0.441330, 0.000000, -0.000000, -0.000000, 0.000000, 12297829382473033728.000000, 13527612320720336896.000000, 14757395258967642112.000000, 238.633118, 238.633118, 3592.250000
42.525564, 24.100000, 111.500000, 0.000000, 0.000000, 145.500000, 12.400000, 40.500000, 84.000000, 0.014835, 0.003141, -0.713818, 1.745526, 1.056005, -0.441330, 0.000000, -0.000000, -0.000000, 0.000000, 12297829382473033728.000000, 13527612320720336896.000000, 14757395258967642112.000000, 238.633118, 238.633118, 3592.250000
42.624911, 24.100000, 111.500000, 0.000000, 0.000000, 145.500000, 12.400000, 40.500000, 84.000000, 0.014835, 0.003141, -0.713818, 1.745526, 1.056005, -0.441330, -0.000000, 0.000000, 0.000000, -0.000000, 12297829382473033728.000000, 13527612320720336896.000000, 14757395258967642112.000000, 238.633118, 238.633118, 3592.250000
42.730207, 24.100000, 111.500000, 0.000000, 0.000000, 145.500000, 12.400000, 40.500000, 84.000000, 0.014835, 0.003141, -0.713818, 1.745526, 1.056005, -0.441330, -0.000000, 0.000000, 0.000000, -0.000000, 12297829382473033728.000000, 13527612320720336896.000000, 14757395258967642112.000000, 238.633118, 238.633118, 3592.250000
42.829499, 24.100000, 111.500000, 0.000000, 0.000000, 145.500000, 12.400000, 40.500000, 84.000000, 0.014835, 0.003141, -0.713818, 1.745526, 1.056005, -0.441330, -0.000000, 0.000000, 0.000000, -0.000000, 12297829382473033728.000000, 13527612320720336896.000000, 14757395258967642112.000000, 238.633118, 238.633118, 3592.250000
42.934869, 24.100000, 111.500000, 0.000000, 0.000000, 145.500000, 12.400000, 40.500000, 84.000000, 0.014835, 0.003141, -0.713818, 1.745526, 1.056005, -0.441330, -0.000000, 0.000000, 0.000000, -0.000000, 12297829382473033728.000000, 13527612320720336896.000000, 14757395258967642112.000000, 238.633118, 238.633118, 3592.250000
43.034172, 24.100000, 111.500000, 0.000000, 0.000000, 145.500000, 12.400000, 40.500000, 84.000000, 0.014835, 0.003141, -0.713818, 1.745526, 1.056005, -0.441330, -0.000000, 0.000000, 0.000000, -0.000000, 12297829382473033728.000000, 13527612320720336896.000000, 14757395258967642112.000000, 238.633118, 238.633118, 3592.250000
43.139545, 24.100000, 111.500000, 0.000000, 0.000000, 145.500000, 12.400000, 40.500000, 84.000000, 0.014835, 0.003141, -0.713818, 1.745526, 1.056005, -0.441330, -0.000000, 0.000000, 0.000000, -0.000000, 12297829382473033728.000000, 13527612320720336896.000000, 14757395258967642112.000000, 238.633118, 238.633118, 3592.250000
43.238835, 24.100000, 111.500000, 0.000000, 0.000000, 145.500000, 12.400000, 40.500000, 84.000000, 0.014835, 0.003141, -0.713818, 1.745526, 1.056005, -0.441330, -0.000000, 0.000000, 0.000000, -0.000000, 12297829382473033728.000000, 13527612320720336896.000000, 14757395258967642112.000000, 238.633118, 238.633118, 3592.250000
43.344119, 24.100000, 111.500000, 0.000000, 0.000000, 145.500000, 12.400000, 40.500000, 84.000000, 0.014835, 0.003141, -0.713818, 1.745526, 1.056005, -0.441330, -0.000000, 0.000000, 0.000000, -0.000000, 12297829382473033728.000000, 13527612320720336896.000000, 14757395258967642112.000000, 238.633118, 238.633118, 3592.250000
43.443465, 24.100000, 111.500000, 0.000000, 0.000000, 145.500000, 12.400000, 40.500000, 84.000000, 0.014835, 0.003141, -0.713818, 1.745526, 1.056005, -0.441330, -0.000000, 0.000000, 0.000000, -0.000000, 12297829382473033728.000000, 13527612320720336896.000000, 14757395258967642112.000000, 238.633118, 238.633118, 3592.250000
43.548792, 24.100000, 111.500000, 0.000000, 0.000000, 145.500000, 12.400000, 40.500000, 84.000000, 0.014835, 0.003141, -0.713818, 1.745526, 1.056005, -0.441330, -0.000000, 0.000000, 0.000000, -0.000000, 12297829382473033728.000000, 13527612320720336896.000000, 14757395258967642112.000000, 238.633118, 238.633118, 3592.250000
43.648004, 24.100000, 111.500000, 0.000000, 0.000000, 145.500000, 12.400000, 40.500000, 84.000000, 0.014835, 0.003141, -0.713818, 1.745526, 1.056005, -0.441330, -0.000000, 0.000000, 0.000000, -0.000000, 12297829382473033728.000000, 13527612320720336896.000000, 14757395258967642112.000000, 238.633118, 238.633118, 3592.250000
43.753377, 24.100000, 111.500000, 0.000000, 0.000000, 145.500000, 12.400000, 40.500000, 84.000000, 0.014835, 0.003141, -0.713818, 1.745526, 1.056005, -0.441330, -0.000000, 0.000000, 0.000000, -0.000000, 12297829382473033728.000000, 13527612320720336896.000000, 14757395258967642112.000000, 238.633118, 238.633118, 3592.250000
43.852668, 24.100000, 111.500000, 0.000000, 0.000000, 145.500000, 12.400000, 40.500000, 84.000000, 0.014835, 0.003141, -0.713818, 1.745526, 1.056005, -0.441330, -0.000000, 0.000000, 0.000000, -0.000000, 12297829382473033728.000000, 13527612320720336896.000000, 14757395258967642112.000000, 238.633118, 238.633118, 3592.250000
43.958021, 24.100000, 111.500000, 0.000000, 0.000000, 145.500000, 12.400000, 40.500000, 84.000000, 0.014835, 0.003141, -0.713818, 1.745526, 1.056005, -0.441330, -0.000000, 0.000000, 0.000000, -0.000000, 12297829382473033728.000000, 13527612320720336896.000000, 14757395258967642112.000000, 238.633118, 238.633118, 3592.250000
44.057383, 24.100000, 111.500000, 0.000000, 0.000000, 145.500000, 12.400000, 40.500000, 84.000000, 0.014835, 0.003141, -0.713818, 1.745526, 1.056005, -0.441330, -0.000000, 0.000000, 0.000000, -0.000000, 12297829382473033728.000000, 13527612320720336896.000000, 14757395258967642112.000000, 238.633118, 238.633118, 3592.250000
44.162635, 24.100000, 111.500000, 0.000000, 0.000000, 145.500000, 12.400000, 40.500000, 84.000000, 0.014835, 0.003141, -0.713818, 1.745526, 1.056005, -0.441330, -0.000000, 0.000000, 0.000000, -0.000000, 12297829382473033728.000000, 13527612320720336896.000000, 14757395258967642112.000000, 238.633118, 238.633118, 3592.250000
44.261917, 24.100000, 111.500000, 0.000000, 0.000000, 145.500000, 12.400000, 40.500000, 84.000000, 0.014835, 0.003141, -0.713818, 1.745526, 1.056005, -0.441330, -0.000000, 0.000000, 0.000000, -0.000000, 12297829382473033728.000000, 13527612320720336896.000000, 14757395258967642112.000000, 238.633118, 238.633118, 3592.250000
44.366165, 24.100000, 111.500000, 0.000000, 0.000000, 145.500000, 12.400000, 40.500000, 84.000000, 0.014835, 0.003141, -0.713818, 1.745526, 1.056005, -0.441330, -0.000000, 0.000000, 0.000000, -0.000000, 12297829382473033728.000000, 13527612320720336896.000000, 14757395258967642112.000000, 238.633118, 238.633118, 3592.250000
44.465536, 24.100000, 111.500000, 0.000000, 0.000000, 145.500000, 12.400000, 40.500000, 84.000000, 0.014835, 0.003141, -0.713818, 1.745526, 1.056005, -0.441330, -0.000000, 0.000000, 0.000000, -0.000000, 12297829382473033728.000000, 13527612320720336896.000000, 14757395258967642112.000000, 238.633118, 238.633118, 3592.250000
44.570834, 24.100000, 111.500000, 0.000000, 0.000000, 145.500000, 12.400000, 40.500000, 84.000000, 0.014835, 0.003141, -0.713818, 1.745526, 1.056005, -0.441330, -0.000000, 0.000000, 0.000000, -0.000000, 12297829382473033728.000000, 13527612320720336896.000000, 14757395258967642112.000000, 238.633118, 238.633118, 3592.250000
44.670188, 24.100000, 111.500000, 0.000000, 0.000000, 145.500000, 12.400000, 40.500000, 84.000000, 0.014835, 0.003141, -0.713818, 1.745526, 1.056005, -0.441330, 0.000000, -0.000000, -0.000000, 0.000000, 12297829382473033728.000000, 13527612320720336896.000000, 14757395258967642112.000000, 238.633118, 238.633118, 3592.250000
44.775481, 24.100000, 111.500000, 0.000000, 0.000000, 145.500000, 12.400000, 40.500000, 84.000000, 0.014835, 0.003141, -0.713818, 1.745526, 1.056005, -0.441330, 0.000000, -0.000000, -0.000000, 0.000000, 12297829382473033728.000000, 13527612320720336896.000000, 14757395258967642112.000000, 238.633118, 238.633118, 3592.250000
44.874776, 24.100000, 111.500000, 0.000000, 0.000000, 145.500000, 12.400000, 40.500000, 84.000000, 0.014835, 0.003141, -0.713818, 1.745526, 1.056005, -0.441330, 0.000000, -0.000000, -0.000000, 0.000000, 12297829382473033728.000000, 13527612320720336896.000000, 14757395258967642112.000000, 238.633118, 238.633118, 3592.250000
44.980132, 24.100000, 111.500000, 0.000000, 0.000000, 145.500000, 12.400000, 40.500000, 84.000000, 0.014835, 0.003141, -0.713818, 1.745526, 1.056005, -0.441330, 0.000000, -0.000000, -0.000000, 0.000000, 12297829382473033728.000000, 13527612320720336896.000000, 14757395258967642112.000000, 238.633118, 238.633118, 3592.250000
45.079434, 24.100000, 111.500000, 0.000000, 0.000000, 145.500000, 12.400000, 40.500000, 84.000000, 0.014835, 0.003141, -0.713818, 1.745526, 1.056005, -0.441330, 0.000000, -0.000000, -0.000000, 0.000000, 12297829382473033728.000000, 13527612320720336896.000000, 14757395258967642112.000000, 238.633118, 238.633118, 3592.250000
45.184808, 24.100000, 111.500000, 0.000000, 0.000000, 145.500000, 12.400000, 40.500000, 84.000000, 0.014835, 0.003141, -0.713818, 1.745526, 1.056005, -0.441330, 0.000000, -0.000000, -0.000000, 0.000000, 12297829382473033728.000000, 13527612320720336896.000000, 14757395258967642112.000000, 238.633118, 238.633118, 3592.250000
45.284015, 24.100000, 111.500000, 0.000000, 0.000000, 145.500000, 12.400000, 40.500000, 84.000000, 0.014835, 0.003141, -0.713818, 1.745526, 1.056005, -0.441330, 0.000000, -0.000000, -0.000000, 0.000000, 12297829382473033728.000000, 13527612320720336896.000000, 14757395258967642112.000000, 238.633118, 238.633118, 3592.250000
45.389471, 24.100000, 111.500000, 0.000000, 0.000000, 145.500000, 12.400000, 40.500000, 84.000000, 0.014835, 0.003141, -0.713818, 1.745526, 1.056005, -0.441330, 0.000000, -0.000000, -0.000000, 0.000000, 12297829382473033728.000000, 13527612320720336896.000000, 14757395258967642112.000000, 238.633118, 238.633118, 3592.250000
45.488767, 24.100000, 111.500000, 0.000000, 0.000000, 145.500000, 12.400000, 40.500000, 84.000000, 0.014835, 0.003141, -0.713818, 1.745526, 1.056005, -0.441330, 0.000000, -0.000000, -0.000000, 0.000000, 12297829382473033728.000000, 13527612320720336896.000000, 14757395258967642112.000000, 238.633118, 238.633118, 3592.250000
45.594056, 24.100000, 111.500000, 0.000000, 0.000000, 145.500000, 12.400000, 40.500000, 84.000000, 0.014835, 0.003141, -0.713818, 1.745526, 1.056005, -0.441330, 0.000000, -0.000000, -0.000000, 0.000000, 12297829382473033728.000000, 13527612320720336896.000000, 14757395258967642112.000000, 238.633118, 238.633118, 3592.250000
45.693425, 24.100000, 111.500000, 0.000000, 0.000000, 145.500000, 12.400000, 40.500000, 84.000000, 0.014835, 0.003141, -0.713818, 1.745526, 1.056005, -0.441330, 0.000000, -0.000000, -0.000000, 0.000000, 12297829382473033728.000000, 13527612320720336896.000000, 14757395258967642112.000000, 238.633118, 238.633118, 3592.250000
45.798642, 24.100000, 111.500000, 0.000000, 0.000000, 145.500000, 12.400000, 40.500000, 84.000000, 0.014835, 0.003141, -0.713818, 1.745526, 1.056005, -0.441330, 0.000000, -0.000000, -0.000000, 0.000000, 12297829382473033728.000000, 13527612320720336896.000000, 14757395258967642112.000000, 238.633118, 238.633118, 3592.250000
45.898099, 24.100000, 111.500000, 0.000000, 0.000000, 145.500000, 12.400000, 40.500000, 84.000000, 0.014835, 0.003141, -0.713818, 1.745526, 1.056005, -0.441330, 0.000000, -0.000000, -0.000000, 0.000000, 12297829382473033728.000000, 13527612320720336896.000000, 14757395258967642112.000000, 238.633118, 238.633118, 3592.250000
46.003392, 24.100000, 111.500000, 0.000000, 0.000000, 145.500000, 12.400000, 40.500000, 84.000000, 0.014835, 0.003141, -0.713818, 1.745526, 1.056005, -0.441330, 0.000000, -0.000000, -0.000000, 0.000000, 12297829382473033728.000000, 13527612320720336896.000000, 14757395258967642112.000000, 238.633118, 238.633118, 3592.250000
46.102739, 24.100000, 111.500000, 0.000000, 0.000000, 145.500000, 12.400000, 40.500000, 84.000000, 0.014835, 0.003141, -0.713818, 1.745526, 1.056005, -0.441330, 0.000000, -0.000000, -0.000000, 0.000000, 12297829382473033728.000000, 13527612320720336896.000000, 14757395258967642112.000000, 238.633118, 238.633118, 3592.250000
46.207952, 24.100000, 111.500000, 0.000000, 0.000000, 145.500000, 12.400000, 40.500000, 84.000000, 0.014835, 0.003141, -0.713818, 1.745526, 1.056005, -0.441330, 0.000000, -0.000000, -0.000000, 0.000000, 12297829382473033728.000000, 13527612320720336896.000000, 14757395258967642112.000000, 238.633118, 238.633118, 3592.250000
46.307362, 24.100000, 111.500000, 0.000000, 0.000000, 145.500000, 12.400000, 40.500000, 84.000000, 0.014835, 0.003141, -0.713818, 1.745526, 1.056005, -0.441330, 0.000000, -0.000000, -0.000000, 0.000000, 12297829382473033728.000000, 13527612320720336896.000000, 14757395258967642112.000000, 238.633118, 238.633118, 3592.250000
46.412681, 24.100000, 111.500000, 0.000000, 0.000000, 145.500000, 12.400000, 40.500000, 84.000000, 0.014835, 0.003141, -0.713818, 1.745526, 1.056005, -0.441330, 0.000000, -0.000000, -0.000000, 0.000000, 12297829382473033728.000000, 13527612320720336896.000000, 14757395258967642112.000000, 238.633118, 238.633118, 3592.250000
46.511984, 24.100000, 111.500000, 0.000000, 0.000000, 145.500000, 12.400000, 40.500000, 84.000000, 0.014835, 0.003141, -0.713818, 1.745526, 1.056005, -0.441330, 0.000000, -0.000000, -0.000000, 0.000000, 12297829382473033728.000000, 13527612320720336896.000000, 14757395258967642112.000000, 238.633118, 238.633118, 3592.250000
46.617284, 24.100000, 111.500000, 0.000000, 0.000000, 145.500000, 12.400000, 40.500000, 84.000000, 0.014835, 0.003141, -0.713818, 1.745526, 1.056005, -0.441330, 0.000000, -0.000000, -0.000000, 0.000000, 12297829382473033728.000000, 13527612320720336896.000000, 14757395258967642112.000000, 238.633118, 238.633118, 3592.250000
46.716592, 24.100000, 111.500000, 0.000000, 0.000000, 145.500000, 12.400000, 40.500000, 84.000000, 0.014835, 0.003141, -0.713818, 1.745526, 1.056005, -0.441330, -0.000000, 0.000000, 0.000000, -0.000000, 12297829382473033728.000000, 13527612320720336896.000000, 14757395258967642112.000000, 238.633118, 238.633118, 3592.250000
46.821963, 24.100000, 111.500000, 0.000000, 0.000000, 145.500000, 12.400000, 40.500000, 84.000000, 0.014835, 0.003141, -0.713818, 1.745526, 1.056005, -0.441330, -0.000000, 0.000000, 0.000000, -0.000000, 12297829382473033728.000000, 13527612320720336896.000000, 14757395258967642112.000000, 238.633118, 238.633118, 3592.250000
46.921353, 24.100000, 111.500000, 0.000000, 0.000000, 145.500000, 12.400000, 40.500000, 84.000000, 0.014835, 0.003141, -0.713818, 1.745526, 1.056005, -0.441330, -0.000000, 0.000000, 0.000000, -0.000000, 12297829382473033728.000000, 13527612320720336896.000000, 14757395258967642112.000000, 238.633118, 238.633118, 3592.250000
47.026593, 24.100000, 111.500000, 0.000000, 0.000000, 145.500000, 12.400000, 40.500000, 84.000000, 0.014835, 0.003141, -0.713818, 1.745526, 1.056005, -0.441330, -0.000000, 0.000000, 0.000000, -0.000000, 12297829382473033728.000000, 13527612320720336896.000000, 14757395258967642112.000000, 238.633118, 238.633118, 3592.250000
47.125982, 24.100000, 111.500000, 0.000000, 0.000000, 145.500000, 12.400000, 40.500000, 84.000000, 0.014835, 0.003141, -0.713818, 1.745526, 1.056005, -0.441330, -0.000000, 0.000000, 0.000000, -0.000000, 12297829382473033728.000000, 13527612320720336896.000000, 14757395258967642112.000000, 238.633118, 238.633118, 3592.250000
47.231300, 24.100000, 111.500000, 0.000000, 0.000000, 145.500000, 12.400000, 40.500000, 84.000000, 0.014835, 0.003141, -0.713818, 1.745526, 1.056005, -0.441330, -0.000000, 0.000000, 0.000000, -0.000000, 12297829382473033728.000000, 13527612320720336896.000000, 14757395258967642112.000000, 238.633118, 238.633118, 3592.250000
47.330563, 24.100000, 111.500000, 0.000000, 0.000000, 145.500000, 12.400000, 40.500000, 84.000000, 0.014835, 0.003141, -0.713818, 1.745526, 1.056005, -0.441330, -0.000000, 0.000000, 0.000000, -0.000000, 12297829382473033728.000000, 13527612320720336896.000000, 14757395258967642112.000000, 238.633118, 238.633118, 3592.250000
47.435799, 24.100000, 111.500000, 0.000000, 0.000000, 145.500000, 12.400000, 40.500000, 84.000000, 0.014835, 0.003141, -0.713818, 1.745526, 1.056005, -0.441330, -0.000000, 0.000000, 0.000000, -0.000000, 12297829382473033728.000000, 13527612320720336896.000000, 14757395258967642112.000000, 238.633118, 238.633118, 3592.250000
47.535108, 24.100000, 111.500000, 0.000000, 0.000000, 145.500000, 12.400000, 40.500000, 84.000000, 0.014835, 0.003141, -0.713818, 1.745526, 1.056005, -0.441330, -0.000000, 0.000000, 0.000000, -0.000000, 12297829382473033728.000000, 13527612320720336896.000000, 14757395258967642112.000000, 238.633118, 238.633118, 3592.250000
47.640416, 24.100000, 111.500000, 0.000000, 0.000000, 145.500000, 12.400000, 40.500000, 84.000000, 0.014835, 0.003141, -0.713818, 1.745526, 1.056005, -0.441330, -0.000000, 0.000000, 0.000000, -0.000000, 12297829382473033728.000000, 13527612320720336896.000000, 14757395258967642112.000000, 238.633118, 238.633118, 3592.250000
47.739812, 24.100000, 111.500000, 0.000000, 0.000000, 145.500000, 12.400000, 40.500000, 84.000000, 0.014835, 0.003141, -0.713818, 1.745526, 1.056005, -0.441330, -0.000000, 0.000000, 0.000000, -0.000000, 12297829382473033728.000000, 13527612320720336896.000000, 14757395258967642112.000000, 238.633118, 238.633118, 3592.250000
47.845129, 24.100000, 111.500000, 0.000000, 0.000000, 145.500000, 12.400000, 40.500000, 84.000000, 0.014835, 0.003141, -0.713818, 1.745526, 1.056005, -0.441330, -0.000000, 0.000000, 0.000000, -0.000000, 12297829382473033728.000000, 13527612320720336896.000000, 14757395258967642112.000000, 238.633118, 238.633118, 3592.250000
47.944518, 24.100000, 111.500000, 0.000000, 0.000000, 145.500000, 12.400000, 40.500000, 84.000000, 0.014835, 0.003141, -0.713818, 1.745526, 1.056005, -0.441330, -0.000000, 0.000000, 0.000000, -0.000000, 12297829382473033728.000000, 13527612320720336896.000000, 14757395258967642112.000000, 238.633118, 238.633118, 3592.250000
48.049901, 24.100000, 111.500000, 0.000000, 0.000000, 145.500000, 12.400000, 40.500000, 84.000000, 0.014835, 0.003141, -0.713818, 1.745526, 1.056005, -0.441330, -0.000000, 0.000000, 0.000000, -0.000000, 12297829382473033728.000000, 13527612320720336896.000000, 14757395258967642112.000000, 238.633118, 238.633118, 3592.250000
48.149249, 24.100000, 111.500000, 0.000000, 0.000000, 145.500000, 12.400000, 40.500000, 84.000000, 0.014835, 0.003141, -0.713818, 1.745526, 1.056005, -0.441330, -0.000000, 0.000000, 0.000000, -0.000000, 12297829382473033728.000000, 13527612320720336896.000000, 14757395258967642112.000000, 238.633118, 238.633118, 3592.250000
48.254517, 24.100000, 111.500000, 0.000000, 0.000000, 145.500000, 12.400000, 40.500000, 84.000000, 0.014835, 0.003141, -0.713818, 1.745526, 1.056005, -0.441330, -0.000000, 0.000000, 0.000000, -0.000000, 12297829382473033728.000000, 13527612320720336896.000000, 14757395258967642112.000000, 238.633118, 238.633118, 3592.250000
48.353865, 24.100000, 111.500000, 0.000000, 0.000000, 145.500000, 12.400000, 40.500000, 84.000000, 0.014835, 0.003141, -0.713818, 1.745526, 1.056005, -0.441330, -0.000000, 0.000000, 0.000000, -0.000000, 12297829382473033728.000000, 13527612320720336896.000000, 14757395258967642112.000000, 238.633118, 238.633118, 3592.250000
48.459305, 24.100000, 111.500000, 0.000000, 0.000000, 145.500000, 12.400000, 40.500000, 84.000000, 0.014835, 0.003141, -0.713818, 1.745526, 1.056005, -0.441330, -0.000000, 0.000000, 0.000000, -0.000000, 12297829382473033728.000000, 13527612320720336896.000000, 14757395258967642112.000000, 238.633118, 238.633118, 3592.250000
48.558656, 24.100000, 111.500000, 0.000000, 0.000000, 145.500000, 12.400000, 40.500000, 84.000000, 0.014835, 0.003141, -0.713818, 1.745526, 1.056005, -0.441330, -0.000000, 0.000000, 0.000000, -0.000000, 12297829382473033728.000000, 13527612320720336896.000000, 14757395258967642112.000000, 238.633118, 238.633118, 3592.250000
48.663843, 24.100000, 111.500000, 0.000000, 0.000000, 145.500000, 12.400000, 40.500000, 84.000000, 0.014835, 0.003141, -0.713818, 1.745526, 1.056005, -0.441330, -0.000000, 0.000000, 0.000000, -0.000000, 12297829382473033728.000000, 13527612320720336896.000000, 14757395258967642112.000000, 238.633118, 238.633118, 3592.250000
48.763272, 24.100000, 111.500000, 0.000000, 0.000000, 145.500000, 12.400000, 40.500000, 84.000000, 0.014835, 0.003141, -0.713818, 1.745526, 1.056005, -0.441330, 0.000000, -0.000000, -0.000000, 0.000000, 12297829382473033728.000000, 13527612320720336896.000000, 14757395258967642112.000000, 238.633118, 238.633118, 3592.250000
48.868546, 24.100000, 111.500000, 0.000000, 0.000000, 145.500000, 12.400000, 40.500000, 84.000000, 0.014835, 0.003141, -0.713818, 1.745526, 1.056005, -0.441330, 0.000000, -0.000000, -0.000000, 0.000000, 12297829382473033728.000000, 13527612320720336896.000000, 14757395258967642112.000000, 238.633118, 238.633118, 3592.250000
48.967865, 24.100000, 111.500000, 0.000000, 0.000000, 145.500000, 12.400000, 40.500000, 84.000000, 0.014835, 0.003141, -0.713818, 1.745526, 1.056005, -0.441330, 0.000000, -0.000000, -0.000000, 0.000000, 12297829382473033728.000000, 13527612320720336896.000000, 14757395258967642112.000000, 238.633118, 238.633118, 3592.250000
49.073241, 24.100000, 111.500000, 0.000000, 0.000000, 145.500000, 12.400000, 40.500000, 84.000000, 0.014835, 0.003141, -0.713818, 1.745526, 1.056005, -0.441330, 0.000000, -0.000000, -0.000000, 0.000000, 12297829382473033728.000000, 13527612320720336896.000000, 14757395258967642112.000000, 238.633118, 238.633118, 3592.250000
49.172509, 24.100000, 111.500000, 0.000000, 0.000000, 145.500000, 12.400000, 40.500000, 84.000000, 0.014835, 0.003141, -0.713818, 1.745526, 1.056005, -0.441330, 0.000000, -0.000000, -0.000000, 0.000000, 12297829382473033728.000000, 13527612320720336896.000000, 14757395258967642112.000000, 238.633118, 238.633118, 3592.250000
49.277840, 24.100000, 111.500000, 0.000000, 0.000000, 145.500000, 12.400000, 40.500000, 84.000000, 0.014835, 0.003141, -0.713818, 1.745526, 1.056005, -0.441330, 0.000000, -0.000000, -0.000000, 0.000000, 12297829382473033728.000000, 13527612320720336896.000000, 14757395258967642112.000000, 238.633118, 238.633118, 3592.250000
49.377147, 24.100000, 111.500000, 0.000000, 0.000000, 145.500000, 12.400000, 40.500000, 84.000000, 0.014835, 0.003141, -0.713818, 1.745526, 1.056005, -0.441330, 0.000000, -0.000000, -0.000000, 0.000000, 12297829382473033728.000000, 13527612320720336896.000000, 14757395258967642112.000000, 238.633118, 238.633118, 3592.250000
49.480517, 24.100000, 111.500000, 0.000000, 0.000000, 145.500000, 12.400000, 40.500000, 84.000000, 0.014835, 0.003141, -0.713818, 1.745526, 1.056005, -0.441330, 0.000000, -0.000000, -0.000000, 0.000000, 12297829382473033728.000000, 13527612320720336896.000000, 14757395258967642112.000000, 238.633118, 238.633118, 3592.250000
49.579893, 24.100000, 111.500000, 0.000000, 0.000000, 145.500000, 12.400000, 40.500000, 84.000000, 0.014835, 0.003141, -0.713818, 1.745526, 1.056005, -0.441330, 0.000000, -0.000000, -0.000000, 0.000000, 12297829382473033728.000000, 13527612320720336896.000000, 14757395258967642112.000000, 238.633118, 238.633118, 3592.250000
49.685167, 24.100000, 111.500000, 0.000000, 0.000000, 145.500000, 12.400000, 40.500000, 84.000000, 0.014835, 0.003141, -0.713818, 1.745526, 1.056005, -0.441330, 0.000000, -0.000000, -0.000000, 0.000000, 12297829382473033728.000000, 13527612320720336896.000000, 14757395258967642112.000000, 238.633118, 238.633118, 3592.250000
49.784511, 24.100000, 111.500000, 0.000000, 0.000000, 145.500000, 12.400000, 40.500000, 84.000000, 0.014835, 0.003141, -0.713818, 1.745526, 1.056005, -0.441330, 0.000000, -0.000000, -0.000000, 0.000000, 12297829382473033728.000000, 13527612320720336896.000000, 14757395258967642112.000000, 238.633118, 238.633118, 3592.250000
49.889781, 24.100000, 111.500000, 0.000000, 0.000000, 145.500000, 12.400000, 40.500000, 84.000000, 0.014835, 0.003141, -0.713818, 1.745526, 1.056005, -0.441330, 0.000000, -0.000000, -0.000000, 0.000000, 12297829382473033728.000000, 13527612320720336896.000000, 14757395258967642112.000000, 238.633118, 238.633118, 3592.250000
49.989133, 24.100000, 111.500000, 0.000000, 0.000000, 145.500000, 12.400000, 40.500000, 84.000000, 0.014835, 0.003141, -0.713818, 1.745526, 1.056005, -0.441330, 0.000000, -0.000000, -0.000000, 0.000000, 12297829382473033728.000000, 13527612320720336896.000000, 14757395258967642112.000000, 238.633118, 238.633118, 3592.250000
50.094419, 24.100000, 111.500000, 0.000000, 0.000000, 145.500000, 12.400000, 40.500000, 84.000000, 0.014835, 0.003141, -0.713818, 1.745526, 1.056005, -0.441330, 0.000000, -0.000000, -0.000000, 0.000000, 12297829382473033728.000000, 13527612320720336896.000000, 14757395258967642112.000000, 238.633118, 238.633118, 3592.250000
50.193697, 24.100000, 111.500000, 0.000000, 0.000000, 145.500000, 12.400000, 40.500000, 84.000000, 0.014835, 0.003141, -0.713818, 1.745526, 1.056005, -0.441330, 0.000000, -0.000000, -0.000000, 0.000000, 12297829382473033728.000000, 13527612320720336896.000000, 14757395258967642112.000000, 238.633118, 238.633118, 3592.250000
50.299021, 24.100000, 111.500000, 0.000000, 0.000000, 145.500000, 12.400000, 40.500000, 84.000000, 0.014835, 0.003141, -0.713818, 1.745526, 1.056005, -0.441330, 0.000000, -0.000000, -0.000000, 0.000000, 12297829382473033728.000000, 13527612320720336896.000000, 14757395258967642112.000000, 238.633118, 238.633118, 3592.250000
50.398421, 24.100000, 111.500000, 0.000000, 0.000000, 145.500000, 12.400000, 40.500000, 84.000000, 0.014835, 0.003141, -0.713818, 1.745526, 1.056005, -0.441330, 0.000000, -0.000000, -0.000000, 0.000000, 12297829382473033728.000000, 13527612320720336896.000000, 14757395258967642112.000000, 238.633118, 238.633118, 3592.250000
50.503721, 24.100000, 111.500000, 0.000000, 0.000000, 145.500000, 12.400000, 40.500000, 84.000000, 0.014835, 0.003141, -0.713818, 1.745526, 1.056005, -0.441330, 0.000000, -0.000000, -0.000000, 0.000000, 12297829382473033728.000000, 13527612320720336896.000000, 14757395258967642112.000000, 238.633118, 238.633118, 3592.250000
50.603012, 24.100000, 111.500000, 0.000000, 0.000000, 145.500000, 12.400000, 40.500000, 84.000000, 0.014835, 0.003141, -0.713818, 1.745526, 1.056005, -0.441330, 0.000000, -0.000000, -0.000000, 0.000000, 12297829382473033728.000000, 13527612320720336896.000000, 14757395258967642112.000000, 238.633118, 238.633118, 3592.250000
50.708387, 24.100000, 111.500000, 0.000000, 0.000000, 145.500000, 12.400000, 40.500000, 84.000000, 0.014835, 0.003141, -0.713818, 1.745526, 1.056005, -0.441330, 0.000000, -0.000000, -0.000000, 0.000000, 12297829382473033728.000000, 13527612320720336896.000000, 14757395258967642112.000000, 238.633118, 238.633118, 3592.250000
50.807741, 24.100000, 111.500000, 0.000000, 0.000000, 145.500000, 12.400000, 40.500000, 84.000000, 0.014835, 0.003141, -0.713818, 1.745526, 1.056005, -0.441330, -0.000000, 0.000000, 0.000000, -0.000000, 12297829382473033728.000000, 13527612320720336896.000000, 14757395258967642112.000000, 238.633118, 238.633118, 3592.250000
50.912919, 24.100000, 111.500000, 0.000000, 0.000000, 145.500000, 12.400000, 40.500000, 84.000000, 0.014835, 0.003141, -0.713818, 1.745526, 1.056005, -0.441330, -0.000000, 0.000000, 0.000000, -0.000000, 12297829382473033728.000000, 13527612320720336896.000000, 14757395258967642112.000000, 238.633118, 238.633118, 3592.250000
51.012376, 24.100000, 111.500000, 0.000000, 0.000000, 145.500000, 12.400000, 40.500000, 84.000000, 0.014835, 0.003141, -0.713818, 1.745526, 1.056005, -0.441330, -0.000000, 0.000000, 0.000000, -0.000000, 12297829382473033728.000000, 13527612320720336896.000000, 14757395258967642112.000000, 238.633118, 238.633118, 3592.250000
51.117596, 24.100000, 111.500000, 0.000000, 0.000000, 145.500000, 12.400000, 40.500000, 84.000000, 0.014835, 0.003141, -0.713818, 1.745526, 1.056005, -0.441330, -0.000000, 0.000000, 0.000000, -0.000000, 12297829382473033728.000000, 13527612320720336896.000000, 14757395258967642112.000000, 238.633118, 238.633118, 3592.250000
51.216966, 24.100000, 111.500000, 0.000000, 0.000000, 145.500000, 12.400000, 40.500000, 84.000000, 0.014835, 0.003141, -0.713818, 1.745526, 1.056005, -0.441330, -0.000000, 0.000000, 0.000000, -0.000000, 12297829382473033728.000000, 13527612320720336896.000000, 14757395258967642112.000000, 238.633118, 238.633118, 3592.250000
51.322295, 24.100000, 111.500000, 0.000000, 0.000000, 145.500000, 12.400000, 40.500000, 84.000000, 0.014835, 0.003141, -0.713818, 1.745526, 1.056005, -0.441330, -0.000000, 0.000000, 0.000000, -0.000000, 12297829382473033728.000000, 13527612320720336896.000000, 14757395258967642112.000000, 238.633118, 238.633118, 3592.250000
51.421564, 24.100000, 111.500000, 0.000000, 0.000000, 145.500000, 12.400000, 40.500000, 84.000000, 0.014835, 0.003141, -0.713818, 1.745526, 1.056005, -0.441330, -0.000000, 0.000000, 0.000000, -0.000000, 12297829382473033728.000000, 13527612320720336896.000000, 14757395258967642112.000000, 238.633118, 238.633118, 3592.250000
51.526917, 24.100000, 111.500000, 0.000000, 0.000000, 145.500000, 12.400000, 40.500000, 84.000000, 0.014835, 0.003141, -0.713818, 1.745526, 1.056005, -0.441330, -0.000000, 0.000000, 0.000000, -0.000000, 12297829382473033728.000000, 13527612320720336896.000000, 14757395258967642112.000000, 238.633118, 238.633118, 3592.250000
51.626294, 24.100000, 111.500000, 0.000000, 0.000000, 145.500000, 12.400000, 40.500000, 84.000000, 0.014835, 0.003141, -0.713818, 1.745526, 1.056005, -0.441330, -0.000000, 0.000000, 0.000000, -0.000000, 12297829382473033728.000000, 13527612320720336896.000000, 14757395258967642112.000000, 238.633118, 238.633118, 3592.250000
51.731592, 24.100000, 111.500000, 0.000000, 0.000000, 145.500000, 12.400000, 40.500000, 84.000000, 0.014835, 0.003141, -0.713818, 1.745526, 1.056005, -0.441330, -0.000000, 0.000000, 0.000000, -0.000000, 12297829382473033728.000000, 13527612320720336896.000000, 14757395258967642112.000000, 238.633118, 238.633118, 3592.250000
51.830876, 24.100000, 111.500000, 0.000000, 0.000000, 145.500000, 12.400000, 40.500000, 84.000000, 0.014835, 0.003141, -0.713818, 1.745526, 1.056005, -0.441330, -0.000000, 0.000000, 0.000000, -0.000000, 12297829382473033728.000000, 13527612320720336896.000000, 14757395258967642112.000000, 238.633118, 238.633118, 3592.250000
51.935123, 24.100000, 111.500000, 0.000000, 0.000000, 145.500000, 12.400000, 40.500000, 84.000000, 0.014835, 0.003141, -0.713818, 1.745526, 1.056005, -0.441330, -0.000000, 0.000000, 0.000000, -0.000000, 12297829382473033728.000000, 13527612320720336896.000000, 14757395258967642112.000000, 238.633118, 238.633118, 3592.250000
52.034481, 24.100000, 111.500000, 0.000000, 0.000000, 145.500000, 12.400000, 40.500000, 84.000000, 0.014835, 0.003141, -0.713818, 1.745526, 1.056005, -0.441330, -0.000000, 0.000000, 0.000000, -0.000000, 12297829382473033728.000000, 13527612320720336896.000000, 14757395258967642112.000000, 238.633118, 238.633118, 3592.250000
52.139760, 24.100000, 111.500000, 0.000000, 0.000000, 145.500000, 12.400000, 40.500000, 84.000000, 0.014835, 0.003141, -0.713818, 1.745526, 1.056005, -0.441330, -0.000000, 0.000000, 0.000000, -0.000000, 12297829382473033728.000000, 13527612320720336896.000000, 14757395258967642112.000000, 238.633118, 238.633118, 3592.250000
52.239216, 24.100000, 111.500000, 0.000000, 0.000000, 145.500000, 12.400000, 40.500000, 84.000000, 0.014835, 0.003141, -0.713818, 1.745526, 1.056005, -0.441330, -0.000000, 0.000000, 0.000000, -0.000000, 12297829382473033728.000000, 13527612320720336896.000000, 14757395258967642112.000000, 238.633118, 238.633118, 3592.250000
52.344570, 24.100000, 111.500000, 0.000000, 0.000000, 145.500000, 12.400000, 40.500000, 84.000000, 0.014835, 0.003141, -0.713818, 1.745526, 1.056005, -0.441330, -0.000000, 0.000000, 0.000000, -0.000000, 12297829382473033728.000000, 13527612320720336896.000000, 14757395258967642112.000000, 238.633118, 238.633118, 3592.250000
52.443886, 24.100000, 111.500000, 0.000000, 0.000000, 145.500000, 12.400000, 40.500000, 84.000000, 0.014835, 0.003141, -0.713818, 1.745526, 1.056005, -0.441330, -0.000000, 0.000000, 0.000000, -0.000000, 12297829382473033728.000000, 13527612320720336896.000000, 14757395258967642112.000000, 238.633118, 238.633118, 3592.250000
52.549186, 24.100000, 111.500000, 0.000000, 0.000000, 145.500000, 12.400000, 40.500000, 84.000000, 0.014835, 0.003141, -0.713818, 1.745526, 1.056005, -0.441330, -0.000000, 0.000000, 0.000000, -0.000000, 12297829382473033728.000000, 13527612320720336896.000000, 14757395258967642112.000000, 238.633118, 238.633118, 3592.250000
52.648505, 24.100000, 111.500000, 0.000000, 0.000000, 145.500000, 12.400000, 40.500000, 84.000000, 0.014835, 0.003141, -0.713818, 1.745526, 1.056005, -0.441330, -0.000000, 0.000000, 0.000000, -0.000000, 12297829382473033728.000000, 13527612320720336896.000000, 14757395258967642112.000000, 238.633118, 238.633118, 3592.250000
52.753800, 24.100000, 111.500000, 0.000000, 0.000000, 145.500000, 12.400000, 40.500000, 84.000000, 0.014835, 0.003141, -0.713818, 1.745526, 1.056005, -0.441330, -0.000000, 0.000000, 0.000000, -0.000000, 12297829382473033728.000000, 13527612320720336896.000000, 14757395258967642112.000000, 238.633118, 238.633118, 3592.250000
52.853131, 24.100000, 111.500000, 0.000000, 0.000000, 145.500000, 12.400000, 40.500000, 84.000000, 0.014835, 0.003141, -0.713818, 1.745526, 1.056005, -0.441330, 0.000000, -0.000000, -0.000000, 0.000000, 12297829382473033728.000000, 13527612320720336896.000000, 14757395258967642112.000000, 238.633118, 238.633118, 3592.250000
52.957448, 24.100000, 111.500000, 0.000000, 0.000000, 145.500000, 12.400000, 40.500000, 84.000000, 0.014835, 0.003141, -0.713818, 1.745526, 1.056005, -0.441330, 0.000000, -0.000000, -0.000000, 0.000000, 12297829382473033728.000000, 13527612320720336896.000000, 14757395258967642112.000000, 238.633118, 238.633118, 3592.250000
53.056784, 24.100000, 111.500000, 0.000000, 0.000000, 145.500000, 12.400000, 40.500000, 84.000000, 0.014835, 0.003141, -0.713818, 1.745526, 1.056005, -0.441330, 0.000000, -0.000000, -0.000000, 0.000000, 12297829382473033728.000000, 13527612320720336896.000000, 14757395258967642112.000000, 238.633118, 238.633118, 3592.250000
53.162084, 24.100000, 111.500000, 0.000000, 0.000000, 145.500000, 12.400000, 40.500000, 84.000000, 0.014835, 0.003141, -0.713818, 1.745526, 1.056005, -0.441330, 0.000000, -0.000000, -0.000000, 0.000000, 12297829382473033728.000000, 13527612320720336896.000000, 14757395258967642112.000000, 238.633118, 238.633118, 3592.250000
53.261431, 24.100000, 111.500000, 0.000000, 0.000000, 145.500000, 12.400000, 40.500000, 84.000000, 0.014835, 0.003141, -0.713818, 1.745526, 1.056005, -0.441330, 0.000000, -0.000000, -0.000000, 0.000000, 12297829382473033728.000000, 13527612320720336896.000000, 14757395258967642112.000000, 238.633118, 238.633118, 3592.250000
53.366667, 24.100000, 111.500000, 0.000000, 0.000000, 145.500000, 12.400000, 40.500000, 84.000000, 0.014835, 0.003141, -0.713818, 1.745526, 1.056005, -0.441330, 0.000000, -0.000000, -0.000000, 0.000000, 12297829382473033728.000000, 13527612320720336896.000000, 14757395258967642112.000000, 238.633118, 238.633118, 3592.250000
53.465955, 24.100000, 111.500000, 0.000000, 0.000000, 145.500000, 12.400000, 40.500000, 84.000000, 0.014835, 0.003141, -0.713818, 1.745526, 1.056005, -0.441330, 0.000000, -0.000000, -0.000000, 0.000000, 12297829382473033728.000000, 13527612320720336896.000000, 14757395258967642112.000000, 238.633118, 238.633118, 3592.250000
53.571248, 24.100000, 111.500000, 0.000000, 0.000000, 145.500000, 12.400000, 40.500000, 84.000000, 0.014835, 0.003141, -0.713818, 1.745526, 1.056005, -0.441330, 0.000000, -0.000000, -0.000000, 0.000000, 12297829382473033728.000000, 13527612320720336896.000000, 14757395258967642112.000000, 238.633118, 238.633118, 3592.250000
53.670701, 24.100000, 111.500000, 0.000000, 0.000000, 145.500000, 12.400000, 40.500000, 84.000000, 0.014835, 0.003141, -0.713818, 1.745526, 1.056005, -0.441330, 0.000000, -0.000000, -0.000000, 0.000000, 12297829382473033728.000000, 13527612320720336896.000000, 14757395258967642112.000000, 238.633118, 238.633118, 3592.250000
53.775994, 24.100000, 111.500000, 0.000000, 0.000000, 145.500000, 12.400000, 40.500000, 84.000000, 0.014835, 0.003141, -0.713818, 1.745526, 1.056005, -0.441330, 0.000000, -0.000000, -0.000000, 0.000000, 12297829382473033728.000000, 13527612320720336896.000000, 14757395258967642112.000000, 238.633118, 238.633118, 3592.250000
53.875365, 24.100000, 111.500000, 0.000000, 0.000000, 145.500000, 12.400000, 40.500000, 84.000000, 0.014835, 0.003141, -0.713818, 1.745526, 1.056005, -0.441330, 0.000000, -0.000000, -0.000000, 0.000000, 12297829382473033728.000000, 13527612320720336896.000000, 14757395258967642112.000000, 238.633118, 238.633118, 3592.250000
53.980693, 24.100000, 111.500000, 0.000000, 0.000000, 145.500000, 12.400000, 40.500000, 84.000000, 0.014835, 0.003141, -0.713818, 1.745526, 1.056005, -0.441330, 0.000000, -0.000000, -0.000000, 0.000000, 12297829382473033728.000000, 13527612320720336896.000000, 14757395258967642112.000000, 238.633118, 238.633118, 3592.250000
54.079929, 24.100000, 111.500000, 0.000000, 0.000000, 145.500000, 12.400000, 40.500000, 84.000000, 0.014835, 0.003141, -0.713818, 1.745526, 1.056005, -0.441330, 0.000000, -0.000000, -0.000000, 0.000000, 12297829382473033728.000000, 13527612320720336896.000000, 14757395258967642112.000000, 238.633118, 238.633118, 3592.250000
54.185246, 24.100000, 111.500000, 0.000000, 0.000000, 145.500000, 12.400000, 40.500000, 84.000000, 0.014835, 0.003141, -0.713818, 1.745526, 1.056005, -0.441330, 0.000000, -0.000000, -0.000000, 0.000000, 12297829382473033728.000000, 13527612320720336896.000000, 14757395258967642112.000000, 238.633118, 238.633118, 3592.250000
54.284637, 24.100000, 111.500000, 0.000000, 0.000000, 145.500000, 12.400000, 40.500000, 84.000000, 0.014835, 0.003141, -0.713818, 1.745526, 1.056005, -0.441330, 0.000000, -0.000000, -0.000000, 0.000000, 12297829382473033728.000000, 13527612320720336896.000000, 14757395258967642112.000000, 238.633118, 238.633118, 3592.250000
54.389952, 24.100000, 111.500000, 0.000000, 0.000000, 145.500000, 12.400000, 40.500000, 84.000000, 0.014835, 0.003141, -0.713818, 1.745526, 1.056005, -0.441330, 0.000000, -0.000000, -0.000000, 0.000000, 12297829382473033728.000000, 13527612320720336896.000000, 14757395258967642112.000000, 238.633118, 238.633118, 3592.250000
54.489342, 24.100000, 111.500000, 0.000000, 0.000000, 145.500000, 12.400000, 40.500000, 84.000000, 0.014835, 0.003141, -0.713818, 1.745526, 1.056005, -0.441330, 0.000000, -0.000000, -0.000000, 0.000000, 12297829382473033728.000000, 13527612320720336896.000000, 14757395258967642112.000000, 238.633118, 238.633118, 3592.250000
54.594581, 24.100000, 111.500000, 0.000000, 0.000000, 145.500000, 12.400000, 40.500000, 84.000000, 0.014835, 0.003141, -0.713818, 1.745526, 1.056005, -0.441330, 0.000000, -0.000000, -0.000000, 0.000000, 12297829382473033728.000000, 13527612320720336896.000000, 14757395258967642112.000000, 238.633118, 238.633118, 3592.250000
54.693866, 24.100000, 111.500000, 0.000000, 0.000000, 145.500000, 12.400000, 40.500000, 84.000000, 0.014835, 0.003141, -0.713818, 1.745526, 1.056005, -0.441330, 0.000000, -0.000000, -0.000000, 0.000000, 12297829382473033728.000000, 13527612320720336896.000000, 14757395258967642112.000000, 238.633118, 238.633118, 3592.250000
54.799184, 24.100000, 111.500000, 0.000000, 0.000000, 145.500000, 12.400000, 40.500000, 84.000000, 0.014835, 0.003141, -0.713818, 1.745526, 1.056005, -0.441330, 0.000000, -0.000000, -0.000000, 0.000000, 12297829382473033728.000000, 13527612320720336896.000000, 14757395258967642112.000000, 238.633118, 238.633118, 3592.250000
54.898491, 24.100000, 111.500000, 0.000000, 0.000000, 145.500000, 12.400000, 40.500000, 84.000000, 0.014835, 0.003141, -0.713818, 1.745526, 1.056005, -0.441330, -0.000000, 0.000000, 0.000000, -0.000000, 12297829382473033728.000000, 13527612320720336896.000000, 14757395258967642112.000000, 238.633118, 238.633118, 3592.250000
55.003869, 24.100000, 111.500000, 0.000000, 0.000000, 145.500000, 12.400000, 40.500000, 84.000000, 0.014835, 0.003141, -0.713818, 1.745526, 1.056005, -0.441330, -0.000000, 0.000000, 0.000000, -0.000000, 12297829382473033728.000000, 13527612320720336896.000000, 14757395258967642112.000000, 238.633118, 238.633118, 3592.250000
55.103183, 24.100000, 111.500000, 0.000000, 0.000000, 145.500000, 12.400000, 40.500000, 84.000000, 0.014835, 0.003141, -0.713818, 1.745526, 1.056005, -0.441330, -0.000000, 0.000000, 0.000000, -0.000000, 12297829382473033728.000000, 13527612320720336896.000000, 14757395258967642112.000000, 238.633118, 238.633118, 3592.250000
55.208412, 24.100000, 111.500000, 0.000000, 0.000000, 145.500000, 12.400000, 40.500000, 84.000000, 0.014835, 0.003141, -0.713818, 1.745526, 1.056005, -0.441330, -0.000000, 0.000000, 0.000000, -0.000000, 12297829382473033728.000000, 13527612320720336896.000000, 14757395258967642112.000000, 238.633118, 238.633118, 3592.250000
55.307806, 24.100000, 111.500000, 0.000000, 0.000000, 145.500000, 12.400000, 40.500000, 84.000000, 0.014835, 0.003141, -0.713818, 1.745526, 1.056005, -0.441330, -0.000000, 0.000000, 0.000000, -0.000000, 12297829382473033728.000000, 13527612320720336896.000000, 14757395258967642112.000000, 238.633118, 238.633118, 3592.250000
55.413045, 24.100000, 111.500000, 0.000000, 0.000000, 145.500000, 12.400000, 40.500000, 84.000000, 0.014835, 0.003141, -0.713818, 1.745526, 1.056005, -0.441330, -0.000000, 0.000000, 0.000000, -0.000000, 12297829382473033728.000000, 13527612320720336896.000000, 14757395258967642112.000000, 238.633118, 238.633118, 3592.250000
55.512431, 24.100000, 111.500000, 0.000000, 0.000000, 145.500000, 12.400000, 40.500000, 84.000000, 0.014835, 0.003141, -0.713818, 1.745526, 1.056005, -0.441330, -0.000000, 0.000000, 0.000000, -0.000000, 12297829382473033728.000000, 13527612320720336896.000000, 14757395258967642112.000000, 238.633118, 238.633118, 3592.250000
55.617670, 24.100000, 111.500000, 0.000000, 0.000000, 145.500000, 12.400000, 40.500000, 84.000000, 0.014835, 0.003141, -0.713818, 1.745526, 1.056005, -0.441330, -0.000000, 0.000000, 0.000000, -0.000000, 12297829382473033728.000000, 13527612320720336896.000000, 14757395258967642112.000000, 238.633118, 238.633118, 3592.250000
55.717057, 24.100000, 111.500000, 0.000000, 0.000000, 145.500000, 12.400000, 40.500000, 84.000000, 0.014835, 0.003141, -0.713818, 1.745526, 1.056005, -0.441330, -0.000000, 0.000000, 0.000000, -0.000000, 12297829382473033728.000000, 13527612320720336896.000000, 14757395258967642112.000000, 238.633118, 238.633118, 3592.250000
55.822368, 24.100000, 111.500000, 0.000000, 0.000000, 145.500000, 12.400000, 40.500000, 84.000000, 0.014835, 0.003141, -0.713818, 1.745526, 1.056005, -0.441330, -0.000000, 0.000000, 0.000000, -0.000000, 12297829382473033728.000000, 13527612320720336896.000000, 14757395258967642112.000000, 238.633118, 238.633118, 3592.250000
55.921746, 24.100000, 111.500000, 0.000000, 0.000000, 145.500000, 12.400000, 40.500000, 84.000000, 0.014835, 0.003141, -0.713818, 1.745526, 1.056005, -0.441330, -0.000000, 0.000000, 0.000000, -0.000000, 12297829382473033728.000000, 13527612320720336896.000000, 14757395258967642112.000000, 238.633118, 238.633118, 3592.250000
56.026982, 24.100000, 111.500000, 0.000000, 0.000000, 145.500000, 12.400000, 40.500000, 84.000000, 0.014835, 0.003141, -0.713818, 1.745526, 1.056005, -0.441330, -0.000000, 0.000000, 0.000000, -0.000000, 12297829382473033728.000000, 13527612320720336896.000000, 14757395258967642112.000000, 238.633118, 238.633118, 3592.250000
56.126348, 24.100000, 111.500000, 0.000000, 0.000000, 145.500000, 12.400000, 40.500000, 84.000000, 0.014835, 0.003141, -0.713818, 1.745526, 1.056005, -0.441330, -0.000000, 0.000000, 0.000000, -0.000000, 12297829382473033728.000000, 13527612320720336896.000000, 14757395258967642112.000000, 238.633118, 238.633118, 3592.250000
56.231546, 24.100000, 111.500000, 0.000000, 0.000000, 145.500000, 12.400000, 40.500000, 84.000000, 0.014835, 0.003141, -0.713818, 1.745526, 1.056005, -0.441330, -0.000000, 0.000000, 0.000000, -0.000000, 12297829382473033728.000000, 13527612320720336896.000000, 14757395258967642112.000000, 238.633118, 238.633118, 3592.250000
56.330992, 24.100000, 111.500000, 0.000000, 0.000000, 145.500000, 12.400000, 40.500000, 84.000000, 0.014835, 0.003141, -0.713818, 1.745526, 1.056005, -0.441330, -0.000000, 0.000000, 0.000000, -0.000000, 12297829382473033728.000000, 13527612320720336896.000000, 14757395258967642112.000000, 238.633118, 238.633118, 3592.250000
56.436349, 24.100000, 111.500000, 0.000000, 0.000000, 145.500000, 12.400000, 40.500000, 84.000000, 0.014835, 0.003141, -0.713818, 1.745526, 1.056005, -0.441330, -0.000000, 0.000000, 0.000000, -0.000000, 12297829382473033728.000000, 13527612320720336896.000000, 14757395258967642112.000000, 238.633118, 238.633118, 3592.250000
56.535723, 24.100000, 111.500000, 0.000000, 0.000000, 145.500000, 12.400000, 40.500000, 84.000000, 0.014835, 0.003141, -0.713818, 1.745526, 1.056005, -0.441330, -0.000000, 0.000000, 0.000000, -0.000000, 12297829382473033728.000000, 13527612320720336896.000000, 14757395258967642112.000000, 238.633118, 238.633118, 3592.250000
56.641020, 24.100000, 111.500000, 0.000000, 0.000000, 145.500000, 12.400000, 40.500000, 84.000000, 0.014835, 0.003141, -0.713818, 1.745526, 1.056005, -0.441330, -0.000000, 0.000000, 0.000000, -0.000000, 12297829382473033728.000000, 13527612320720336896.000000, 14757395258967642112.000000, 238.633118, 238.633118, 3592.250000
56.740387, 24.100000, 111.500000, 0.000000, 0.000000, 145.500000, 12.400000, 40.500000, 84.000000, 0.014835, 0.003141, -0.713818, 1.745526, 1.056005, -0.441330, -0.000000, 0.000000, 0.000000, -0.000000, 12297829382473033728.000000, 13527612320720336896.000000, 14757395258967642112.000000, 238.633118, 238.633118, 3592.250000
56.845684, 24.100000, 111.500000, 0.000000, 0.000000, 145.500000, 12.400000, 40.500000, 84.000000, 0.014835, 0.003141, -0.713818, 1.745526, 1.056005, -0.441330, -0.000000, 0.000000, 0.000000, -0.000000, 12297829382473033728.000000, 13527612320720336896.000000, 14757395258967642112.000000, 238.633118, 238.633118, 3592.250000
56.944998, 24.100000, 111.500000, 0.000000, 0.000000, 145.500000, 12.400000, 40.500000, 84.000000, 0.014835, 0.003141, -0.713818, 1.745526, 1.056005, -0.441330, 0.000000, -0.000000, -0.000000, 0.000000, 12297829382473033728.000000, 13527612320720336896.000000, 14757395258967642112.000000, 238.633118, 238.633118, 3592.250000
57.050309, 24.100000, 111.500000, 0.000000, 0.000000, 145.500000, 12.400000, 40.500000, 84.000000, 0.014835, 0.003141, -0.713818, 1.745526, 1.056005, -0.441330, 0.000000, -0.000000, -0.000000, 0.000000, 12297829382473033728.000000, 13527612320720336896.000000, 14757395258967642112.000000, 238.633118, 238.633118, 3592.250000
57.149599, 24.100000, 111.500000, 0.000000, 0.000000, 145.500000, 12.400000, 40.500000, 84.000000, 0.014835, 0.003141, -0.713818, 1.745526, 1.056005, -0.441330, 0.000000, -0.000000, -0.000000, 0.000000, 12297829382473033728.000000, 13527612320720336896.000000, 14757395258967642112.000000, 238.633118, 238.633118, 3592.250000
57.254807, 24.100000, 111.500000, 0.000000, 0.000000, 145.500000, 12.400000, 40.500000, 84.000000, 0.014835, 0.003141, -0.713818, 1.745526, 1.056005, -0.441330, 0.000000, -0.000000, -0.000000, 0.000000, 12297829382473033728.000000, 13527612320720336896.000000, 14757395258967642112.000000, 238.633118, 238.633118, 3592.250000
