JunhaAgu/can_excavator_plot/from_excavator.txt
time [ms], ACyl_LC [bar], ACyl_SC [bar], Swing_L [bar], Swing_R [bar], BCyl_LC [bar], BCyl_SC [bar], KCyl_LC [bar], KCyl_SC [bar], Body_Pitch_Angle [rad], Body_Roll_Angle [rad], Boom_Joint_Angle [rad], Arm_Joint_Angle [rad], Bkt_Joint_Angle [rad], Swing_Angle [rad], Boom_Joint_Rate [rad/s], Arm_Joint_Rate [rad/s], Bkt_Joint_Rate [rad/s], Swing_Rate [rad/s], GPS_Easting [m], GPS_Northing [m], GPS_Elevation [m], GPS_Latitude [deg], GPS_Longitude [deg], GPS_Sea_Level [m]
3000.607330, 24.100000, 111.500000, 0.000000, 0.000000, 145.500000, 12.400000, 40.500000, 84.000000, 0.014835, 0.003141, -0.713818, 1.745526, 1.056005, -0.441330, -0.742371, 1.815347, 1.098245, -0.458983, 100.000000, 200.000000, 300.000000, 400.000000, 500.000000, 600.000000
3000.707218, 24.100000, 111.500000, 0.000000, 0.000000, 145.500000, 12.400000, 40.500000, 84.000000, 0.014835, 0.003141, -0.713818, 1.745526, 1.056005, -0.441330, -2.747229, 6.717900, 4.064182, -1.698520, 100.000000, 200.000000, 300.000000, 400.000000, 500.000000, 600.000000
3000.808224, 24.100000, 111.500000, 0.000000, 0.000000, 145.500000, 12.400000, 40.500000, 84.000000, 0.014835, 0.003141, -0.713818, 1.745526, 1.056005, -0.441330, -4.844001, 11.845212, 7.166092, -2.994884, 100.000000, 200.000000, 300.000000, 400.000000, 500.000000, 600.000000
3000.908966, 24.100000, 111.500000, 0.000000, 0.000000, 145.500000, 12.400000, 40.500000, 84.000000, 0.014835, 0.003141, -0.713818, 1.745526, 1.056005, -0.441330, -6.178310, 15.108047, 9.140037, -3.819843, 100.000000, 200.000000, 300.000000, 400.000000, 500.000000, 600.000000
3001.008981, 24.100000, 111.500000, 0.000000, 0.000000, 145.500000, 12.400000, 40.500000, 84.000000, 0.014835, 0.003141, -0.713818, 1.745526, 1.056005, -0.441330, -6.898324, 16.868721, 10.205206, -4.265003, 100.000000, 200.000000, 300.000000, 400.000000, 500.000000, 600.000000
3001.109886, 24.100000, 111.500000, 0.000000, 0.000000, 145.500000, 12.400000, 40.500000, 84.000000, 0.014835, 0.003141, -0.713818, 1.745526, 1.056005, -0.441330, -7.138217, 17.455341, 10.560099, -4.413321, 100.000000, 200.000000, 300.000000, 400.000000, 500.000000, 600.000000
3001.211064, 24.100000, 111.500000, 0.000000, 0.000000, 145.500000, 12.400000, 40.500000, 84.000000, 0.014835, 0.003141, -0.713818, 1.745526, 1.056005, -0.441330, -7.016323, 17.157270, 10.379772, -4.337958, 100.000000, 200.000000, 300.000000, 400.000000, 500.000000, 600.000000
3001.312142, 24.100000, 111.500000, 0.000000, 0.000000, 145.500000, 12.400000, 40.500000, 84.000000, 0.014835, 0.003141, -0.713818, 1.745526, 1.056005, -0.441330, -6.634431, 16.223415, 9.814811, -4.101847, 100.000000, 200.000000, 300.000000, 400.000000, 500.000000, 600.000000
3001.412945, 24.100000, 111.500000, 0.000000, 0.000000, 145.500000, 12.400000, 40.500000, 84.000000, 0.014835, 0.003141, -0.713818, 1.745526, 1.056005, -0.441330, -6.077963, 14.862663, 8.991586, -3.757802, 100.000000, 200.000000, 300.000000, 400.000000, 500.000000, 600.000000
3001.512870, 24.100000, 111.500000, 0.000000, 0.000000, 145.500000, 12.400000, 40.500000, 84.000000, 0.014835, 0.003141, -0.713818, 1.745526, 1.056005, -0.441330, -5.416788, 13.245867, 8.013459, -3.349019, 100.000000, 200.000000, 300.000000, 400.000000, 500.000000, 600.000000
3001.612581, 24.100000, 111.500000, 0.000000, 0.000000, 145.500000, 12.400000, 40.500000, 84.000000, 0.014835, 0.003141, -0.713818, 1.745526, 1.056005, -0.441330, -4.706464, 11.508887, 6.962625, -2.909850, 100.000000, 200.000000, 300.000000, 400.000000, 500.000000, 600.000000
3001.713205, 24.100000, 111.500000, 0.000000, 0.000000, 145.500000, 12.400000, 40.500000, 84.000000, 0.014835, 0.003141, -0.713818, 1.745526, 1.056005, -0.441330, -3.989751, 9.756282, 5.902337, -2.466730, 100.000000, 200.000000, 300.000000, 400.000000, 500.000000, 600.000000
3001.813347, 24.100000, 111.500000, 0.000000, 0.000000, 145.500000, 12.400000, 40.500000, 84.000000, 0.014835, 0.003141, -0.713818, 1.745526, 1.056005, -0.441330, -3.298242, 8.065310, 4.879336, -2.039194, 100.000000, 200.000000, 300.000000, 400.000000, 500.000000, 600.000000
3001.913741, 24.100000, 111.500000, 0.000000, 0.000000, 145.500000, 12.400000, 40.500000, 84.000000, 0.014835, 0.003141, -0.713818, 1.745526, 1.056005, -0.441330, -2.654037, 6.490012, 3.926316, -1.640903, 100.000000, 200.000000, 300.000000, 400.000000, 500.000000, 600.000000
3002.013489, 24.100000, 111.500000, 0.000000, 0.000000, 145.500000, 12.400000, 40.500000, 84.000000, 0.014835, 0.003141, -0.713818, 1.745526, 1.056005, -0.441330, -2.071355, 5.065157, 3.064310, -1.280650, 100.000000, 200.000000, 300.000000, 400.000000, 500.000000, 600.000000
3002.114078, 24.100000, 111.500000, 0.000000, 0.000000, 145.500000, 12.400000, 40.500000, 84.000000, 0.014835, 0.003141, -0.713818, 1.745526, 1.056005, -0.441330, -1.558048, 3.809949, 2.304937, -0.963290, 100.000000, 200.000000, 300.000000, 400.000000, 500.000000, 600.000000
3002.214935, 24.100000, 111.500000, 0.000000, 0.000000, 145.500000, 12.400000, 40.500000, 84.000000, 0.014835, 0.003141, -0.713818, 1.745526, 1.056005, -0.441330, -1.116977, 2.731383, 1.652429, -0.690591, 100.000000, 200.000000, 300.000000, 400.000000, 500.000000, 600.000000
3002.315889, 24.100000, 111.500000, 0.000000, 0.000000, 145.500000, 12.400000, 40.500000, 84.000000, 0.014835, 0.003141, -0.713818, 1.745526, 1.056005, -0.441330, -0.747227, 1.827219, 1.105429, -0.461986, 100.000000, 200.000000, 300.000000, 400.000000, 500.000000, 600.000000
3002.415557, 24.100000, 111.500000, 0.000000, 0.000000, 145.500000, 12.400000, 40.500000, 84.000000, 0.014835, 0.003141, -0.713818, 1.745526, 1.056005, -0.441330, -0.445152, 1.088543, 0.658546, -0.275223, 100.000000, 200.000000, 300.000000, 400.000000, 500.000000, 600.000000
3002.516562, 24.100000, 111.500000, 0.000000, 0.000000, 145.500000, 12.400000, 40.500000, 84.000000, 0.014835, 0.003141, -0.713818, 1.745526, 1.056005, -0.441330, -0.205258, 0.501923, 0.303654, -0.126905, 100.000000, 200.000000, 300.000000, 400.000000, 500.000000, 600.000000
3002.617273, 24.100000, 111.500000, 0.000000, 0.000000, 145.500000, 12.400000, 40.500000, 84.000000, 0.014835, 0.003141, -0.713818, 1.745526, 1.056005, -0.441330, -0.020929, 0.051176, 0.030962, -0.012940, 100.000000, 200.000000, 300.000000, 400.000000, 500.000000, 600.000000
3002.717979, 24.100000, 111.500000, 0.000000, 0.000000, 145.500000, 12.400000, 40.500000, 84.000000, 0.014835, 0.003141, -0.713818, 1.745526, 1.056005, -0.441330, 0.115002, -0.281220, -0.170131, 0.071102, 100.000000, 200.000000, 300.000000, 400.000000, 500.000000, 600.000000
3002.818874, 24.100000, 111.500000, 0.000000, 0.000000, 145.500000, 12.400000, 40.500000, 84.000000, 0.014835, 0.003141, -0.713818, 1.745526, 1.056005, -0.441330, 0.209803, -0.513040, -0.310377, 0.129714, 100.000000, 200.000000, 300.000000, 400.000000, 500.000000, 600.000000
3002.919941, 24.100000, 111.500000, 0.000000, 0.000000, 145.500000, 12.400000, 40.500000, 84.000000, 0.014835, 0.003141, -0.713818, 1.745526, 1.056005, -0.441330, 0.270515, -0.661501, -0.400192, 0.167250, 100.000000, 200.000000, 300.000000, 400.000000, 500.000000, 600.000000
3003.020968, 24.100000, 111.500000, 0.000000, 0.000000, 145.500000, 12.400000, 40.500000, 84.000000, 0.014835, 0.003141, -0.713818, 1.745526, 1.056005, -0.441330, 0.303718, -0.742693, -0.449312, 0.187778, 100.000000, 200.000000, 300.000000, 400.000000, 500.000000, 600.000000
3003.120603, 24.100000, 111.500000, 0.000000, 0.000000, 145.500000, 12.400000, 40.500000, 84.000000, 0.014835, 0.003141, -0.713818, 1.745526, 1.056005, -0.441330, 0.315381, -0.771213, -0.466566, 0.194989, 100.000000, 200.000000, 300.000000, 400.000000, 500.000000, 600.000000
3003.221458, 24.100000, 111.500000, 0.000000, 0.000000, 145.500000, 12.400000, 40.500000, 84.000000, 0.014835, 0.003141, -0.713818, 1.745526, 1.056005, -0.441330, 0.310775, -0.759949, -0.459752, 0.192142, 100.000000, 200.000000, 300.000000, 400.000000, 500.000000, 600.000000
3003.322072, 24.100000, 111.500000, 0.000000, 0.000000, 145.500000, 12.400000, 40.500000, 84.000000, 0.014835, 0.003141, -0.713818, 1.745526, 1.056005, -0.441330, 0.294441, -0.720007, -0.435588, 0.182043, 100.000000, 200.000000, 300.000000, 400.000000, 500.000000, 600.000000
3003.422688, 24.100000, 111.500000, 0.000000, 0.000000, 145.500000, 12.400000, 40.500000, 84.000000, 0.014835, 0.003141, -0.713818, 1.745526, 1.056005, -0.441330, 0.270194, -0.660717, -0.399719, 0.167052, 100.000000, 200.000000, 300.000000, 400.000000, 500.000000, 600.000000
3003.523381, 24.100000, 111.500000, 0.000000, 0.000000, 145.500000, 12.400000, 40.500000, 84.000000, 0.014835, 0.003141, -0.713818, 1.745526, 1.056005, -0.441330, 0.241162, -0.589723, -0.356769, 0.149103, 100.000000, 200.000000, 300.000000, 400.000000, 500.000000, 600.000000
3003.624114, 24.100000, 111.500000, 0.000000, 0.000000, 145.500000, 12.400000, 40.500000, 84.000000, 0.014835, 0.003141, -0.713818, 1.745526, 1.056005, -0.441330, 0.209834, -0.513114, -0.310423, 0.129733, 100.000000, 200.000000, 300.000000, 400.000000, 500.000000, 600.000000
3003.724806, 24.100000, 111.500000, 0.000000, 0.000000, 145.500000, 12.400000, 40.500000, 84.000000, 0.014835, 0.003141, -0.713818, 1.745526, 1.056005, -0.441330, 0.178129, -0.435586, -0.263520, 0.110131, 100.000000, 200.000000, 300.000000, 400.000000, 500.000000, 600.000000
3003.824684, 24.100000, 111.500000, 0.000000, 0.000000, 145.500000, 12.400000, 40.500000, 84.000000, 0.014835, 0.003141, -0.713818, 1.745526, 1.056005, -0.441330, 0.147471, -0.360618, -0.218166, 0.091177, 100.000000, 200.000000, 300.000000, 400.000000, 500.000000, 600.000000
3003.925589, 24.100000, 111.500000, 0.000000, 0.000000, 145.500000, 12.400000, 40.500000, 84.000000, 0.014835, 0.003141, -0.713818, 1.745526, 1.056005, -0.441330, 0.118859, -0.290650, -0.175837, 0.073487, 100.000000, 200.000000, 300.000000, 400.000000, 500.000000, 600.000000
3004.026163, 24.100000, 111.500000, 0.000000, 0.000000, 145.500000, 12.400000, 40.500000, 84.000000, 0.014835, 0.003141, -0.713818, 1.745526, 1.056005, -0.441330, 0.092938, -0.227265, -0.137490, 0.057461, 100.000000, 200.000000, 300.000000, 400.000000, 500.000000, 600.000000
3004.126899, 24.100000, 111.500000, 0.000000, 0.000000, 145.500000, 12.400000, 40.500000, 84.000000, 0.014835, 0.003141, -0.713818, 1.745526, 1.056005, -0.441330, 0.070070, -0.171346, -0.103660, 0.043322, 100.000000, 200.000000, 300.000000, 400.000000, 500.000000, 600.000000
3004.227539, 24.100000, 111.500000, 0.000000, 0.000000, 145.500000, 12.400000, 40.500000, 84.000000, 0.014835, 0.003141, -0.713818, 1.745526, 1.056005, -0.441330, 0.050393, -0.123229, -0.074551, 0.031157, 100.000000, 200.000000, 300.000000, 400.000000, 500.000000, 600.000000
3004.327865, 24.100000, 111.500000, 0.000000, 0.000000, 145.500000, 12.400000, 40.500000, 84.000000, 0.014835, 0.003141, -0.713818, 1.745526, 1.056005, -0.441330, 0.033874, -0.082835, -0.050113, 0.020944, 100.000000, 200.000000, 300.000000, 400.000000, 500.000000, 600.000000
3004.427416, 24.100000, 111.500000, 0.000000, 0.000000, 145.500000, 12.400000, 40.500000, 84.000000, 0.014835, 0.003141, -0.713818, 1.745526, 1.056005, -0.441330, 0.020359, -0.049784, -0.030118, 0.012587, 100.000000, 200.000000, 300.000000, 400.000000, 500.000000, 600.000000
3004.528130, 24.100000, 111.500000, 0.000000, 0.000000, 145.500000, 12.400000, 40.500000, 84.000000, 0.014835, 0.003141, -0.713818, 1.745526, 1.056005, -0.441330, 0.009607, -0.023491, -0.014212, 0.005939, 100.000000, 200.000000, 300.000000, 400.000000, 500.000000, 600.000000
3004.628790, 24.100000, 111.500000, 0.000000, 0.000000, 145.500000, 12.400000, 40.500000, 84.000000, 0.014835, 0.003141, -0.713818, 1.745526, 1.056005, -0.441330, 0.001328, -0.003247, -0.001965, 0.000821, 100.000000, 200.000000, 300.000000, 400.000000, 500.000000, 600.000000
3004.729534, 24.100000, 111.500000, 0.000000, 0.000000, 145.500000, 12.400000, 40.500000, 84.000000, 0.014835, 0.003141, -0.713818, 1.745526, 1.056005, -0.441330, -0.004793, 0.011721, 0.007091, -0.002963, 100.000000, 200.000000, 300.000000, 400.000000, 500.000000, 600.000000
3004.830253, 24.100000, 111.500000, 0.000000, 0.000000, 145.500000, 12.400000, 40.500000, 84.000000, 0.014835, 0.003141, -0.713818, 1.745526, 1.056005, -0.441330, -0.009078, 0.022199, 0.013430, -0.005613, 100.000000, 200.000000, 300.000000, 400.000000, 500.000000, 600.000000
3004.930974, 24.100000, 111.500000, 0.000000, 0.000000, 145.500000, 12.400000, 40.500000, 84.000000, 0.014835, 0.003141, -0.713818, 1.745526, 1.056005, -0.441330, -0.011839, 0.028951, 0.017515, -0.007320, 100.000000, 200.000000, 300.000000, 400.000000, 500.000000, 600.000000
3005.031670, 24.100000, 111.500000, 0.000000, 0.000000, 145.500000, 12.400000, 40.500000, 84.000000, 0.014835, 0.003141, -0.713818, 1.745526, 1.056005, -0.441330, -0.013369, 0.032691, 0.019777, -0.008265, 100.000000, 200.000000, 300.000000, 400.000000, 500.000000, 600.000000
3005.132731, 24.100000, 111.500000, 0.000000, 0.000000, 145.500000, 12.400000, 40.500000, 84.000000, 0.014835, 0.003141, -0.713818, 1.745526, 1.056005, -0.441330, -0.013932, 0.034068, 0.020610, -0.008614, 100.000000, 200.000000, 300.000000, 400.000000, 500.000000, 600.000000
3005.233797, 24.100000, 111.500000, 0.000000, 0.000000, 145.500000, 12.400000, 40.500000, 84.000000, 0.014835, 0.003141, -0.713818, 1.745526, 1.056005, -0.441330, -0.013763, 0.033656, 0.020361, -0.008509, 100.000000, 200.000000, 300.000000, 400.000000, 500.000000, 600.000000
3005.333521, 24.100000, 111.500000, 0.000000, 0.000000, 145.500000, 12.400000, 40.500000, 84.000000, 0.014835, 0.003141, -0.713818, 1.745526, 1.056005, -0.441330, -0.013066, 0.031951, 0.019330, -0.008078, 100.000000, 200.000000, 300.000000, 400.000000, 500.000000, 600.000000
3005.434416, 24.100000, 111.500000, 0.000000, 0.000000, 145.500000, 12.400000, 40.500000, 84.000000, 0.014835, 0.003141, -0.713818, 1.745526, 1.056005, -0.441330, -0.012010, 0.029369, 0.017768, -0.007426, 100.000000, 200.000000, 300.000000, 400.000000, 500.000000, 600.000000
3005.535416, 24.100000, 111.500000, 0.000000, 0.000000, 145.500000, 12.400000, 40.500000, 84.000000, 0.014835, 0.003141, -0.713818, 1.745526, 1.056005, -0.441330, -0.010736, 0.026253, 0.015882, -0.006638, 100.000000, 200.000000, 300.000000, 400.000000, 500.000000, 600.000000
3005.636133, 24.100000, 111.500000, 0.000000, 0.000000, 145.500000, 12.400000, 40.500000, 84.000000, 0.014835, 0.003141, -0.713818, 1.745526, 1.056005, -0.441330, -0.009355, 0.022875, 0.013839, -0.005784, 100.000000, 200.000000, 300.000000, 400.000000, 500.000000, 600.000000
3005.736875, 24.100000, 111.500000, 0.000000, 0.000000, 145.500000, 12.400000, 40.500000, 84.000000, 0.014835, 0.003141, -0.713818, 1.745526, 1.056005, -0.441330, -0.007952, 0.019446, 0.011764, -0.004917, 100.000000, 200.000000, 300.000000, 400.000000, 500.000000, 600.000000
3005.837919, 24.100000, 111.500000, 0.000000, 0.000000, 145.500000, 12.400000, 40.500000, 84.000000, 0.014835, 0.003141, -0.713818, 1.745526, 1.056005, -0.441330, -0.006593, 0.016123, 0.009754, -0.004076, 100.000000, 200.000000, 300.000000, 400.000000, 500.000000, 600.000000
3005.937700, 24.100000, 111.500000, 0.000000, 0.000000, 145.500000, 12.400000, 40.500000, 84.000000, 0.014835, 0.003141, -0.713818, 1.745526, 1.056005, -0.441330, -0.005322, 0.013015, 0.007874, -0.003291, 100.000000, 200.000000, 300.000000, 400.000000, 500.000000, 600.000000
3006.038677, 24.100000, 111.500000, 0.000000, 0.000000, 145.500000, 12.400000, 40.500000, 84.000000, 0.014835, 0.003141, -0.713818, 1.745526, 1.056005, -0.441330, -0.004169, 0.010196, 0.006168, -0.002578, 100.000000, 200.000000, 300.000000, 400.000000, 500.000000, 600.000000
3006.139839, 24.100000, 111.500000, 0.000000, 0.000000, 145.500000, 12.400000, 40.500000, 84.000000, 0.014835, 0.003141, -0.713818, 1.745526, 1.056005, -0.441330, -0.003151, 0.007705, 0.004661, -0.001948, 100.000000, 200.000000, 300.000000, 400.000000, 500.000000, 600.000000
3006.239897, 24.100000, 111.500000, 0.000000, 0.000000, 145.500000, 12.400000, 40.500000, 84.000000, 0.014835, 0.003141, -0.713818, 1.745526, 1.056005, -0.441330, -0.002273, 0.005558, 0.003363, -0.001405, 100.000000, 200.000000, 300.000000, 400.000000, 500.000000, 600.000000
3006.340976, 24.100000, 111.500000, 0.000000, 0.000000, 145.500000, 12.400000, 40.500000, 84.000000, 0.014835, 0.003141, -0.713818, 1.745526, 1.056005, -0.441330, -0.001535, 0.003754, 0.002271, -0.000949, 100.000000, 200.000000, 300.000000, 400.000000, 500.000000, 600.000000
3006.442296, 24.100000, 111.500000, 0.000000, 0.000000, 145.500000, 12.400000, 40.500000, 84.000000, 0.014835, 0.003141, -0.713818, 1.745526, 1.056005, -0.441330, -0.000930, 0.002275, 0.001376, -0.000575, 100.000000, 200.000000, 300.000000, 400.000000, 500.000000, 600.000000
3006.543351, 24.100000, 111.500000, 0.000000, 0.000000, 145.500000, 12.400000, 40.500000, 84.000000, 0.014835, 0.003141, -0.713818, 1.745526, 1.056005, -0.441330, -0.000449, 0.001097, 0.000664, -0.000277, 100.000000, 200.000000, 300.000000, 400.000000, 500.000000, 600.000000
3006.644498, 24.100000, 111.500000, 0.000000, 0.000000, 145.500000, 12.400000, 40.500000, 84.000000, 0.014835, 0.003141, -0.713818, 1.745526, 1.056005, -0.441330, -0.000077, 0.000188, 0.000114, -0.000047, 100.000000, 200.000000, 300.000000, 400.000000, 500.000000, 600.000000
3006.745778, 24.100000, 111.500000, 0.000000, 0.000000, 145.500000, 12.400000, 40.500000, 84.000000, 0.014835, 0.003141, -0.713818, 1.745526, 1.056005, -0.441330, 0.000199, -0.000486, -0.000294, 0.000123, 100.000000, 200.000000, 300.000000, 400.000000, 500.000000, 600.000000
3006.846776, 24.100000, 111.500000, 0.000000, 0.000000, 145.500000, 12.400000, 40.500000, 84.000000, 0.014835, 0.003141, -0.713818, 1.745526, 1.056005, -0.441330, 0.000392, -0.000960, -0.000581, 0.000243, 100.000000, 200.000000, 300.000000, 400.000000, 500.000000, 600.000000
3006.947893, 24.100000, 111.500000, 0.000000, 0.000000, 145.500000, 12.400000, 40.500000, 84.000000, 0.014835, 0.003141, -0.713818, 1.745526, 1.056005, -0.441330, 0.000518, -0.001267, -0.000766, 0.000320, 100.000000, 200.000000, 300.000000, 400.000000, 500.000000, 600.000000
3007.048101, 24.100000, 111.500000, 0.000000, 0.000000, 145.500000, 12.400000, 40.500000, 84.000000, 0.014835, 0.003141, -0.713818, 1.745526, 1.056005, -0.441330, 0.000588, -0.001439, -0.000870, 0.000364, 100.000000, 200.000000, 300.000000, 400.000000, 500.000000, 600.000000
3007.148971, 24.100000, 111.500000, 0.000000, 0.000000, 145.500000, 12.400000, 40.500000, 84.000000, 0.014835, 0.003141, -0.713818, 1.745526, 1.056005, -0.441330, 0.000615, -0.001505, -0.000910, 0.000380, 100.000000, 200.000000, 300.000000, 400.000000, 500.000000, 600.000000
3007.249975, 24.100000, 111.500000, 0.000000, 0.000000, 145.500000, 12.400000, 40.500000, 84.000000, 0.014835, 0.003141, -0.713818, 1.745526, 1.056005, -0.441330, 0.000609, -0.001490, -0.000902, 0.000377, 100.000000, 200.000000, 300.000000, 400.000000, 500.000000, 600.000000
3007.350704, 24.100000, 111.500000, 0.000000, 0.000000, 145.500000, 12.400000, 40.500000, 84.000000, 0.014835, 0.003141, -0.713818, 1.745526, 1.056005, -0.441330, 0.000580, -0.001418, -0.000858, 0.000358, 100.000000, 200.000000, 300.000000, 400.000000, 500.000000, 600.000000
3007.450720, 24.100000, 111.500000, 0.000000, 0.000000, 145.500000, 12.400000, 40.500000, 84.000000, 0.014835, 0.003141, -0.713818, 1.745526, 1.056005, -0.441330, 0.000534, -0.001305, -0.000790, 0.000330, 100.000000, 200.000000, 300.000000, 400.000000, 500.000000, 600.000000
3007.550333, 24.100000, 111.500000, 0.000000, 0.000000, 145.500000, 12.400000, 40.500000, 84.000000, 0.014835, 0.003141, -0.713818, 1.745526, 1.056005, -0.441330, 0.000478, -0.001169, -0.000707, 0.000295, 100.000000, 200.000000, 300.000000, 400.000000, 500.000000, 600.000000
3007.651219, 24.100000, 111.500000, 0.000000, 0.000000, 145.500000, 12.400000, 40.500000, 84.000000, 0.014835, 0.003141, -0.713818, 1.745526, 1.056005, -0.441330, 0.000417, -0.001020, -0.000617, 0.000258, 100.000000, 200.000000, 300.000000, 400.000000, 500.000000, 600.000000
3007.752163, 24.100000, 111.500000, 0.000000, 0.000000, 145.500000, 12.400000, 40.500000, 84.000000, 0.014835, 0.003141, -0.713818, 1.745526, 1.056005, -0.441330, 0.000355, -0.000868, -0.000525, 0.000219, 100.000000, 200.000000, 300.000000, 400.000000, 500.000000, 600.000000
3007.852957, 24.100000, 111.500000, 0.000000, 0.000000, 145.500000, 12.400000, 40.500000, 84.000000, 0.014835, 0.003141, -0.713818, 1.745526, 1.056005, -0.441330, 0.000295, -0.000721, -0.000436, 0.000182, 100.000000, 200.000000, 300.000000, 400.000000, 500.000000, 600.000000
3007.953661, 24.100000, 111.500000, 0.000000, 0.000000, 145.500000, 12.400000, 40.500000, 84.000000, 0.014835, 0.003141, -0.713818, 1.745526, 1.056005, -0.441330, 0.000238, -0.000583, -0.000353, 0.000147, 100.000000, 200.000000, 300.000000, 400.000000, 500.000000, 600.000000
3008.054216, 24.100000, 111.500000, 0.000000, 0.000000, 145.500000, 12.400000, 40.500000, 84.000000, 0.014835, 0.003141, -0.713818, 1.745526, 1.056005, -0.441330, 0.000187, -0.000457, -0.000277, 0.000116, 100.000000, 200.000000, 300.000000, 400.000000, 500.000000, 600.000000
3008.154477, 24.100000, 111.500000, 0.000000, 0.000000, 145.500000, 12.400000, 40.500000, 84.000000, 0.014835, 0.003141, -0.713818, 1.745526, 1.056005, -0.441330, 0.000142, -0.000346, -0.000210, 0.000088, 100.000000, 200.000000, 300.000000, 400.000000, 500.000000, 600.000000
3008.255102, 24.100000, 111.500000, 0.000000, 0.000000, 145.500000, 12.400000, 40.500000, 84.000000, 0.014835, 0.003141, -0.713818, 1.745526, 1.056005, -0.441330, 0.000103, -0.000251, -0.000152, 0.000063, 100.000000, 200.000000, 300.000000, 400.000000, 500.000000, 600.000000
3008.355778, 24.100000, 111.500000, 0.000000, 0.000000, 145.500000, 12.400000, 40.500000, 84.000000, 0.014835, 0.003141, -0.713818, 1.745526, 1.056005, -0.441330, 0.000070, -0.000170, -0.000103, 0.000043, 100.000000, 200.000000, 300.000000, 400.000000, 500.000000, 600.000000
3008.455509, 24.100000, 111.500000, 0.000000, 0.000000, 145.500000, 12.400000, 40.500000, 84.000000, 0.014835, 0.003141, -0.713818, 1.745526, 1.056005, -0.441330, 0.000042, -0.000104, -0.000063, 0.000026, 100.000000, 200.000000, 300.000000, 400.000000, 500.000000, 600.000000
3008.556291, 24.100000, 111.500000, 0.000000, 0.000000, 145.500000, 12.400000, 40.500000, 84.000000, 0.014835, 0.003141, -0.713818, 1.745526, 1.056005, -0.441330, 0.000021, -0.000051, -0.000031, 0.000013, 100.000000, 200.000000, 300.000000, 400.000000, 500.000000, 600.000000
3008.656846, 24.100000, 111.500000, 0.000000, 0.000000, 145.500000, 12.400000, 40.500000, 84.000000, 0.014835, 0.003141, -0.713818, 1.745526, 1.056005, -0.441330, 0.000004, -0.000010, -0.000006, 0.000003, 100.000000, 200.000000, 300.000000, 400.000000, 500.000000, 600.000000
3008.757422, 24.100000, 111.500000, 0.000000, 0.000000, 145.500000, 12.400000, 40.500000, 84.000000, 0.014835, 0.003141, -0.713818, 1.745526, 1.056005, -0.441330, -0.000008, 0.000020, 0.000012, -0.000005, 100.000000, 200.000000, 300.000000, 400.000000, 500.000000, 600.000000
3008.858181, 24.100000, 111.500000, 0.000000, 0.000000, 145.500000, 12.400000, 40.500000, 84.000000, 0.014835, 0.003141, -0.713818, 1.745526, 1.056005, -0.441330, -0.000017, 0.000041, 0.000025, -0.000010, 100.000000, 200.000000, 300.000000, 400.000000, 500.000000, 600.000000
3008.959015, 24.100000, 111.500000, 0.000000, 0.000000, 145.500000, 12.400000, 40.500000, 84.000000, 0.014835, 0.003141, -0.713818, 1.745526, 1.056005, -0.441330, -0.000023, 0.000055, 0.000034, -0.000014, 100.000000, 200.000000, 300.000000, 400.000000, 500.000000, 600.000000
3009.059959, 24.100000, 111.500000, 0.000000, 0.000000, 145.500000, 12.400000, 40.500000, 84.000000, 0.014835, 0.003141, -0.713818, 1.745526, 1.056005, -0.441330, -0.000026, 0.000063, 0.000038, -0.000016, 100.000000, 200.000000, 300.000000, 400.000000, 500.000000, 600.000000
3009.160727, 24.100000, 111.500000, 0.000000, 0.000000, 145.500000, 12.400000, 40.500000, 84.000000, 0.014835, 0.003141, -0.713818, 1.745526, 1.056005, -0.441330, -0.000027, 0.000066, 0.000040, -0.000017, 100.000000, 200.000000, 300.000000, 400.000000, 500.000000, 600.000000
3009.260444, 24.100000, 111.500000, 0.000000, 0.000000, 145.500000, 12.400000, 40.500000, 84.000000, 0.014835, 0.003141, -0.713818, 1.745526, 1.056005, -0.441330, -0.000027, 0.000066, 0.000040, -0.000017, 100.000000, 200.000000, 300.000000, 400.000000, 500.000000, 600.000000
3009.361498, 24.100000, 111.500000, 0.000000, 0.000000, 145.500000, 12.400000, 40.500000, 84.000000, 0.014835, 0.003141, -0.713818, 1.745526, 1.056005, -0.441330, -0.000026, 0.000063, 0.000038, -0.000016, 100.000000, 200.000000, 300.000000, 400.000000, 500.000000, 600.000000
3009.462292, 24.100000, 111.500000, 0.000000, 0.000000, 145.500000, 12.400000, 40.500000, 84.000000, 0.014835, 0.003141, -0.713818, 1.745526, 1.056005, -0.441330, -0.000024, 0.000058, 0.000035, -0.000015, 100.000000, 200.000000, 300.000000, 400.000000, 500.000000, 600.000000
3009.563083, 24.100000, 111.500000, 0.000000, 0.000000, 145.500000, 12.400000, 40.500000, 84.000000, 0.014835, 0.003141, -0.713818, 1.745526, 1.056005, -0.441330, -0.000021, 0.000052, 0.000031, -0.000013, 100.000000, 200.000000, 300.000000, 400.000000, 500.000000, 600.000000
3009.663956, 24.100000, 111.500000, 0.000000, 0.000000, 145.500000, 12.400000, 40.500000, 84.000000, 0.014835, 0.003141, -0.713818, 1.745526, 1.056005, -0.441330, -0.000019, 0.000045, 0.000027, -0.000011, 100.000000, 200.000000, 300.000000, 400.000000, 500.000000, 600.000000
3009.764755, 24.100000, 111.500000, 0.000000, 0.000000, 145.500000, 12.400000, 40.500000, 84.000000, 0.014835, 0.003141, -0.713818, 1.745526, 1.056005, -0.441330, -0.000016, 0.000039, 0.000023, -0.000010, 100.000000, 200.000000, 300.000000, 400.000000, 500.000000, 600.000000
3009.864388, 24.100000, 111.500000, 0.000000, 0.000000, 145.500000, 12.400000, 40.500000, 84.000000, 0.014835, 0.003141, -0.713818, 1.745526, 1.056005, -0.441330, -0.000013, 0.000032, 0.000019, -0.000008, 100.000000, 200.000000, 300.000000, 400.000000, 500.000000, 600.000000
3009.965227, 24.100000, 111.500000, 0.000000, 0.000000, 145.500000, 12.400000, 40.500000, 84.000000, 0.014835, 0.003141, -0.713818, 1.745526, 1.056005, -0.441330, -0.000011, 0.000026, 0.000016, -0.000007, 100.000000, 200.000000, 300.000000, 400.000000, 500.000000, 600.000000
3010.066130, 24.100000, 111.500000, 0.000000, 0.000000, 145.500000, 12.400000, 40.500000, 84.000000, 0.014835, 0.003141, -0.713818, 1.745526, 1.056005, -0.441330, -0.000008, 0.000021, 0.000012, -0.000005, 100.000000, 200.000000, 300.000000, 400.000000, 500.000000, 600.000000
3010.166810, 24.100000, 111.500000, 0.000000, 0.000000, 145.500000, 12.400000, 40.500000, 84.000000, 0.014835, 0.003141, -0.713818, 1.745526, 1.056005, -0.441330, -0.000006, 0.000016, 0.000009, -0.000004, 100.000000, 200.000000, 300.000000, 400.000000, 500.000000, 600.000000
3010.266649, 24.100000, 111.500000, 0.000000, 0.000000, 145.500000, 12.400000, 40.500000, 84.000000, 0.014835, 0.003141, -0.713818, 1.745526, 1.056005, -0.441330, -0.000005, 0.000011, 0.000007, -0.000003, 100.000000, 200.000000, 300.000000, 400.000000, 500.000000, 600.000000
3010.367796, 24.100000, 111.500000, 0.000000, 0.000000, 145.500000, 12.400000, 40.500000, 84.000000, 0.014835, 0.003141, -0.713818, 1.745526, 1.056005, -0.441330, -0.000003, 0.000008, 0.000005, -0.000002, 100.000000, 200.000000, 300.000000, 400.000000, 500.000000, 600.000000
3010.467395, 24.100000, 111.500000, 0.000000, 0.000000, 145.500000, 12.400000, 40.500000, 84.000000, 0.014835, 0.003141, -0.713818, 1.745526, 1.056005, -0.441330, -0.000002, 0.000005, 0.000003, -0.000001, 100.000000, 200.000000, 300.000000, 400.000000, 500.000000, 600.000000
3010.568077, 24.100000, 111.500000, 0.000000, 0.000000, 145.500000, 12.400000, 40.500000, 84.000000, 0.014835, 0.003141, -0.713818, 1.745526, 1.056005, -0.441330, -0.000001, 0.000002, 0.000001, -0.000001, 100.000000, 200.000000, 300.000000, 400.000000, 500.000000, 600.000000
3010.668610, 24.100000, 111.500000, 0.000000, 0.000000, 145.500000, 12.400000, 40.500000, 84.000000, 0.014835, 0.003141, -0.713818, 1.745526, 1.056005, -0.441330, -0.000000, 0.000001, 0.000000, -0.000000, 100.000000, 200.000000, 300.000000, 400.000000, 500.000000, 600.000000
3010.768871, 24.100000, 111.500000, 0.000000, 0.000000, 145.500000, 12.400000, 40.500000, 84.000000, 0.014835, 0.003141, -0.713818, 1.745526, 1.056005, -0.441330, 0.000000, -0.000001, -0.000000, 0.000000, 100.000000, 200.000000, 300.000000, 400.000000, 500.000000, 600.000000
3010.868134, 24.100000, 111.500000, 0.000000, 0.000000, 145.500000, 12.400000, 40.500000, 84.000000, 0.014835, 0.003141, -0.713818, 1.745526, 1.056005, -0.441330, 0.000001, -0.000002, -0.000001, 0.000000, 100.000000, 200.000000, 300.000000, 400.000000, 500.000000, 600.000000
3010.968754, 24.100000, 111.500000, 0.000000, 0.000000, 145.500000, 12.400000, 40.500000, 84.000000, 0.014835, 0.003141, -0.713818, 1.745526, 1.056005, -0.441330, 0.000001, -0.000002, -0.000001, 0.000001, 100.000000, 200.000000, 300.000000, 400.000000, 500.000000, 600.000000
3011.069359, 24.100000, 111.500000, 0.000000, 0.000000, 145.500000, 12.400000, 40.500000, 84.000000, 0.014835, 0.003141, -0.713818, 1.745526, 1.056005, -0.441330, 0.000001, -0.000003, -0.000002, 0.000001, 100.000000, 200.000000, 300.000000, 400.000000, 500.000000, 600.000000
3011.169980, 24.100000, 111.500000, 0.000000, 0.000000, 145.500000, 12.400000, 40.500000, 84.000000, 0.014835, 0.003141, -0.713818, 1.745526, 1.056005, -0.441330, 0.000001, -0.000003, -0.000002, 0.000001, 100.000000, 200.000000, 300.000000, 400.000000, 500.000000, 600.000000
3011.270646, 24.100000, 111.500000, 0.000000, 0.000000, 145.500000, 12.400000, 40.500000, 84.000000, 0.014835, 0.003141, -0.713818, 1.745526, 1.056005, -0.441330, 0.000001, -0.000003, -0.000002, 0.000001, 100.000000, 200.000000, 300.000000, 400.000000, 500.000000, 600.000000
3011.371357, 24.100000, 111.500000, 0.000000, 0.000000, 145.500000, 12.400000, 40.500000, 84.000000, 0.014835, 0.003141, -0.713818, 1.745526, 1.056005, -0.441330, 0.000001, -0.000003, -0.000002, 0.000001, 100.000000, 200.000000, 300.000000, 400.000000, 500.000000, 600.000000
3011.471916, 24.100000, 111.500000, 0.000000, 0.000000, 145.500000, 12.400000, 40.500000, 84.000000, 0.014835, 0.003141, -0.713818, 1.745526, 1.056005, -0.441330, 0.000001, -0.000003, -0.000002, 0.000001, 100.000000, 200.000000, 300.000000, 400.000000, 500.000000, 600.000000
3011.571871, 24.100000, 111.500000, 0.000000, 0.000000, 145.500000, 12.400000, 40.500000, 84.000000, 0.014835, 0.003141, -0.713818, 1.745526, 1.056005, -0.441330, 0.000001, -0.000002, -0.000001, 0.000001, 100.000000, 200.000000, 300.000000, 400.000000, 500.000000, 600.000000
3011.672837, 24.100000, 111.500000, 0.000000, 0.000000, 145.500000, 12.400000, 40.500000, 84.000000, 0.014835, 0.003141, -0.713818, 1.745526, 1.056005, -0.441330, 0.000001, -0.000002, -0.000001, 0.000001, 100.000000, 200.000000, 300.000000, 400.000000, 500.000000, 600.000000
3011.773468, 24.100000, 111.500000, 0.000000, 0.000000, 145.500000, 12.400000, 40.500000, 84.000000, 0.014835, 0.003141, -0.713818, 1.745526, 1.056005, -0.441330, 0.000001, -0.000002, -0.000001, 0.000000, 100.000000, 200.000000, 300.000000, 400.000000, 500.000000, 600.000000
3011.874655, 24.100000, 111.500000, 0.000000, 0.000000, 145.500000, 12.400000, 40.500000, 84.000000, 0.014835, 0.003141, -0.713818, 1.745526, 1.056005, -0.441330, 0.000001, -0.000001, -0.000001, 0.000000, 100.000000, 200.000000, 300.000000, 400.000000, 500.000000, 600.000000
3011.975672, 24.100000, 111.500000, 0.000000, 0.000000, 145.500000, 12.400000, 40.500000, 84.000000, 0.014835, 0.003141, -0.713818, 1.745526, 1.056005, -0.441330, 0.000000, -0.000001, -0.000001, 0.000000, 100.000000, 200.000000, 300.000000, 400.000000, 500.000000, 600.000000
3012.076602, 24.100000, 111.500000, 0.000000, 0.000000, 145.500000, 12.400000, 40.500000, 84.000000, 0.014835, 0.003141, -0.713818, 1.745526, 1.056005, -0.441330, 0.000000, -0.000001, -0.000001, 0.000000, 100.000000, 200.000000, 300.000000, 400.000000, 500.000000, 600.000000
3012.177279, 24.100000, 111.500000, 0.000000, 0.000000, 145.500000, 12.400000, 40.500000, 84.000000, 0.014835, 0.003141, -0.713818, 1.745526, 1.056005, -0.441330, 0.000000, -0.000001, -0.000000, 0.000000, 100.000000, 200.000000, 300.000000, 400.000000, 500.000000, 600.000000
3012.278251, 24.100000, 111.500000, 0.000000, 0.000000, 145.500000, 12.400000, 40.500000, 84.000000, 0.014835, 0.003141, -0.713818, 1.745526, 1.056005, -0.441330, 0.000000, -0.000001, -0.000000, 0.000000, 100.000000, 200.000000, 300.000000, 400.000000, 500.000000, 600.000000
3012.379018, 24.100000, 111.500000, 0.000000, 0.000000, 145.500000, 12.400000, 40.500000, 84.000000, 0.014835, 0.003141, -0.713818, 1.745526, 1.056005, -0.441330, 0.000000, -0.000000, -0.000000, 0.000000, 100.000000, 200.000000, 300.000000, 400.000000, 500.000000, 600.000000
3012.479623, 24.100000, 111.500000, 0.000000, 0.000000, 145.500000, 12.400000, 40.500000, 84.000000, 0.014835, 0.003141, -0.713818, 1.745526, 1.056005, -0.441330, 0.000000, -0.000000, -0.000000, 0.000000, 100.000000, 200.000000, 300.000000, 400.000000, 500.000000, 600.000000
3012.580454, 24.100000, 111.500000, 0.000000, 0.000000, 145.500000, 12.400000, 40.500000, 84.000000, 0.014835, 0.003141, -0.713818, 1.745526, 1.056005, -0.441330, 0.000000, -0.000000, -0.000000, 0.000000, 100.000000, 200.000000, 300.000000, 400.000000, 500.000000, 600.000000
3012.681384, 24.100000, 111.500000, 0.000000, 0.000000, 145.500000, 12.400000, 40.500000, 84.000000, 0.014835, 0.003141, -0.713818, 1.745526, 1.056005, -0.441330, 0.000000, -0.000000, -0.000000, 0.000000, 100.000000, 200.000000, 300.000000, 400.000000, 500.000000, 600.000000
3012.782113, 24.100000, 111.500000, 0.000000, 0.000000, 145.500000, 12.400000, 40.500000, 84.000000, 0.014835, 0.003141, -0.713818, 1.745526, 1.056005, -0.441330, -0.000000, 0.000000, 0.000000, -0.000000, 100.000000, 200.000000, 300.000000, 400.000000, 500.000000, 600.000000
3012.882451, 24.100000, 111.500000, 0.000000, 0.000000, 145.500000, 12.400000, 40.500000, 84.000000, 0.014835, 0.003141, -0.713818, 1.745526, 1.056005, -0.441330, -0.000000, 0.000000, 0.000000, -0.000000, 100.000000, 200.000000, 300.000000, 400.000000, 500.000000, 600.000000
3012.983092, 24.100000, 111.500000, 0.000000, 0.000000, 145.500000, 12.400000, 40.500000, 84.000000, 0.014835, 0.003141, -0.713818, 1.745526, 1.056005, -0.441330, -0.000000, 0.000000, 0.000000, -0.000000, 100.000000, 200.000000, 300.000000, 400.000000, 500.000000, 600.000000
3013.083635, 24.100000, 111.500000, 0.000000, 0.000000, 145.500000, 12.400000, 40.500000, 84.000000, 0.014835, 0.003141, -0.713818, 1.745526, 1.056005, -0.441330, -0.000000, 0.000000, 0.000000, -0.000000, 100.000000, 200.000000, 300.000000, 400.000000, 500.000000, 600.000000
3013.183912, 24.100000, 111.500000, 0.000000, 0.000000, 145.500000, 12.400000, 40.500000, 84.000000, 0.014835, 0.003141, -0.713818, 1.745526, 1.056005, -0.441330, -0.000000, 0.000000, 0.000000, -0.000000, 100.000000, 200.000000, 300.000000, 400.000000, 500.000000, 600.000000
3013.283634, 24.100000, 111.500000, 0.000000, 0.000000, 145.500000, 12.400000, 40.500000, 84.000000, 0.014835, 0.003141, -0.713818, 1.745526, 1.056005, -0.441330, -0.000000, 0.000000, 0.000000, -0.000000, 100.000000, 200.000000, 300.000000, 400.000000, 500.000000, 600.000000
3013.384663, 24.100000, 111.500000, 0.000000, 0.000000, 145.500000, 12.400000, 40.500000, 84.000000, 0.014835, 0.003141, -0.713818, 1.745526, 1.056005, -0.441330, -0.000000, 0.000000, 0.000000, -0.000000, 100.000000, 200.000000, 300.000000, 400.000000, 500.000000, 600.000000
3013.485291, 24.100000, 111.500000, 0.000000, 0.000000, 145.500000, 12.400000, 40.500000, 84.000000, 0.014835, 0.003141, -0.713818, 1.745526, 1.056005, -0.441330, -0.000000, 0.000000, 0.000000, -0.000000, 100.000000, 200.000000, 300.000000, 400.000000, 500.000000, 600.000000
3013.586013, 24.100000, 111.500000, 0.000000, 0.000000, 145.500000, 12.400000, 40.500000, 84.000000, 0.014835, 0.003141, -0.713818, 1.745526, 1.056005, -0.441330, -0.000000, 0.000000, 0.000000, -0.000000, 100.000000, 200.000000, 300.000000, 400.000000, 500.000000, 600.000000
3013.686611, 24.100000, 111.500000, 0.000000, 0.000000, 145.500000, 12.400000, 40.500000, 84.000000, 0.014835, 0.003141, -0.713818, 1.745526, 1.056005, -0.441330, -0.000000, 0.000000, 0.000000, -0.000000, 100.000000, 200.000000, 300.000000, 400.000000, 500.000000, 600.000000
3013.787321, 24.100000, 111.500000, 0.000000, 0.000000, 145.500000, 12.400000, 40.500000, 84.000000, 0.014835, 0.003141, -0.713818, 1.745526, 1.056005, -0.441330, -0.000000, 0.000000, 0.000000, -0.000000, 100.000000, 200.000000, 300.000000, 400.000000, 500.000000, 600.000000
3013.887903, 24.100000, 111.500000, 0.000000, 0.000000, 145.500000, 12.400000, 40.500000, 84.000000, 0.014835, 0.003141, -0.713818, 1.745526, 1.056005, -0.441330, -0.000000, 0.000000, 0.000000, -0.000000, 100.000000, 200.000000, 300.000000, 400.000000, 500.000000, 600.000000
3013.987557, 24.100000, 111.500000, 0.000000, 0.000000, 145.500000, 12.400000, 40.500000, 84.000000, 0.014835, 0.003141, -0.713818, 1.745526, 1.056005, -0.441330, -0.000000, 0.000000, 0.000000, -0.000000, 100.000000, 200.000000, 300.000000, 400.000000, 500.000000, 600.000000
3014.088288, 24.100000, 111.500000, 0.000000, 0.000000, 145.500000, 12.400000, 40.500000, 84.000000, 0.014835, 0.003141, -0.713818, 1.745526, 1.056005, -0.441330, -0.000000, 0.000000, 0.000000, -0.000000, 100.000000, 200.000000, 300.000000, 400.000000, 500.000000, 600.000000
3014.189129, 24.100000, 111.500000, 0.000000, 0.000000, 145.500000, 12.400000, 40.500000, 84.000000, 0.014835, 0.003141, -0.713818, 1.745526, 1.056005, -0.441330, -0.000000, 0.000000, 0.000000, -0.000000, 100.000000, 200.000000, 300.000000, 400.000000, 500.000000, 600.000000
3014.290131, 24.100000, 111.500000, 0.000000, 0.000000, 145.500000, 12.400000, 40.500000, 84.000000, 0.014835, 0.003141, -0.713818, 1.745526, 1.056005, -0.441330, -0.000000, 0.000000, 0.000000, -0.000000, 100.000000, 200.000000, 300.000000, 400.000000, 500.000000, 600.000000
3014.390840, 24.100000, 111.500000, 0.000000, 0.000000, 145.500000, 12.400000, 40.500000, 84.000000, 0.014835, 0.003141, -0.713818, 1.745526, 1.056005, -0.441330, -0.000000, 0.000000, 0.000000, -0.000000, 100.000000, 200.000000, 300.000000, 400.000000, 500.000000, 600.000000
3014.490881, 24.100000, 111.500000, 0.000000, 0.000000, 145.500000, 12.400000, 40.500000, 84.000000, 0.014835, 0.003141, -0.713818, 1.745526, 1.056005, -0.441330, -0.000000, 0.000000, 0.000000, -0.000000, 100.000000, 200.000000, 300.000000, 400.000000, 500.000000, 600.000000
3014.590767, 24.100000, 111.500000, 0.000000, 0.000000, 145.500000, 12.400000, 40.500000, 84.000000, 0.014835, 0.003141, -0.713818, 1.745526, 1.056005, -0.441330, -0.000000, 0.000000, 0.000000, -0.000000, 100.000000, 200.000000, 300.000000, 400.000000, 500.000000, 600.000000
3014.690374, 24.100000, 111.500000, 0.000000, 0.000000, 145.500000, 12.400000, 40.500000, 84.000000, 0.014835, 0.003141, -0.713818, 1.745526, 1.056005, -0.441330, -0.000000, 0.000000, 0.000000, -0.000000, 100.000000, 200.000000, 300.000000, 400.000000, 500.000000, 600.000000
3014.791208, 24.100000, 111.500000, 0.000000, 0.000000, 145.500000, 12.400000, 40.500000, 84.000000, 0.014835, 0.003141, -0.713818, 1.745526, 1.056005, -0.441330, 0.000000, -0.000000, -0.000000, 0.000000, 100.000000, 200.000000, 300.000000, 400.000000, 500.000000, 600.000000
3014.891807, 24.100000, 111.500000, 0.000000, 0.000000, 145.500000, 12.400000, 40.500000, 84.000000, 0.014835, 0.003141, -0.713818, 1.745526, 1.056005, -0.441330, 0.000000, -0.000000, -0.000000, 0.000000, 100.000000, 200.000000, 300.000000, 400.000000, 500.000000, 600.000000
3014.991395, 24.100000, 111.500000, 0.000000, 0.000000, 145.500000, 12.400000, 40.500000, 84.000000, 0.014835, 0.003141, -0.713818, 1.745526, 1.056005, -0.441330, 0.000000, -0.000000, -0.000000, 0.000000, 100.000000, 200.000000, 300.000000, 400.000000, 500.000000, 600.000000
3015.091908, 24.100000, 111.500000, 0.000000, 0.000000, 145.500000, 12.400000, 40.500000, 84.000000, 0.014835, 0.003141, -0.713818, 1.745526, 1.056005, -0.441330, 0.000000, -0.000000, -0.000000, 0.000000, 100.000000, 200.000000, 300.000000, 400.000000, 500.000000, 600.000000
3015.192679, 24.100000, 111.500000, 0.000000, 0.000000, 145.500000, 12.400000, 40.500000, 84.000000, 0.014835, 0.003141, -0.713818, 1.745526, 1.056005, -0.441330, 0.000000, -0.000000, -0.000000, 0.000000, 100.000000, 200.000000, 300.000000, 400.000000, 500.000000, 600.000000
3015.293275, 24.100000, 111.500000, 0.000000, 0.000000, 145.500000, 12.400000, 40.500000, 84.000000, 0.014835, 0.003141, -0.713818, 1.745526, 1.056005, -0.441330, 0.000000, -0.000000, -0.000000, 0.000000, 100.000000, 200.000000, 300.000000, 400.000000, 500.000000, 600.000000
3015.393880, 24.100000, 111.500000, 0.000000, 0.000000, 145.500000, 12.400000, 40.500000, 84.000000, 0.014835, 0.003141, -0.713818, 1.745526, 1.056005, -0.441330, 0.000000, -0.000000, -0.000000, 0.000000, 100.000000, 200.000000, 300.000000, 400.000000, 500.000000, 600.000000
3015.493623, 24.100000, 111.500000, 0.000000, 0.000000, 145.500000, 12.400000, 40.500000, 84.000000, 0.014835, 0.003141, -0.713818, 1.745526, 1.056005, -0.441330, 0.000000, -0.000000, -0.000000, 0.000000, 100.000000, 200.000000, 300.000000, 400.000000, 500.000000, 600.000000
3015.594375, 24.100000, 111.500000, 0.000000, 0.000000, 145.500000, 12.400000, 40.500000, 84.000000, 0.014835, 0.003141, -0.713818, 1.745526, 1.056005, -0.441330, 0.000000, -0.000000, -0.000000, 0.000000, 100.000000, 200.000000, 300.000000, 400.000000, 500.000000, 600.000000
3015.695321, 24.100000, 111.500000, 0.000000, 0.000000, 145.500000, 12.400000, 40.500000, 84.000000, 0.014835, 0.003141, -0.713818, 1.745526, 1.056005, -0.441330, 0.000000, -0.000000, -0.000000, 0.000000, 100.000000, 200.000000, 300.000000, 400.000000, 500.000000, 600.000000
3015.796239, 24.100000, 111.500000, 0.000000, 0.000000, 145.500000, 12.400000, 40.500000, 84.000000, 0.014835, 0.003141, -0.713818, 1.745526, 1.056005, -0.441330, 0.000000, -0.000000, -0.000000, 0.000000, 100.000000, 200.000000, 300.000000, 400.000000, 500.000000, 600.000000
3015.896887, 24.100000, 111.500000, 0.000000, 0.000000, 145.500000, 12.400000, 40.500000, 84.000000, 0.014835, 0.003141, -0.713818, 1.745526, 1.056005, -0.441330, 0.000000, -0.000000, -0.000000, 0.000000, 100.000000, 200.000000, 300.000000, 400.000000, 500.000000, 600.000000
3015.997592, 24.100000, 111.500000, 0.000000, 0.000000, 145.500000, 12.400000, 40.500000, 84.000000, 0.014835, 0.003141, -0.713818, 1.745526, 1.056005, -0.441330, 0.000000, -0.000000, -0.000000, 0.000000, 100.000000, 200.000000, 300.000000, 400.000000, 500.000000, 600.000000
3016.098233, 24.100000, 111.500000, 0.000000, 0.000000, 145.500000, 12.400000, 40.500000, 84.000000, 0.014835, 0.003141, -0.713818, 1.745526, 1.056005, -0.441330, 0.000000, -0.000000, -0.000000, 0.000000, 100.000000, 200.000000, 300.000000, 400.000000, 500.000000, 600.000000
3016.199247, 24.100000, 111.500000, 0.000000, 0.000000, 145.500000, 12.400000, 40.500000, 84.000000, 0.014835, 0.003141, -0.713818, 1.745526, 1.056005, -0.441330, 0.000000, -0.000000, -0.000000, 0.000000, 100.000000, 200.000000, 300.000000, 400.000000, 500.000000, 600.000000
3016.299944, 24.100000, 111.500000, 0.000000, 0.000000, 145.500000, 12.400000, 40.500000, 84.000000, 0.014835, 0.003141, -0.713818, 1.745526, 1.056005, -0.441330, 0.000000, -0.000000, -0.000000, 0.000000, 100.000000, 200.000000, 300.000000, 400.000000, 500.000000, 600.000000
3016.400741, 24.100000, 111.500000, 0.000000, 0.000000, 145.500000, 12.400000, 40.500000, 84.000000, 0.014835, 0.003141, -0.713818, 1.745526, 1.056005, -0.441330, 0.000000, -0.000000, -0.000000, 0.000000, 100.000000, 200.000000, 300.000000, 400.000000, 500.000000, 600.000000
3016.501848, 24.100000, 111.500000, 0.000000, 0.000000, 145.500000, 12.400000, 40.500000, 84.000000, 0.014835, 0.003141, -0.713818, 1.745526, 1.056005, -0.441330, 0.000000, -0.000000, -0.000000, 0.000000, 100.000000, 200.000000, 300.000000, 400.000000, 500.000000, 600.000000
3016.601590, 24.100000, 111.500000, 0.000000, 0.000000, 145.500000, 12.400000, 40.500000, 84.000000, 0.014835, 0.003141, -0.713818, 1.745526, 1.056005, -0.441330, 0.000000, -0.000000, -0.000000, 0.000000, 100.000000, 200.000000, 300.000000, 400.000000, 500.000000, 600.000000
3016.702244, 24.100000, 111.500000, 0.000000, 0.000000, 145.500000, 12.400000, 40.500000, 84.000000, 0.014835, 0.003141, -0.713818, 1.745526, 1.056005, -0.441330, 0.000000, -0.000000, -0.000000, 0.000000, 100.000000, 200.000000, 300.000000, 400.000000, 500.000000, 600.000000
3016.802894, 24.100000, 111.500000, 0.000000, 0.000000, 145.500000, 12.400000, 40.500000, 84.000000, 0.014835, 0.003141, -0.713818, 1.745526, 1.056005, -0.441330, -0.000000, 0.000000, 0.000000, -0.000000, 100.000000, 200.000000, 300.000000, 400.000000, 500.000000, 600.000000
3016.902646, 24.100000, 111.500000, 0.000000, 0.000000, 145.500000, 12.400000, 40.500000, 84.000000, 0.014835, 0.003141, -0.713818, 1.745526, 1.056005, -0.441330, -0.000000, 0.000000, 0.000000, -0.000000, 100.000000, 200.000000, 300.000000, 400.000000, 500.000000, 600.000000
3017.003749, 24.100000, 111.500000, 0.000000, 0.000000, 145.500000, 12.400000, 40.500000, 84.000000, 0.014835, 0.003141, -0.713818, 1.745526, 1.056005, -0.441330, -0.000000, 0.000000, 0.000000, -0.000000, 100.000000, 200.000000, 300.000000, 400.000000, 500.000000, 600.000000
3017.103782, 24.100000, 111.500000, 0.000000, 0.000000, 145.500000, 12.400000, 40.500000, 84.000000, 0.014835, 0.003141, -0.713818, 1.745526, 1.056005, -0.441330, -0.000000, 0.000000, 0.000000, -0.000000, 100.000000, 200.000000, 300.000000, 400.000000, 500.000000, 600.000000
3017.204641, 24.100000, 111.500000, 0.000000, 0.000000, 145.500000, 12.400000, 40.500000, 84.000000, 0.014835, 0.003141, -0.713818, 1.745526, 1.056005, -0.441330, -0.000000, 0.000000, 0.000000, -0.000000, 100.000000, 200.000000, 300.000000, 400.000000, 500.000000, 600.000000
3017.305715, 24.100000, 111.500000, 0.000000, 0.000000, 145.500000, 12.400000, 40.500000, 84.000000, 0.014835, 0.003141, -0.713818, 1.745526, 1.056005, -0.441330, -0.000000, 0.000000, 0.000000, -0.000000, 100.000000, 200.000000, 300.000000, 400.000000, 500.000000, 600.000000
3017.406458, 24.100000, 111.500000, 0.000000, 0.000000, 145.500000, 12.400000, 40.500000, 84.000000, 0.014835, 0.003141, -0.713818, 1.745526, 1.056005, -0.441330, -0.000000, 0.000000, 0.000000, -0.000000, 100.000000, 200.000000, 300.000000, 400.000000, 500.000000, 600.000000
3017.507142, 24.100000, 111.500000, 0.000000, 0.000000, 145.500000, 12.400000, 40.500000, 84.000000, 0.014835, 0.003141, -0.713818, 1.745526, 1.056005, -0.441330, -0.000000, 0.000000, 0.000000, -0.000000, 100.000000, 200.000000, 300.000000, 400.000000, 500.000000, 600.000000
3017.608144, 24.100000, 111.500000, 0.000000, 0.000000, 145.500000, 12.400000, 40.500000, 84.000000, 0.014835, 0.003141, -0.713818, 1.745526, 1.056005, -0.441330, -0.000000, 0.000000, 0.000000, -0.000000, 100.000000, 200.000000, 300.000000, 400.000000, 500.000000, 600.000000
3017.709028, 24.100000, 111.500000, 0.000000, 0.000000, 145.500000, 12.400000, 40.500000, 84.000000, 0.014835, 0.003141, -0.713818, 1.745526, 1.056005, -0.441330, -0.000000, 0.000000, 0.000000, -0.000000, 100.000000, 200.000000, 300.000000, 400.000000, 500.000000, 600.000000
3017.809910, 24.100000, 111.500000, 0.000000, 0.000000, 145.500000, 12.400000, 40.500000, 84.000000, 0.014835, 0.003141, -0.713818, 1.745526, 1.056005, -0.441330, -0.000000, 0.000000, 0.000000, -0.000000, 100.000000, 200.000000, 300.000000, 400.000000, 500.000000, 600.000000
3017.909730, 24.100000, 111.500000, 0.000000, 0.000000, 145.500000, 12.400000, 40.500000, 84.000000, 0.014835, 0.003141, -0.713818, 1.745526, 1.056005, -0.441330, -0.000000, 0.000000, 0.000000, -0.000000, 100.000000, 200.000000, 300.000000, 400.000000, 500.000000, 600.000000
3018.009644, 24.100000, 111.500000, 0.000000, 0.000000, 145.500000, 12.400000, 40.500000, 84.000000, 0.014835, 0.003141, -0.713818, 1.745526, 1.056005, -0.441330, -0.000000, 0.000000, 0.000000, -0.000000, 100.000000, 200.000000, 300.000000, 400.000000, 500.000000, 600.000000
3018.110572, 24.100000, 111.500000, 0.000000, 0.000000, 145.500000, 12.400000, 40.500000, 84.000000, 0.014835, 0.003141, -0.713818, 1.745526, 1.056005, -0.441330, -0.000000, 0.000000, 0.000000, -0.000000, 100.000000, 200.000000, 300.000000, 400.000000, 500.000000, 600.000000
3018.211277, 24.100000, 111.500000, 0.000000, 0.000000, 145.500000, 12.400000, 40.500000, 84.000000, 0.014835, 0.003141, -0.713818, 1.745526, 1.056005, -0.441330, -0.000000, 0.000000, 0.000000, -0.000000, 100.000000, 200.000000, 300.000000, 400.000000, 500.000000, 600.000000
3018.312170, 24.100000, 111.500000, 0.000000, 0.000000, 145.500000, 12.400000, 40.500000, 84.000000, 0.014835, 0.003141, -0.713818, 1.745526, 1.056005, -0.441330, -0.000000, 0.000000, 0.000000, -0.000000, 100.000000, 200.000000, 300.000000, 400.000000, 500.000000, 600.000000
3018.413075, 24.100000, 111.500000, 0.000000, 0.000000, 145.500000, 12.400000, 40.500000, 84.000000, 0.014835, 0.003141, -0.713818, 1.745526, 1.056005, -0.441330, -0.000000, 0.000000, 0.000000, -0.000000, 100.000000, 200.000000, 300.000000, 400.000000, 500.000000, 600.000000
3018.513731, 24.100000, 111.500000, 0.000000, 0.000000, 145.500000, 12.400000, 40.500000, 84.000000, 0.014835, 0.003141, -0.713818, 1.745526, 1.056005, -0.441330, -0.000000, 0.000000, 0.000000, -0.000000, 100.000000, 200.000000, 300.000000, 400.000000, 500.000000, 600.000000
3018.613484, 24.100000, 111.500000, 0.000000, 0.000000, 145.500000, 12.400000, 40.500000, 84.000000, 0.014835, 0.003141, -0.713818, 1.745526, 1.056005, -0.441330, -0.000000, 0.000000, 0.000000, -0.000000, 100.000000, 200.000000, 300.000000, 400.000000, 500.000000, 600.000000
3018.713987, 24.100000, 111.500000, 0.000000, 0.000000, 145.500000, 12.400000, 40.500000, 84.000000, 0.014835, 0.003141, -0.713818, 1.745526, 1.056005, -0.441330, -0.000000, 0.000000, 0.000000, -0.000000, 100.000000, 200.000000, 300.000000, 400.000000, 500.000000, 600.000000
3018.814167, 24.100000, 111.500000, 0.000000, 0.000000, 145.500000, 12.400000, 40.500000, 84.000000, 0.014835, 0.003141, -0.713818, 1.745526, 1.056005, -0.441330, 0.000000, -0.000000, -0.000000, 0.000000, 100.000000, 200.000000, 300.000000, 400.000000, 500.000000, 600.000000
3018.914360, 24.100000, 111.500000, 0.000000, 0.000000, 145.500000, 12.400000, 40.500000, 84.000000, 0.014835, 0.003141, -0.713818, 1.745526, 1.056005, -0.441330, 0.000000, -0.000000, -0.000000, 0.000000, 100.000000, 200.000000, 300.000000, 400.000000, 500.000000, 600.000000
3019.015008, 24.100000, 111.500000, 0.000000, 0.000000, 145.500000, 12.400000, 40.500000, 84.000000, 0.014835, 0.003141, -0.713818, 1.745526, 1.056005, -0.441330, 0.000000, -0.000000, -0.000000, 0.000000, 100.000000, 200.000000, 300.000000, 400.000000, 500.000000, 600.000000
3019.115588, 24.100000, 111.500000, 0.000000, 0.000000, 145.500000, 12.400000, 40.500000, 84.000000, 0.014835, 0.003141, -0.713818, 1.745526, 1.056005, -0.441330, 0.000000, -0.000000, -0.000000, 0.000000, 100.000000, 200.000000, 300.000000, 400.000000, 500.000000, 600.000000
3019.216231, 24.100000, 111.500000, 0.000000, 0.000000, 145.500000, 12.400000, 40.500000, 84.000000, 0.014835, 0.003141, -0.713818, 1.745526, 1.056005, -0.441330, 0.000000, -0.000000, -0.000000, 0.000000, 100.000000, 200.000000, 300.000000, 400.000000, 500.000000, 600.000000
3019.317011, 24.100000, 111.500000, 0.000000, 0.000000, 145.500000, 12.400000, 40.500000, 84.000000, 0.014835, 0.003141, -0.713818, 1.745526, 1.056005, -0.441330, 0.000000, -0.000000, -0.000000, 0.000000, 100.000000, 200.000000, 300.000000, 400.000000, 500.000000, 600.000000
3019.417842, 24.100000, 111.500000, 0.000000, 0.000000, 145.500000, 12.400000, 40.500000, 84.000000, 0.014835, 0.003141, -0.713818, 1.745526, 1.056005, -0.441330, 0.000000, -0.000000, -0.000000, 0.000000, 100.000000, 200.000000, 300.000000, 400.000000, 500.000000, 600.000000
3019.517924, 24.100000, 111.500000, 0.000000, 0.000000, 145.500000, 12.400000, 40.500000, 84.000000, 0.014835, 0.003141, -0.713818, 1.745526, 1.056005, -0.441330, 0.000000, -0.000000, -0.000000, 0.000000, 100.000000, 200.000000, 300.000000, 400.000000, 500.000000, 600.000000
3019.619131, 24.100000, 111.500000, 0.000000, 0.000000, 145.500000, 12.400000, 40.500000, 84.000000, 0.014835, 0.003141, -0.713818, 1.745526, 1.056005, -0.441330, 0.000000, -0.000000, -0.000000, 0.000000, 100.000000, 200.000000, 300.000000, 400.000000, 500.000000, 600.000000
3019.720320, 24.100000, 111.500000, 0.000000, 0.000000, 145.500000, 12.400000, 40.500000, 84.000000, 0.014835, 0.003141, -0.713818, 1.745526, 1.056005, -0.441330, 0.000000, -0.000000, -0.000000, 0.000000, 100.000000, 200.000000, 300.000000, 400.000000, 500.000000, 600.000000
3019.821440, 24.100000, 111.500000, 0.000000, 0.000000, 145.500000, 12.400000, 40.500000, 84.000000, 0.014835, 0.003141, -0.713818, 1.745526, 1.056005, -0.441330, 0.000000, -0.000000, -0.000000, 0.000000, 100.000000, 200.000000, 300.000000, 400.000000, 500.000000, 600.000000
3019.922203, 24.100000, 111.500000, 0.000000, 0.000000, 145.500000, 12.400000, 40.500000, 84.000000, 0.014835, 0.003141, -0.713818, 1.745526, 1.056005, -0.441330, 0.000000, -0.000000, -0.000000, 0.000000, 100.000000, 200.000000, 300.000000, 400.000000, 500.000000, 600.000000
3020.022856, 24.100000, 111.500000, 0.000000, 0.000000, 145.500000, 12.400000, 40.500000, 84.000000, 0.014835, 0.003141, -0.713818, 1.745526, 1.056005, -0.441330, 0.000000, -0.000000, -0.000000, 0.000000, 100.000000, 200.000000, 300.000000, 400.000000, 500.000000, 600.000000
3020.122475, 24.100000, 111.500000, 0.000000, 0.000000, 145.500000, 12.400000, 40.500000, 84.000000, 0.014835, 0.003141, -0.713818, 1.745526, 1.056005, -0.441330, 0.000000, -0.000000, -0.000000, 0.000000, 100.000000, 200.000000, 300.000000, 400.000000, 500.000000, 600.000000
3020.223323, 24.100000, 111.500000, 0.000000, 0.000000, 145.500000, 12.400000, 40.500000, 84.000000, 0.014835, 0.003141, -0.713818, 1.745526, 1.056005, -0.441330, 0.000000, -0.000000, -0.000000, 0.000000, 100.000000, 200.000000, 300.000000, 400.000000, 500.000000, 600.000000
3020.324212, 24.100000, 111.500000, 0.000000, 0.000000, 145.500000, 12.400000, 40.500000, 84.000000, 0.014835, 0.003141, -0.713818, 1.745526, 1.056005, -0.441330, 0.000000, -0.000000, -0.000000, 0.000000, 100.000000, 200.000000, 300.000000, 400.000000, 500.000000, 600.000000
3020.424793, 24.100000, 111.500000, 0.000000, 0.000000, 145.500000, 12.400000, 40.500000, 84.000000, 0.014835, 0.003141, -0.713818, 1.745526, 1.056005, -0.441330, 0.000000, -0.000000, -0.000000, 0.000000, 100.000000, 200.000000, 300.000000, 400.000000, 500.000000, 600.000000
3020.524708, 24.100000, 111.500000, 0.000000, 0.000000, 145.500000, 12.400000, 40.500000, 84.000000, 0.014835, 0.003141, -0.713818, 1.745526, 1.056005, -0.441330, 0.000000, -0.000000, -0.000000, 0.000000, 100.000000, 200.000000, 300.000000, 400.000000, 500.000000, 600.000000
3020.624620, 24.100000, 111.500000, 0.000000, 0.000000, 145.500000, 12.400000, 40.500000, 84.000000, 0.014835, 0.003141, -0.713818, 1.745526, 1.056005, -0.441330, 0.000000, -0.000000, -0.000000, 0.000000, 100.000000, 200.000000, 300.000000, 400.000000, 500.000000, 600.000000
3020.725360, 24.100000, 111.500000, 0.000000, 0.000000, 145.500000, 12.400000, 40.500000, 84.000000, 0.014835, 0.003141, -0.713818, 1.745526, 1.056005, -0.441330, 0.000000, -0.000000, -0.000000, 0.000000, 100.000000, 200.000000, 300.000000, 400.000000, 500.000000, 600.000000
3020.826297, 24.100000, 111.500000, 0.000000, 0.000000, 145.500000, 12.400000, 40.500000, 84.000000, 0.014835, 0.003141, -0.713818, 1.745526, 1.056005, -0.441330, -0.000000, 0.000000, 0.000000, -0.000000, 100.000000, 200.000000, 300.000000, 400.000000, 500.000000, 600.000000
3020.927285, 24.100000, 111.500000, 0.000000, 0.000000, 145.500000, 12.400000, 40.500000, 84.000000, 0.014835, 0.003141, -0.713818, 1.745526, 1.056005, -0.441330, -0.000000, 0.000000, 0.000000, -0.000000, 100.000000, 200.000000, 300.000000, 400.000000, 500.000000, 600.000000
3021.028418, 24.100000, 111.500000, 0.000000, 0.000000, 145.500000, 12.400000, 40.500000, 84.000000, 0.014835, 0.003141, -0.713818, 1.745526, 1.056005, -0.441330, -0.000000, 0.000000, 0.000000, -0.000000, 100.000000, 200.000000, 300.000000, 400.000000, 500.000000, 600.000000
3021.129119, 24.100000, 111.500000, 0.000000, 0.000000, 145.500000, 12.400000, 40.500000, 84.000000, 0.014835, 0.003141, -0.713818, 1.745526, 1.056005, -0.441330, -0.000000, 0.000000, 0.000000, -0.000000, 100.000000, 200.000000, 300.000000, 400.000000, 500.000000, 600.000000
3021.229944, 24.100000, 111.500000, 0.000000, 0.000000, 145.500000, 12.400000, 40.500000, 84.000000, 0.014835, 0.003141, -0.713818, 1.745526, 1.056005, -0.441330, -0.000000, 0.000000, 0.000000, -0.000000, 100.000000, 200.000000, 300.000000, 400.000000, 500.000000, 600.000000
3021.331015, 24.100000, 111.500000, 0.000000, 0.000000, 145.500000, 12.400000, 40.500000, 84.000000, 0.014835, 0.003141, -0.713818, 1.745526, 1.056005, -0.441330, -0.000000, 0.000000, 0.000000, -0.000000, 100.000000, 200.000000, 300.000000, 400.000000, 500.000000, 600.000000
3021.432110, 24.100000, 111.500000, 0.000000, 0.000000, 145.500000, 12.400000, 40.500000, 84.000000, 0.014835, 0.003141, -0.713818, 1.745526, 1.056005, -0.441330, -0.000000, 0.000000, 0.000000, -0.000000, 100.000000, 200.000000, 300.000000, 400.000000, 500.000000, 600.000000
3021.532769, 24.100000, 111.500000, 0.000000, 0.000000, 145.500000, 12.400000, 40.500000, 84.000000, 0.014835, 0.003141, -0.713818, 1.745526, 1.056005, -0.441330, -0.000000, 0.000000, 0.000000, -0.000000, 100.000000, 200.000000, 300.000000, 400.000000, 500.000000, 600.000000
3021.632615, 24.100000, 111.500000, 0.000000, 0.000000, 145.500000, 12.400000, 40.500000, 84.000000, 0.014835, 0.003141, -0.713818, 1.745526, 1.056005, -0.441330, -0.000000, 0.000000, 0.000000, -0.000000, 100.000000, 200.000000, 300.000000, 400.000000, 500.000000, 600.000000
3021.733408, 24.100000, 111.500000, 0.000000, 0.000000, 145.500000, 12.400000, 40.500000, 84.000000, 0.014835, 0.003141, -0.713818, 1.745526, 1.056005, -0.441330, -0.000000, 0.000000, 0.000000, -0.000000, 100.000000, 200.000000, 300.000000, 400.000000, 500.000000, 600.000000
3021.834042, 24.100000, 111.500000, 0.000000, 0.000000, 145.500000, 12.400000, 40.500000, 84.000000, 0.014835, 0.003141, -0.713818, 1.745526, 1.056005, -0.441330, -0.000000, 0.000000, 0.000000, -0.000000, 100.000000, 200.000000, 300.000000, 400.000000, 500.000000, 600.000000
3021.934750, 24.100000, 111.500000, 0.000000, 0.000000, 145.500000, 12.400000, 40.500000, 84.000000, 0.014835, 0.003141, -0.713818, 1.745526, 1.056005, -0.441330, -0.000000, 0.000000, 0.000000, -0.000000, 100.000000, 200.000000, 300.000000, 400.000000, 500.000000, 600.000000
3022.034390, 24.100000, 111.500000, 0.000000, 0.000000, 145.500000, 12.400000, 40.500000, 84.000000, 0.014835, 0.003141, -0.713818, 1.745526, 1.056005, -0.441330, -0.000000, 0.000000, 0.000000, -0.000000, 100.000000, 200.000000, 300.000000, 400.000000, 500.000000, 600.000000
3022.134619, 24.100000, 111.500000, 0.000000, 0.000000, 145.500000, 12.400000, 40.500000, 84.000000, 0.014835, 0.003141, -0.713818, 1.745526, 1.056005, -0.441330, -0.000000, 0.000000, 0.000000, -0.000000, 100.000000, 200.000000, 300.000000, 400.000000, 500.000000, 600.000000
3022.235367, 24.100000, 111.500000, 0.000000, 0.000000, 145.500000, 12.400000, 40.500000, 84.000000, 0.014835, 0.003141, -0.713818, 1.745526, 1.056005, -0.441330, -0.000000, 0.000000, 0.000000, -0.000000, 100.000000, 200.000000, 300.000000, 400.000000, 500.000000, 600.000000
3022.336136, 24.100000, 111.500000, 0.000000, 0.000000, 145.500000, 12.400000, 40.500000, 84.000000, 0.014835, 0.003141, -0.713818, 1.745526, 1.056005, -0.441330, -0.000000, 0.000000, 0.000000, -0.000000, 100.000000, 200.000000, 300.000000, 400.000000, 500.000000, 600.000000
3022.437052, 24.100000, 111.500000, 0.000000, 0.000000, 145.500000, 12.400000, 40.500000, 84.000000, 0.014835, 0.003141, -0.713818, 1.745526, 1.056005, -0.441330, -0.000000, 0.000000, 0.000000, -0.000000, 100.000000, 200.000000, 300.000000, 400.000000, 500.000000, 600.000000
3022.537819, 24.100000, 111.500000, 0.000000, 0.000000, 145.500000, 12.400000, 40.500000, 84.000000, 0.014835, 0.003141, -0.713818, 1.745526, 1.056005, -0.441330, -0.000000, 0.000000, 0.000000, -0.000000, 100.000000, 200.000000, 300.000000, 400.000000, 500.000000, 600.000000
3022.637370, 24.100000, 111.500000, 0.000000, 0.000000, 145.500000, 12.400000, 40.500000, 84.000000, 0.014835, 0.003141, -0.713818, 1.745526, 1.056005, -0.441330, -0.000000, 0.000000, 0.000000, -0.000000, 100.000000, 200.000000, 300.000000, 400.000000, 500.000000, 600.000000
3022.738113, 24.100000, 111.500000, 0.000000, 0.000000, 145.500000, 12.400000, 40.500000, 84.000000, 0.014835, 0.003141, -0.713818, 1.745526, 1.056005, -0.441330, -0.000000, 0.000000, 0.000000, -0.000000, 100.000000, 200.000000, 300.000000, 400.000000, 500.000000, 600.000000
3022.839283, 24.100000, 111.500000, 0.000000, 0.000000, 145.500000, 12.400000, 40.500000, 84.000000, 0.014835, 0.003141, -0.713818, 1.745526, 1.056005, -0.441330, 0.000000, -0.000000, -0.000000, 0.000000, 100.000000, 200.000000, 300.000000, 400.000000, 500.000000, 600.000000
3022.940426, 24.100000, 111.500000, 0.000000, 0.000000, 145.500000, 12.400000, 40.500000, 84.000000, 0.014835, 0.003141, -0.713818, 1.745526, 1.056005, -0.441330, 0.000000, -0.000000, -0.000000, 0.000000, 100.000000, 200.000000, 300.000000, 400.000000, 500.000000, 600.000000
3023.041157, 24.100000, 111.500000, 0.000000, 0.000000, 145.500000, 12.400000, 40.500000, 84.000000, 0.014835, 0.003141, -0.713818, 1.745526, 1.056005, -0.441330, 0.000000, -0.000000, -0.000000, 0.000000, 100.000000, 200.000000, 300.000000, 400.000000, 500.000000, 600.000000
3023.141814, 24.100000, 111.500000, 0.000000, 0.000000, 145.500000, 12.400000, 40.500000, 84.000000, 0.014835, 0.003141, -0.713818, 1.745526, 1.056005, -0.441330, 0.000000, -0.000000, -0.000000, 0.000000, 100.000000, 200.000000, 300.000000, 400.000000, 500.000000, 600.000000
3023.241408, 24.100000, 111.500000, 0.000000, 0.000000, 145.500000, 12.400000, 40.500000, 84.000000, 0.014835, 0.003141, -0.713818, 1.745526, 1.056005, -0.441330, 0.000000, -0.000000, -0.000000, 0.000000, 100.000000, 200.000000, 300.000000, 400.000000, 500.000000, 600.000000
3023.341989, 24.100000, 111.500000, 0.000000, 0.000000, 145.500000, 12.400000, 40.500000, 84.000000, 0.014835, 0.003141, -0.713818, 1.745526, 1.056005, -0.441330, 0.000000, -0.000000, -0.000000, 0.000000, 100.000000, 200.000000, 300.000000, 400.000000, 500.000000, 600.000000
3023.442646, 24.100000, 111.500000, 0.000000, 0.000000, 145.500000, 12.400000, 40.500000, 84.000000, 0.014835, 0.003141, -0.713818, 1.745526, 1.056005, -0.441330, 0.000000, -0.000000, -0.000000, 0.000000, 100.000000, 200.000000, 300.000000, 400.000000, 500.000000, 600.000000
3023.543557, 24.100000, 111.500000, 0.000000, 0.000000, 145.500000, 12.400000, 40.500000, 84.000000, 0.014835, 0.003141, -0.713818, 1.745526, 1.056005, -0.441330, 0.000000, -0.000000, -0.000000, 0.000000, 100.000000, 200.000000, 300.000000, 400.000000, 500.000000, 600.000000
3023.644647, 24.100000, 111.500000, 0.000000, 0.000000, 145.500000, 12.400000, 40.500000, 84.000000, 0.014835, 0.003141, -0.713818, 1.745526, 1.056005, -0.441330, 0.000000, -0.000000, -0.000000, 0.000000, 100.000000, 200.000000, 300.000000, 400.000000, 500.000000, 600.000000
3023.745764, 24.100000, 111.500000, 0.000000, 0.000000, 145.500000, 12.400000, 40.500000, 84.000000, 0.014835, 0.003141, -0.713818, 1.745526, 1.056005, -0.441330, 0.000000, -0.000000, -0.000000, 0.000000, 100.000000, 200.000000, 300.000000, 400.000000, 500.000000, 600.000000
3023.845697, 24.100000, 111.500000, 0.000000, 0.000000, 145.500000, 12.400000, 40.500000, 84.000000, 0.014835, 0.003141, -0.713818, 1.745526, 1.056005, -0.441330, 0.000000, -0.000000, -0.000000, 0.000000, 100.000000, 200.000000, 300.000000, 400.000000, 500.000000, 600.000000
3023.946577, 24.100000, 111.500000, 0.000000, 0.000000, 145.500000, 12.400000, 40.500000, 84.000000, 0.014835, 0.003141, -0.713818, 1.745526, 1.056005, -0.441330, 0.000000, -0.000000, -0.000000, 0.000000, 100.000000, 200.000000, 300.000000, 400.000000, 500.000000, 600.000000
3024.047343, 24.100000, 111.500000, 0.000000, 0.000000, 145.500000, 12.400000, 40.500000, 84.000000, 0.014835, 0.003141, -0.713818, 1.745526, 1.056005, -0.441330, 0.000000, -0.000000, -0.000000, 0.000000, 100.000000, 200.000000, 300.000000, 400.000000, 500.000000, 600.000000
3024.148446, 24.100000, 111.500000, 0.000000, 0.000000, 145.500000, 12.400000, 40.500000, 84.000000, 0.014835, 0.003141, -0.713818, 1.745526, 1.056005, -0.441330, 0.000000, -0.000000, -0.000000, 0.000000, 100.000000, 200.000000, 300.000000, 400.000000, 500.000000, 600.000000
3024.249295, 24.100000, 111.500000, 0.000000, 0.000000, 145.500000, 12.400000, 40.500000, 84.000000, 0.014835, 0.003141, -0.713818, 1.745526, 1.056005, -0.441330, 0.000000, -0.000000, -0.000000, 0.000000, 100.000000, 200.000000, 300.000000, 400.000000, 500.000000, 600.000000
3024.350154, 24.100000, 111.500000, 0.000000, 0.000000, 145.500000, 12.400000, 40.500000, 84.000000, 0.014835, 0.003141, -0.713818, 1.745526, 1.056005, -0.441330, 0.000000, -0.000000, -0.000000, 0.000000, 100.000000, 200.000000, 300.000000, 400.000000, 500.000000, 600.000000
3024.451007, 24.100000, 111.500000, 0.000000, 0.000000, 145.500000, 12.400000, 40.500000, 84.000000, 0.014835, 0.003141, -0.713818, 1.745526, 1.056005, -0.441330, 0.000000, -0.000000, -0.000000, 0.000000, 100.000000, 200.000000, 300.000000, 400.000000, 500.000000, 600.000000
3024.551629, 24.100000, 111.500000, 0.000000, 0.000000, 145.500000, 12.400000, 40.500000, 84.000000, 0.014835, 0.003141, -0.713818, 1.745526, 1.056005, -0.441330, 0.000000, -0.000000, -0.000000, 0.000000, 100.000000, 200.000000, 300.000000, 400.000000, 500.000000, 600.000000
3024.652216, 24.100000, 111.500000, 0.000000, 0.000000, 145.500000, 12.400000, 40.500000, 84.000000, 0.014835, 0.003141, -0.713818, 1.745526, 1.056005, -0.441330, 0.000000, -0.000000, -0.000000, 0.000000, 100.000000, 200.000000, 300.000000, 400.000000, 500.000000, 600.000000
3024.752782, 24.100000, 111.500000, 0.000000, 0.000000, 145.500000, 12.400000, 40.500000, 84.000000, 0.014835, 0.003141, -0.713818, 1.745526, 1.056005, -0.441330, 0.000000, -0.000000, -0.000000, 0.000000, 100.000000, 200.000000, 300.000000, 400.000000, 500.000000, 600.000000
3024.852472, 24.100000, 111.500000, 0.000000, 0.000000, 145.500000, 12.400000, 40.500000, 84.000000, 0.014835, 0.003141, -0.713818, 1.745526, 1.056005, -0.441330, -0.000000, 0.000000, 0.000000, -0.000000, 100.000000, 200.000000, 300.000000, 400.000000, 500.000000, 600.000000
3024.953146, 24.100000, 111.500000, 0.000000, 0.000000, 145.500000, 12.400000, 40.500000, 84.000000, 0.014835, 0.003141, -0.713818, 1.745526, 1.056005, -0.441330, -0.000000, 0.000000, 0.000000, -0.000000, 100.000000, 200.000000, 300.000000, 400.000000, 500.000000, 600.000000
3025.053941, 24.100000, 111.500000, 0.000000, 0.000000, 145.500000, 12.400000, 40.500000, 84.000000, 0.014835, 0.003141, -0.713818, 1.745526, 1.056005, -0.441330, -0.000000, 0.000000, 0.000000, -0.000000, 100.000000, 200.000000, 300.000000, 400.000000, 500.000000, 600.000000
3025.154543, 24.100000, 111.500000, 0.000000, 0.000000, 145.500000, 12.400000, 40.500000, 84.000000, 0.014835, 0.003141, -0.713818, 1.745526, 1.056005, -0.441330, -0.000000, 0.000000, 0.000000, -0.000000, 100.000000, 200.000000, 300.000000, 400.000000, 500.000000, 600.000000
3025.255176, 24.100000, 111.500000, 0.000000, 0.000000, 145.500000, 12.400000, 40.500000, 84.000000, 0.014835, 0.003141, -0.713818, 1.745526, 1.056005, -0.441330, -0.000000, 0.000000, 0.000000, -0.000000, 100.000000, 200.000000, 300.000000, 400.000000, 500.000000, 600.000000
3025.355766, 24.100000, 111.500000, 0.000000, 0.000000, 145.500000, 12.400000, 40.500000, 84.000000, 0.014835, 0.003141, -0.713818, 1.745526, 1.056005, -0.441330, -0.000000, 0.000000, 0.000000, -0.000000, 100.000000, 200.000000, 300.000000, 400.000000, 500.000000, 600.000000
3025.454988, 24.100000, 111.500000, 0.000000, 0.000000, 145.500000, 12.400000, 40.500000, 84.000000, 0.014835, 0.003141, -0.713818, 1.745526, 1.056005, -0.441330, -0.000000, 0.000000, 0.000000, -0.000000, 100.000000, 200.000000, 300.000000, 400.000000, 500.000000, 600.000000
3025.555235, 24.100000, 111.500000, 0.000000, 0.000000, 145.500000, 12.400000, 40.500000, 84.000000, 0.014835, 0.003141, -0.713818, 1.745526, 1.056005, -0.441330, -0.000000, 0.000000, 0.000000, -0.000000, 100.000000, 200.000000, 300.000000, 400.000000, 500.000000, 600.000000
3025.655852, 24.100000, 111.500000, 0.000000, 0.000000, 145.500000, 12.400000, 40.500000, 84.000000, 0.014835, 0.003141, -0.713818, 1.745526, 1.056005, -0.441330, -0.000000, 0.000000, 0.000000, -0.000000, 100.000000, 200.000000, 300.000000, 400.000000, 500.000000, 600.000000
3025.755401, 24.100000, 111.500000, 0.000000, 0.000000, 145.500000, 12.400000, 40.500000, 84.000000, 0.014835, 0.003141, -0.713818, 1.745526, 1.056005, -0.441330, -0.000000, 0.000000, 0.000000, -0.000000, 100.000000, 200.000000, 300.000000, 400.000000, 500.000000, 600.000000
3025.856100, 24.100000, 111.500000, 0.000000, 0.000000, 145.500000, 12.400000, 40.500000, 84.000000, 0.014835, 0.003141, -0.713818, 1.745526, 1.056005, -0.441330, -0.000000, 0.000000, 0.000000, -0.000000, 100.000000, 200.000000, 300.000000, 400.000000, 500.000000, 600.000000
3025.956663, 24.100000, 111.500000, 0.000000, 0.000000, 145.500000, 12.400000, 40.500000, 84.000000, 0.014835, 0.003141, -0.713818, 1.745526, 1.056005, -0.441330, -0.000000, 0.000000, 0.000000, -0.000000, 100.000000, 200.000000, 300.000000, 400.000000, 500.000000, 600.000000
3026.056475, 24.100000, 111.500000, 0.000000, 0.000000, 145.500000, 12.400000, 40.500000, 84.000000, 0.014835, 0.003141, -0.713818, 1.745526, 1.056005, -0.441330, -0.000000, 0.000000, 0.000000, -0.000000, 100.000000, 200.000000, 300.000000, 400.000000, 500.000000, 600.000000
3026.157444, 24.100000, 111.500000, 0.000000, 0.000000, 145.500000, 12.400000, 40.500000, 84.000000, 0.014835, 0.003141, -0.713818, 1.745526, 1.056005, -0.441330, -0.000000, 0.000000, 0.000000, -0.000000, 100.000000, 200.000000, 300.000000, 400.000000, 500.000000, 600.000000
3026.258322, 24.100000, 111.500000, 0.000000, 0.000000, 145.500000, 12.400000, 40.500000, 84.000000, 0.014835, 0.003141, -0.713818, 1.745526, 1.056005, -0.441330, -0.000000, 0.000000, 0.000000, -0.000000, 100.000000, 200.000000, 300.000000, 400.000000, 500.000000, 600.000000
3026.358984, 24.100000, 111.500000, 0.000000, 0.000000, 145.500000, 12.400000, 40.500000, 84.000000, 0.014835, 0.003141, -0.713818, 1.745526, 1.056005, -0.441330, -0.000000, 0.000000, 0.000000, -0.000000, 100.000000, 200.000000, 300.000000, 400.000000, 500.000000, 600.000000
3026.459971, 24.100000, 111.500000, 0.000000, 0.000000, 145.500000, 12.400000, 40.500000, 84.000000, 0.014835, 0.003141, -0.713818, 1.745526, 1.056005, -0.441330, -0.000000, 0.000000, 0.000000, -0.000000, 100.000000, 200.000000, 300.000000, 400.000000, 500.000000, 600.000000
3026.560808, 24.100000, 111.500000, 0.000000, 0.000000, 145.500000, 12.400000, 40.500000, 84.000000, 0.014835, 0.003141, -0.713818, 1.745526, 1.056005, -0.441330, -0.000000, 0.000000, 0.000000, -0.000000, 100.000000, 200.000000, 300.000000, 400.000000, 500.000000, 600.000000
3026.660777, 24.100000, 111.500000, 0.000000, 0.000000, 145.500000, 12.400000, 40.500000, 84.000000, 0.014835, 0.003141, -0.713818, 1.745526, 1.056005, -0.441330, -0.000000, 0.000000, 0.000000, -0.000000, 100.000000, 200.000000, 300.000000, 400.000000, 500.000000, 600.000000
3026.760574, 24.100000, 111.500000, 0.000000, 0.000000, 145.500000, 12.400000, 40.500000, 84.000000, 0.014835, 0.003141, -0.713818, 1.745526, 1.056005, -0.441330, -0.000000, 0.000000, 0.000000, -0.000000, 100.000000, 200.000000, 300.000000, 400.000000, 500.000000, 600.000000
3026.861220, 24.100000, 111.500000, 0.000000, 0.000000, 145.500000, 12.400000, 40.500000, 84.000000, 0.014835, 0.003141, -0.713818, 1.745526, 1.056005, -0.441330, 0.000000, -0.000000, -0.000000, 0.000000, 100.000000, 200.000000, 300.000000, 400.000000, 500.000000, 600.000000
3026.962182, 24.100000, 111.500000, 0.000000, 0.000000, 145.500000, 12.400000, 40.500000, 84.000000, 0.014835, 0.003141, -0.713818, 1.745526, 1.056005, -0.441330, 0.000000, -0.000000, -0.000000, 0.000000, 100.000000, 200.000000, 300.000000, 400.000000, 500.000000, 600.000000
3027.063005, 24.100000, 111.500000, 0.000000, 0.000000, 145.500000, 12.400000, 40.500000, 84.000000, 0.014835, 0.003141, -0.713818, 1.745526, 1.056005, -0.441330, 0.000000, -0.000000, -0.000000, 0.000000, 100.000000, 200.000000, 300.000000, 400.000000, 500.000000, 600.000000
3027.163688, 24.100000, 111.500000, 0.000000, 0.000000, 145.500000, 12.400000, 40.500000, 84.000000, 0.014835, 0.003141, -0.713818, 1.745526, 1.056005, -0.441330, 0.000000, -0.000000, -0.000000, 0.000000, 100.000000, 200.000000, 300.000000, 400.000000, 500.000000, 600.000000
3027.263688, 24.100000, 111.500000, 0.000000, 0.000000, 145.500000, 12.400000, 40.500000, 84.000000, 0.014835, 0.003141, -0.713818, 1.745526, 1.056005, -0.441330, 0.000000, -0.000000, -0.000000, 0.000000, 100.000000, 200.000000, 300.000000, 400.000000, 500.000000, 600.000000
3027.364402, 24.100000, 111.500000, 0.000000, 0.000000, 145.500000, 12.400000, 40.500000, 84.000000, 0.014835, 0.003141, -0.713818, 1.745526, 1.056005, -0.441330, 0.000000, -0.000000, -0.000000, 0.000000, 100.000000, 200.000000, 300.000000, 400.000000, 500.000000, 600.000000
3027.465047, 24.100000, 111.500000, 0.000000, 0.000000, 145.500000, 12.400000, 40.500000, 84.000000, 0.014835, 0.003141, -0.713818, 1.745526, 1.056005, -0.441330, 0.000000, -0.000000, -0.000000, 0.000000, 100.000000, 200.000000, 300.000000, 400.000000, 500.000000, 600.000000
3027.565710, 24.100000, 111.500000, 0.000000, 0.000000, 145.500000, 12.400000, 40.500000, 84.000000, 0.014835, 0.003141, -0.713818, 1.745526, 1.056005, -0.441330, 0.000000, -0.000000, -0.000000, 0.000000, 100.000000, 200.000000, 300.000000, 400.000000, 500.000000, 600.000000
3027.666186, 24.100000, 111.500000, 0.000000, 0.000000, 145.500000, 12.400000, 40.500000, 84.000000, 0.014835, 0.003141, -0.713818, 1.745526, 1.056005, -0.441330, 0.000000, -0.000000, -0.000000, 0.000000, 100.000000, 200.000000, 300.000000, 400.000000, 500.000000, 600.000000
3027.766650, 24.100000, 111.500000, 0.000000, 0.000000, 145.500000, 12.400000, 40.500000, 84.000000, 0.014835, 0.003141, -0.713818, 1.745526, 1.056005, -0.441330, 0.000000, -0.000000, -0.000000, 0.000000, 100.000000, 200.000000, 300.000000, 400.000000, 500.000000, 600.000000
3027.867492, 24.100000, 111.500000, 0.000000, 0.000000, 145.500000, 12.400000, 40.500000, 84.000000, 0.014835, 0.003141, -0.713818, 1.745526, 1.056005, -0.441330, 0.000000, -0.000000, -0.000000, 0.000000, 100.000000, 200.000000, 300.000000, 400.000000, 500.000000, 600.000000
3027.967979, 24.100000, 111.500000, 0.000000, 0.000000, 145.500000, 12.400000, 40.500000, 84.000000, 0.014835, 0.003141, -0.713818, 1.745526, 1.056005, -0.441330, 0.000000, -0.000000, -0.000000, 0.000000, 100.000000, 200.000000, 300.000000, 400.000000, 500.000000, 600.000000
3028.068802, 24.100000, 111.500000, 0.000000, 0.000000, 145.500000, 12.400000, 40.500000, 84.000000, 0.014835, 0.003141, -0.713818, 1.745526, 1.056005, -0.441330, 0.000000, -0.000000, -0.000000, 0.000000, 100.000000, 200.000000, 300.000000, 400.000000, 500.000000, 600.000000
3028.168680, 24.100000, 111.500000, 0.000000, 0.000000, 145.500000, 12.400000, 40.500000, 84.000000, 0.014835, 0.003141, -0.713818, 1.745526, 1.056005, -0.441330, 0.000000, -0.000000, -0.000000, 0.000000, 100.000000, 200.000000, 300.000000, 400.000000, 500.000000, 600.000000
3028.269621, 24.100000, 111.500000, 0.000000, 0.000000, 145.500000, 12.400000, 40.500000, 84.000000, 0.014835, 0.003141, -0.713818, 1.745526, 1.056005, -0.441330, 0.000000, -0.000000, -0.000000, 0.000000, 100.000000, 200.000000, 300.000000, 400.000000, 500.000000, 600.000000
3028.370402, 24.100000, 111.500000, 0.000000, 0.000000, 145.500000, 12.400000, 40.500000, 84.000000, 0.014835, 0.003141, -0.713818, 1.745526, 1.056005, -0.441330, 0.000000, -0.000000, -0.000000, 0.000000, 100.000000, 200.000000, 300.000000, 400.000000, 500.000000, 600.000000
3028.471498, 24.100000, 111.500000, 0.000000, 0.000000, 145.500000, 12.400000, 40.500000, 84.000000, 0.014835, 0.003141, -0.713818, 1.745526, 1.056005, -0.441330, 0.000000, -0.000000, -0.000000, 0.000000, 100.000000, 200.000000, 300.000000, 400.000000, 500.000000, 600.000000
3028.572234, 24.100000, 111.500000, 0.000000, 0.000000, 145.500000, 12.400000, 40.500000, 84.000000, 0.014835, 0.003141, -0.713818, 1.745526, 1.056005, -0.441330, 0.000000, -0.000000, -0.000000, 0.000000, 100.000000, 200.000000, 300.000000, 400.000000, 500.000000, 600.000000
3028.672870, 24.100000, 111.500000, 0.000000, 0.000000, 145.500000, 12.400000, 40.500000, 84.000000, 0.014835, 0.003141, -0.713818, 1.745526, 1.056005, -0.441330, 0.000000, -0.000000, -0.000000, 0.000000, 100.000000, 200.000000, 300.000000, 400.000000, 500.000000, 600.000000
3028.772702, 24.100000, 111.500000, 0.000000, 0.000000, 145.500000, 12.400000, 40.500000, 84.000000, 0.014835, 0.003141, -0.713818, 1.745526, 1.056005, -0.441330, 0.000000, -0.000000, -0.000000, 0.000000, 100.000000, 200.000000, 300.000000, 400.000000, 500.000000, 600.000000
3028.873673, 24.100000, 111.500000, 0.000000, 0.000000, 145.500000, 12.400000, 40.500000, 84.000000, 0.014835, 0.003141, -0.713818, 1.745526, 1.056005, -0.441330, -0.000000, 0.000000, 0.000000, -0.000000, 100.000000, 200.000000, 300.000000, 400.000000, 500.000000, 600.000000
3028.974375, 24.100000, 111.500000, 0.000000, 0.000000, 145.500000, 12.400000, 40.500000, 84.000000, 0.014835, 0.003141, -0.713818, 1.745526, 1.056005, -0.441330, -0.000000, 0.000000, 0.000000, -0.000000, 100.000000, 200.000000, 300.000000, 400.000000, 500.000000, 600.000000
3029.075125, 24.100000, 111.500000, 0.000000, 0.000000, 145.500000, 12.400000, 40.500000, 84.000000, 0.014835, 0.003141, -0.713818, 1.745526, 1.056005, -0.441330, -0.000000, 0.000000, 0.000000, -0.000000, 100.000000, 200.000000, 300.000000, 400.000000, 500.000000, 600.000000
3029.175968, 24.100000, 111.500000, 0.000000, 0.000000, 145.500000, 12.400000, 40.500000, 84.000000, 0.014835, 0.003141, -0.713818, 1.745526, 1.056005, -0.441330, -0.000000, 0.000000, 0.000000, -0.000000, 100.000000, 200.000000, 300.000000, 400.000000, 500.000000, 600.000000
3029.276818, 24.100000, 111.500000, 0.000000, 0.000000, 145.500000, 12.400000, 40.500000, 84.000000, 0.014835, 0.003141, -0.713818, 1.745526, 1.056005, -0.441330, -0.000000, 0.000000, 0.000000, -0.000000, 100.000000, 200.000000, 300.000000, 400.000000, 500.000000, 600.000000
3029.377577, 24.100000, 111.500000, 0.000000, 0.000000, 145.500000, 12.400000, 40.500000, 84.000000, 0.014835, 0.003141, -0.713818, 1.745526, 1.056005, -0.441330, -0.000000, 0.000000, 0.000000, -0.000000, 100.000000, 200.000000, 300.000000, 400.000000, 500.000000, 600.000000
3029.478287, 24.100000, 111.500000, 0.000000, 0.000000, 145.500000, 12.400000, 40.500000, 84.000000, 0.014835, 0.003141, -0.713818, 1.745526, 1.056005, -0.441330, -0.000000, 0.000000, 0.000000, -0.000000, 100.000000, 200.000000, 300.000000, 400.000000, 500.000000, 600.000000
3029.579300, 24.100000, 111.500000, 0.000000, 0.000000, 145.500000, 12.400000, 40.500000, 84.000000, 0.014835, 0.003141, -0.713818, 1.745526, 1.056005, -0.441330, -0.000000, 0.000000, 0.000000, -0.000000, 100.000000, 200.000000, 300.000000, 400.000000, 500.000000, 600.000000
3029.680086, 24.100000, 111.500000, 0.000000, 0.000000, 145.500000, 12.400000, 40.500000, 84.000000, 0.014835, 0.003141, -0.713818, 1.745526, 1.056005, -0.441330, -0.000000, 0.000000, 0.000000, -0.000000, 100.000000, 200.000000, 300.000000, 400.000000, 500.000000, 600.000000
3029.780845, 24.100000, 111.500000, 0.000000, 0.000000, 145.500000, 12.400000, 40.500000, 84.000000, 0.014835, 0.003141, -0.713818, 1.745526, 1.056005, -0.441330, -0.000000, 0.000000, 0.000000, -0.000000, 100.000000, 200.000000, 300.000000, 400.000000, 500.000000, 600.000000
3029.880718, 24.100000, 111.500000, 0.000000, 0.000000, 145.500000, 12.400000, 40.500000, 84.000000, 0.014835, 0.003141, -0.713818, 1.745526, 1.056005, -0.441330, -0.000000, 0.000000, 0.000000, -0.000000, 100.000000, 200.000000, 300.000000, 400.000000, 500.000000, 600.000000
3029.981570, 24.100000, 111.500000, 0.000000, 0.000000, 145.500000, 12.400000, 40.500000, 84.000000, 0.014835, 0.003141, -0.713818, 1.745526, 1.056005, -0.441330, -0.000000, 0.000000, 0.000000, -0.000000, 100.000000, 200.000000, 300.000000, 400.000000, 500.000000, 600.000000
3030.082127, 24.100000, 111.500000, 0.000000, 0.000000, 145.500000, 12.400000, 40.500000, 84.000000, 0.014835, 0.003141, -0.713818, 1.745526, 1.056005, -0.441330, -0.000000, 0.000000, 0.000000, -0.000000, 100.000000, 200.000000, 300.000000, 400.000000, 500.000000, 600.000000
3030.182851, 24.100000, 111.500000, 0.000000, 0.000000, 145.500000, 12.400000, 40.500000, 84.000000, 0.014835, 0.003141, -0.713818, 1.745526, 1.056005, -0.441330, -0.000000, 0.000000, 0.000000, -0.000000, 100.000000, 200.000000, 300.000000, 400.000000, 500.000000, 600.000000
3030.282414, 24.100000, 111.500000, 0.000000, 0.000000, 145.500000, 12.400000, 40.500000, 84.000000, 0.014835, 0.003141, -0.713818, 1.745526, 1.056005, -0.441330, -0.000000, 0.000000, 0.000000, -0.000000, 100.000000, 200.000000, 300.000000, 400.000000, 500.000000, 600.000000
3030.383116, 24.100000, 111.500000, 0.000000, 0.000000, 145.500000, 12.400000, 40.500000, 84.000000, 0.014835, 0.003141, -0.713818, 1.745526, 1.056005, -0.441330, -0.000000, 0.000000, 0.000000, -0.000000, 100.000000, 200.000000, 300.000000, 400.000000, 500.000000, 600.000000
3030.483686, 24.100000, 111.500000, 0.000000, 0.000000, 145.500000, 12.400000, 40.500000, 84.000000, 0.014835, 0.003141, -0.713818, 1.745526, 1.056005, -0.441330, -0.000000, 0.000000, 0.000000, -0.000000, 100.000000, 200.000000, 300.000000, 400.000000, 500.000000, 600.000000
3030.583052, 24.100000, 111.500000, 0.000000, 0.000000, 145.500000, 12.400000, 40.500000, 84.000000, 0.014835, 0.003141, -0.713818, 1.745526, 1.056005, -0.441330, -0.000000, 0.000000, 0.000000, -0.000000, 100.000000, 200.000000, 300.000000, 400.000000, 500.000000, 600.000000
3030.683278, 24.100000, 111.500000, 0.000000, 0.000000, 145.500000, 12.400000, 40.500000, 84.000000, 0.014835, 0.003141, -0.713818, 1.745526, 1.056005, -0.441330, -0.000000, 0.000000, 0.000000, -0.000000, 100.000000, 200.000000, 300.000000, 400.000000, 500.000000, 600.000000
3030.783932, 24.100000, 111.500000, 0.000000, 0.000000, 145.500000, 12.400000, 40.500000, 84.000000, 0.014835, 0.003141, -0.713818, 1.745526, 1.056005, -0.441330, -0.000000, 0.000000, 0.000000, -0.000000, 100.000000, 200.000000, 300.000000, 400.000000, 500.000000, 600.000000
3030.884527, 24.100000, 111.500000, 0.000000, 0.000000, 145.500000, 12.400000, 40.500000, 84.000000, 0.014835, 0.003141, -0.713818, 1.745526, 1.056005, -0.441330, 0.000000, -0.000000, -0.000000, 0.000000, 100.000000, 200.000000, 300.000000, 400.000000, 500.000000, 600.000000
3030.985278, 24.100000, 111.500000, 0.000000, 0.000000, 145.500000, 12.400000, 40.500000, 84.000000, 0.014835, 0.003141, -0.713818, 1.745526, 1.056005, -0.441330, 0.000000, -0.000000, -0.000000, 0.000000, 100.000000, 200.000000, 300.000000, 400.000000, 500.000000, 600.000000
3031.086516, 24.100000, 111.500000, 0.000000, 0.000000, 145.500000, 12.400000, 40.500000, 84.000000, 0.014835, 0.003141, -0.713818, 1.745526, 1.056005, -0.441330, 0.000000, -0.000000, -0.000000, 0.000000, 100.000000, 200.000000, 300.000000, 400.000000, 500.000000, 600.000000
3031.187472, 24.100000, 111.500000, 0.000000, 0.000000, 145.500000, 12.400000, 40.500000, 84.000000, 0.014835, 0.003141, -0.713818, 1.745526, 1.056005, -0.441330, 0.000000, -0.000000, -0.000000, 0.000000, 100.000000, 200.000000, 300.000000, 400.000000, 500.000000, 600.000000
3031.288121, 24.100000, 111.500000, 0.000000, 0.000000, 145.500000, 12.400000, 40.500000, 84.000000, 0.014835, 0.003141, -0.713818, 1.745526, 1.056005, -0.441330, 0.000000, -0.000000, -0.000000, 0.000000, 100.000000, 200.000000, 300.000000, 400.000000, 500.000000, 600.000000
3031.389052, 24.100000, 111.500000, 0.000000, 0.000000, 145.500000, 12.400000, 40.500000, 84.000000, 0.014835, 0.003141, -0.713818, 1.745526, 1.056005, -0.441330, 0.000000, -0.000000, -0.000000, 0.000000, 100.000000, 200.000000, 300.000000, 400.000000, 500.000000, 600.000000
3031.489875, 24.100000, 111.500000, 0.000000, 0.000000, 145.500000, 12.400000, 40.500000, 84.000000, 0.014835, 0.003141, -0.713818, 1.745526, 1.056005, -0.441330, 0.000000, -0.000000, -0.000000, 0.000000, 100.000000, 200.000000, 300.000000, 400.000000, 500.000000, 600.000000
3031.589565, 24.100000, 111.500000, 0.000000, 0.000000, 145.500000, 12.400000, 40.500000, 84.000000, 0.014835, 0.003141, -0.713818, 1.745526, 1.056005, -0.441330, 0.000000, -0.000000, -0.000000, 0.000000, 100.000000, 200.000000, 300.000000, 400.000000, 500.000000, 600.000000
3031.690313, 24.100000, 111.500000, 0.000000, 0.000000, 145.500000, 12.400000, 40.500000, 84.000000, 0.014835, 0.003141, -0.713818, 1.745526, 1.056005, -0.441330, 0.000000, -0.000000, -0.000000, 0.000000, 100.000000, 200.000000, 300.000000, 400.000000, 500.000000, 600.000000
3031.791259, 24.100000, 111.500000, 0.000000, 0.000000, 145.500000, 12.400000, 40.500000, 84.000000, 0.014835, 0.003141, -0.713818, 1.745526, 1.056005, -0.441330, 0.000000, -0.000000, -0.000000, 0.000000, 100.000000, 200.000000, 300.000000, 400.000000, 500.000000, 600.000000
3031.892011, 24.100000, 111.500000, 0.000000, 0.000000, 145.500000, 12.400000, 40.500000, 84.000000, 0.014835, 0.003141, -0.713818, 1.745526, 1.056005, -0.441330, 0.000000, -0.000000, -0.000000, 0.000000, 100.000000, 200.000000, 300.000000, 400.000000, 500.000000, 600.000000
3031.992747, 24.100000, 111.500000, 0.000000, 0.000000, 145.500000, 12.400000, 40.500000, 84.000000, 0.014835, 0.003141, -0.713818, 1.745526, 1.056005, -0.441330, 0.000000, -0.000000, -0.000000, 0.000000, 100.000000, 200.000000, 300.000000, 400.000000, 500.000000, 600.000000
3032.092440, 24.100000, 111.500000, 0.000000, 0.000000, 145.500000, 12.400000, 40.500000, 84.000000, 0.014835, 0.003141, -0.713818, 1.745526, 1.056005, -0.441330, 0.000000, -0.000000, -0.000000, 0.000000, 100.000000, 200.000000, 300.000000, 400.000000, 500.000000, 600.000000
3032.193200, 24.100000, 111.500000, 0.000000, 0.000000, 145.500000, 12.400000, 40.500000, 84.000000, 0.014835, 0.003141, -0.713818, 1.745526, 1.056005, -0.441330, 0.000000, -0.000000, -0.000000, 0.000000, 100.000000, 200.000000, 300.000000, 400.000000, 500.000000, 600.000000
3032.294321, 24.100000, 111.500000, 0.000000, 0.000000, 145.500000, 12.400000, 40.500000, 84.000000, 0.014835, 0.003141, -0.713818, 1.745526, 1.056005, -0.441330, 0.000000, -0.000000, -0.000000, 0.000000, 100.000000, 200.000000, 300.000000, 400.000000, 500.000000, 600.000000
3032.395208, 24.100000, 111.500000, 0.000000, 0.000000, 145.500000, 12.400000, 40.500000, 84.000000, 0.014835, 0.003141, -0.713818, 1.745526, 1.056005, -0.441330, 0.000000, -0.000000, -0.000000, 0.000000, 100.000000, 200.000000, 300.000000, 400.000000, 500.000000, 600.000000
3032.495908, 24.100000, 111.500000, 0.000000, 0.000000, 145.500000, 12.400000, 40.500000, 84.000000, 0.014835, 0.003141, -0.713818, 1.745526, 1.056005, -0.441330, 0.000000, -0.000000, -0.000000, 0.000000, 100.000000, 200.000000, 300.000000, 400.000000, 500.000000, 600.000000
3032.595880, 24.100000, 111.500000, 0.000000, 0.000000, 145.500000, 12.400000, 40.500000, 84.000000, 0.014835, 0.003141, -0.713818, 1.745526, 1.056005, -0.441330, 0.000000, -0.000000, -0.000000, 0.000000, 100.000000, 200.000000, 300.000000, 400.000000, 500.000000, 600.000000
3032.695875, 24.100000, 111.500000, 0.000000, 0.000000, 145.500000, 12.400000, 40.500000, 84.000000, 0.014835, 0.003141, -0.713818, 1.745526, 1.056005, -0.441330, 0.000000, -0.000000, -0.000000, 0.000000, 100.000000, 200.000000, 300.000000, 400.000000, 500.000000, 600.000000
3032.795949, 24.100000, 111.500000, 0.000000, 0.000000, 145.500000, 12.400000, 40.500000, 84.000000, 0.014835, 0.003141, -0.713818, 1.745526, 1.056005, -0.441330, 0.000000, -0.000000, -0.000000, 0.000000, 100.000000, 200.000000, 300.000000, 400.000000, 500.000000, 600.000000
3032.896693, 24.100000, 111.500000, 0.000000, 0.000000, 145.500000, 12.400000, 40.500000, 84.000000, 0.014835, 0.003141, -0.713818, 1.745526, 1.056005, -0.441330, -0.000000, 0.000000, 0.000000, -0.000000, 100.000000, 200.000000, 300.000000, 400.000000, 500.000000, 600.000000
3032.997433, 24.100000, 111.500000, 0.000000, 0.000000, 145.500000, 12.400000, 40.500000, 84.000000, 0.014835, 0.003141, -0.713818, 1.745526, 1.056005, -0.441330, -0.000000, 0.000000, 0.000000, -0.000000, 100.000000, 200.000000, 300.000000, 400.000000, 500.000000, 600.000000
3033.098004, 24.100000, 111.500000, 0.000000, 0.000000, 145.500000, 12.400000, 40.500000, 84.000000, 0.014835, 0.003141, -0.713818, 1.745526, 1.056005, -0.441330, -0.000000, 0.000000, 0.000000, -0.000000, 100.000000, 200.000000, 300.000000, 400.000000, 500.000000, 600.000000
3033.198154, 24.100000, 111.500000, 0.000000, 0.000000, 145.500000, 12.400000, 40.500000, 84.000000, 0.014835, 0.003141, -0.713818, 1.745526, 1.056005, -0.441330, -0.000000, 0.000000, 0.000000, -0.000000, 100.000000, 200.000000, 300.000000, 400.000000, 500.000000, 600.000000
3033.298260, 24.100000, 111.500000, 0.000000, 0.000000, 145.500000, 12.400000, 40.500000, 84.000000, 0.014835, 0.003141, -0.713818, 1.745526, 1.056005, -0.441330, -0.000000, 0.000000, 0.000000, -0.000000, 100.000000, 200.000000, 300.000000, 400.000000, 500.000000, 600.000000
3033.398757, 24.100000, 111.500000, 0.000000, 0.000000, 145.500000, 12.400000, 40.500000, 84.000000, 0.014835, 0.003141, -0.713818, 1.745526, 1.056005, -0.441330, -0.000000, 0.000000, 0.000000, -0.000000, 100.000000, 200.000000, 300.000000, 400.000000, 500.000000, 600.000000
3033.498451, 24.100000, 111.500000, 0.000000, 0.000000, 145.500000, 12.400000, 40.500000, 84.000000, 0.014835, 0.003141, -0.713818, 1.745526, 1.056005, -0.441330, -0.000000, 0.000000, 0.000000, -0.000000, 100.000000, 200.000000, 300.000000, 400.000000, 500.000000, 600.000000
3033.599210, 24.100000, 111.500000, 0.000000, 0.000000, 145.500000, 12.400000, 40.500000, 84.000000, 0.014835, 0.003141, -0.713818, 1.745526, 1.056005, -0.441330, -0.000000, 0.000000, 0.000000, -0.000000, 100.000000, 200.000000, 300.000000, 400.000000, 500.000000, 600.000000
3033.699857, 24.100000, 111.500000, 0.000000, 0.000000, 145.500000, 12.400000, 40.500000, 84.000000, 0.014835, 0.003141, -0.713818, 1.745526, 1.056005, -0.441330, -0.000000, 0.000000, 0.000000, -0.000000, 100.000000, 200.000000, 300.000000, 400.000000, 500.000000, 600.000000
3033.799680, 24.100000, 111.500000, 0.000000, 0.000000, 145.500000, 12.400000, 40.500000, 84.000000, 0.014835, 0.003141, -0.713818, 1.745526, 1.056005, -0.441330, -0.000000, 0.000000, 0.000000, -0.000000, 100.000000, 200.000000, 300.000000, 400.000000, 500.000000, 600.000000
3033.900846, 24.100000, 111.500000, 0.000000, 0.000000, 145.500000, 12.400000, 40.500000, 84.000000, 0.014835, 0.003141, -0.713818, 1.745526, 1.056005, -0.441330, -0.000000, 0.000000, 0.000000, -0.000000, 100.000000, 200.000000, 300.000000, 400.000000, 500.000000, 600.000000
3034.000874, 24.100000, 111.500000, 0.000000, 0.000000, 145.500000, 12.400000, 40.500000, 84.000000, 0.014835, 0.003141, -0.713818, 1.745526, 1.056005, -0.441330, -0.000000, 0.000000, 0.000000, -0.000000, 100.000000, 200.000000, 300.000000, 400.000000, 500.000000, 600.000000
3034.100916, 24.100000, 111.500000, 0.000000, 0.000000, 145.500000, 12.400000, 40.500000, 84.000000, 0.014835, 0.003141, -0.713818, 1.745526, 1.056005, -0.441330, -0.000000, 0.000000, 0.000000, -0.000000, 100.000000, 200.000000, 300.000000, 400.000000, 500.000000, 600.000000
3034.200707, 24.100000, 111.500000, 0.000000, 0.000000, 145.500000, 12.400000, 40.500000, 84.000000, 0.014835, 0.003141, -0.713818, 1.745526, 1.056005, -0.441330, -0.000000, 0.000000, 0.000000, -0.000000, 100.000000, 200.000000, 300.000000, 400.000000, 500.000000, 600.000000
3034.300466, 24.100000, 111.500000, 0.000000, 0.000000, 145.500000, 12.400000, 40.500000, 84.000000, 0.014835, 0.003141, -0.713818, 1.745526, 1.056005, -0.441330, -0.000000, 0.000000, 0.000000, -0.000000, 100.000000, 200.000000, 300.000000, 400.000000, 500.000000, 600.000000
3034.401475, 24.100000, 111.500000, 0.000000, 0.000000, 145.500000, 12.400000, 40.500000, 84.000000, 0.014835, 0.003141, -0.713818, 1.745526, 1.056005, -0.441330, -0.000000, 0.000000, 0.000000, -0.000000, 100.000000, 200.000000, 300.000000, 400.000000, 500.000000, 600.000000
3034.502232, 24.100000, 111.500000, 0.000000, 0.000000, 145.500000, 12.400000, 40.500000, 84.000000, 0.014835, 0.003141, -0.713818, 1.745526, 1.056005, -0.441330, -0.000000, 0.000000, 0.000000, -0.000000, 100.000000, 200.000000, 300.000000, 400.000000, 500.000000, 600.000000
3034.603011, 24.100000, 111.500000, 0.000000, 0.000000, 145.500000, 12.400000, 40.500000, 84.000000, 0.014835, 0.003141, -0.713818, 1.745526, 1.056005, -0.441330, -0.000000, 0.000000, 0.000000, -0.000000, 100.000000, 200.000000, 300.000000, 400.000000, 500.000000, 600.000000
3034.703979, 24.100000, 111.500000, 0.000000, 0.000000, 145.500000, 12.400000, 40.500000, 84.000000, 0.014835, 0.003141, -0.713818, 1.745526, 1.056005, -0.441330, -0.000000, 0.000000, 0.000000, -0.000000, 100.000000, 200.000000, 300.000000, 400.000000, 500.000000, 600.000000
3034.804576, 24.100000, 111.500000, 0.000000, 0.000000, 145.500000, 12.400000, 40.500000, 84.000000, 0.014835, 0.003141, -0.713818, 1.745526, 1.056005, -0.441330, -0.000000, 0.000000, 0.000000, -0.000000, 100.000000, 200.000000, 300.000000, 400.000000, 500.000000, 600.000000
3034.905445, 24.100000, 111.500000, 0.000000, 0.000000, 145.500000, 12.400000, 40.500000, 84.000000, 0.014835, 0.003141, -0.713818, 1.745526, 1.056005, -0.441330, -0.000000, 0.000000, 0.000000, -0.000000, 100.000000, 200.000000, 300.000000, 400.000000, 500.000000, 600.000000
3035.006142, 24.100000, 111.500000, 0.000000, 0.000000, 145.500000, 12.400000, 40.500000, 84.000000, 0.014835, 0.003141, -0.713818, 1.745526, 1.056005, -0.441330, 0.000000, -0.000000, -0.000000, 0.000000, 100.000000, 200.000000, 300.000000, 400.000000, 500.000000, 600.000000
3035.107029, 24.100000, 111.500000, 0.000000, 0.000000, 145.500000, 12.400000, 40.500000, 84.000000, 0.014835, 0.003141, -0.713818, 1.745526, 1.056005, -0.441330, 0.000000, -0.000000, -0.000000, 0.000000, 100.000000, 200.000000, 300.000000, 400.000000, 500.000000, 600.000000
3035.207956, 24.100000, 111.500000, 0.000000, 0.000000, 145.500000, 12.400000, 40.500000, 84.000000, 0.014835, 0.003141, -0.713818, 1.745526, 1.056005, -0.441330, 0.000000, -0.000000, -0.000000, 0.000000, 100.000000, 200.000000, 300.000000, 400.000000, 500.000000, 600.000000
3035.309086, 24.100000, 111.500000, 0.000000, 0.000000, 145.500000, 12.400000, 40.500000, 84.000000, 0.014835, 0.003141, -0.713818, 1.745526, 1.056005, -0.441330, 0.000000, -0.000000, -0.000000, 0.000000, 100.000000, 200.000000, 300.000000, 400.000000, 500.000000, 600.000000
3035.409650, 24.100000, 111.500000, 0.000000, 0.000000, 145.500000, 12.400000, 40.500000, 84.000000, 0.014835, 0.003141, -0.713818, 1.745526, 1.056005, -0.441330, 0.000000, -0.000000, -0.000000, 0.000000, 100.000000, 200.000000, 300.000000, 400.000000, 500.000000, 600.000000
3035.510387, 24.100000, 111.500000, 0.000000, 0.000000, 145.500000, 12.400000, 40.500000, 84.000000, 0.014835, 0.003141, -0.713818, 1.745526, 1.056005, -0.441330, 0.000000, -0.000000, -0.000000, 0.000000, 100.000000, 200.000000, 300.000000, 400.000000, 500.000000, 600.000000
3035.610997, 24.100000, 111.500000, 0.000000, 0.000000, 145.500000, 12.400000, 40.500000, 84.000000, 0.014835, 0.003141, -0.713818, 1.745526, 1.056005, -0.441330, 0.000000, -0.000000, -0.000000, 0.000000, 100.000000, 200.000000, 300.000000, 400.000000, 500.000000, 600.000000
3035.711656, 24.100000, 111.500000, 0.000000, 0.000000, 145.500000, 12.400000, 40.500000, 84.000000, 0.014835, 0.003141, -0.713818, 1.745526, 1.056005, -0.441330, 0.000000, -0.000000, -0.000000, 0.000000, 100.000000, 200.000000, 300.000000, 400.000000, 500.000000, 600.000000
3035.812262, 24.100000, 111.500000, 0.000000, 0.000000, 145.500000, 12.400000, 40.500000, 84.000000, 0.014835, 0.003141, -0.713818, 1.745526, 1.056005, -0.441330, 0.000000, -0.000000, -0.000000, 0.000000, 100.000000, 200.000000, 300.000000, 400.000000, 500.000000, 600.000000
3035.912507, 24.100000, 111.500000, 0.000000, 0.000000, 145.500000, 12.400000, 40.500000, 84.000000, 0.014835, 0.003141, -0.713818, 1.745526, 1.056005, -0.441330, 0.000000, -0.000000, -0.000000, 0.000000, 100.000000, 200.000000, 300.000000, 400.000000, 500.000000, 600.000000
3036.013077, 24.100000, 111.500000, 0.000000, 0.000000, 145.500000, 12.400000, 40.500000, 84.000000, 0.014835, 0.003141, -0.713818, 1.745526, 1.056005, -0.441330, 0.000000, -0.000000, -0.000000, 0.000000, 100.000000, 200.000000, 300.000000, 400.000000, 500.000000, 600.000000
3036.113693, 24.100000, 111.500000, 0.000000, 0.000000, 145.500000, 12.400000, 40.500000, 84.000000, 0.014835, 0.003141, -0.713818, 1.745526, 1.056005, -0.441330, 0.000000, -0.000000, -0.000000, 0.000000, 100.000000, 200.000000, 300.000000, 400.000000, 500.000000, 600.000000
3036.213425, 24.100000, 111.500000, 0.000000, 0.000000, 145.500000, 12.400000, 40.500000, 84.000000, 0.014835, 0.003141, -0.713818, 1.745526, 1.056005, -0.441330, 0.000000, -0.000000, -0.000000, 0.000000, 100.000000, 200.000000, 300.000000, 400.000000, 500.000000, 600.000000
3036.314031, 24.100000, 111.500000, 0.000000, 0.000000, 145.500000, 12.400000, 40.500000, 84.000000, 0.014835, 0.003141, -0.713818, 1.745526, 1.056005, -0.441330, 0.000000, -0.000000, -0.000000, 0.000000, 100.000000, 200.000000, 300.000000, 400.000000, 500.000000, 600.000000
3036.414772, 24.100000, 111.500000, 0.000000, 0.000000, 145.500000, 12.400000, 40.500000, 84.000000, 0.014835, 0.003141, -0.713818, 1.745526, 1.056005, -0.441330, 0.000000, -0.000000, -0.000000, 0.000000, 100.000000, 200.000000, 300.000000, 400.000000, 500.000000, 600.000000
3036.514458, 24.100000, 111.500000, 0.000000, 0.000000, 145.500000, 12.400000, 40.500000, 84.000000, 0.014835, 0.003141, -0.713818, 1.745526, 1.056005, -0.441330, 0.000000, -0.000000, -0.000000, 0.000000, 100.000000, 200.000000, 300.000000, 400.000000, 500.000000, 600.000000
3036.615349, 24.100000, 111.500000, 0.000000, 0.000000, 145.500000, 12.400000, 40.500000, 84.000000, 0.014835, 0.003141, -0.713818, 1.745526, 1.056005, -0.441330, 0.000000, -0.000000, -0.000000, 0.000000, 100.000000, 200.000000, 300.000000, 400.000000, 500.000000, 600.000000
3036.716306, 24.100000, 111.500000, 0.000000, 0.000000, 145.500000, 12.400000, 40.500000, 84.000000, 0.014835, 0.003141, -0.713818, 1.745526, 1.056005, -0.441330, 0.000000, -0.000000, -0.000000, 0.000000, 100.000000, 200.000000, 300.000000, 400.000000, 500.000000, 600.000000
