JunhaAgu/can_excavator_plot/from_excavator.txt
time [ms], ACyl_LC [bar], ACyl_SC [bar], Swing_L [bar], Swing_R [bar], BCyl_LC [bar], BCyl_SC [bar], KCyl_LC [bar], KCyl_SC [bar], Body_Pitch_Angle [rad], Body_Roll_Angle [rad], Boom_Joint_Angle [rad], Arm_Joint_Angle [rad], Bkt_Joint_Angle [rad], Swing_Angle [rad], Boom_Joint_Rate [rad/s], Arm_Joint_Rate [rad/s], Bkt_Joint_Rate [rad/s], Swing_Rate [rad/s], 
344.333876, 24.100000, 111.500000, 0.000000, 0.000000, 145.500000, 12.400000, 40.500000, 84.000000, 0.014835, 0.003141, -0.713818, 1.745526, 1.056005, -0.441330, -0.742371, 1.815347, 1.098245, -0.458983
344.435136, 24.100000, 111.500000, 0.000000, 0.000000, 145.500000, 12.400000, 40.500000, 84.000000, 0.014835, 0.003141, -0.713818, 1.745526, 1.056005, -0.441330, -2.747229, 6.717900, 4.064182, -1.698520
344.536468, 24.100000, 111.500000, 0.000000, 0.000000, 145.500000, 12.400000, 40.500000, 84.000000, 0.014835, 0.003141, -0.713818, 1.745526, 1.056005, -0.441330, -4.844001, 11.845212, 7.166092, -2.994884
344.637618, 24.100000, 111.500000, 0.000000, 0.000000, 145.500000, 12.400000, 40.500000, 84.000000, 0.014835, 0.003141, -0.713818, 1.745526, 1.056005, -0.441330, -6.178310, 15.108047, 9.140037, -3.819843
344.738789, 24.100000, 111.500000, 0.000000, 0.000000, 145.500000, 12.400000, 40.500000, 84.000000, 0.014835, 0.003141, -0.713818, 1.745526, 1.056005, -0.441330, -6.898324, 16.868721, 10.205206, -4.265003
344.840118, 24.100000, 111.500000, 0.000000, 0.000000, 145.500000, 12.400000, 40.500000, 84.000000, 0.014835, 0.003141, -0.713818, 1.745526, 1.056005, -0.441330, -7.138217, 17.455341, 10.560099, -4.413321
344.941221, 24.100000, 111.500000, 0.000000, 0.000000, 145.500000, 12.400000, 40.500000, 84.000000, 0.014835, 0.003141, -0.713818, 1.745526, 1.056005, -0.441330, -7.016323, 17.157270, 10.379772, -4.337958
345.042323, 24.100000, 111.500000, 0.000000, 0.000000, 145.500000, 12.400000, 40.500000, 84.000000, 0.014835, 0.003141, -0.713818, 1.745526, 1.056005, -0.441330, -6.634431, 16.223415, 9.814811, -4.101847
345.143480, 24.100000, 111.500000, 0.000000, 0.000000, 145.500000, 12.400000, 40.500000, 84.000000, 0.014835, 0.003141, -0.713818, 1.745526, 1.056005, -0.441330, -6.077963, 14.862663, 8.991586, -3.757802
345.244497, 24.100000, 111.500000, 0.000000, 0.000000, 145.500000, 12.400000, 40.500000, 84.000000, 0.014835, 0.003141, -0.713818, 1.745526, 1.056005, -0.441330, -5.416788, 13.245867, 8.013459, -3.349019
345.345670, 24.100000, 111.500000, 0.000000, 0.000000, 145.500000, 12.400000, 40.500000, 84.000000, 0.014835, 0.003141, -0.713818, 1.745526, 1.056005, -0.441330, -4.706464, 11.508887, 6.962625, -2.909850
345.446841, 24.100000, 111.500000, 0.000000, 0.000000, 145.500000, 12.400000, 40.500000, 84.000000, 0.014835, 0.003141, -0.713818, 1.745526, 1.056005, -0.441330, -3.989751, 9.756282, 5.902337, -2.466730
345.547948, 24.100000, 111.500000, 0.000000, 0.000000, 145.500000, 12.400000, 40.500000, 84.000000, 0.014835, 0.003141, -0.713818, 1.745526, 1.056005, -0.441330, -3.298242, 8.065310, 4.879336, -2.039194
345.649015, 24.100000, 111.500000, 0.000000, 0.000000, 145.500000, 12.400000, 40.500000, 84.000000, 0.014835, 0.003141, -0.713818, 1.745526, 1.056005, -0.441330, -2.654037, 6.490012, 3.926316, -1.640903
345.750056, 24.100000, 111.500000, 0.000000, 0.000000, 145.500000, 12.400000, 40.500000, 84.000000, 0.014835, 0.003141, -0.713818, 1.745526, 1.056005, -0.441330, -2.071355, 5.065157, 3.064310, -1.280650
345.851118, 24.100000, 111.500000, 0.000000, 0.000000, 145.500000, 12.400000, 40.500000, 84.000000, 0.014835, 0.003141, -0.713818, 1.745526, 1.056005, -0.441330, -1.558048, 3.809949, 2.304937, -0.963290
345.952159, 24.100000, 111.500000, 0.000000, 0.000000, 145.500000, 12.400000, 40.500000, 84.000000, 0.014835, 0.003141, -0.713818, 1.745526, 1.056005, -0.441330, -1.116977, 2.731383, 1.652429, -0.690591
346.053191, 24.100000, 111.500000, 0.000000, 0.000000, 145.500000, 12.400000, 40.500000, 84.000000, 0.014835, 0.003141, -0.713818, 1.745526, 1.056005, -0.441330, -0.747227, 1.827219, 1.105429, -0.461986
346.154378, 24.100000, 111.500000, 0.000000, 0.000000, 145.500000, 12.400000, 40.500000, 84.000000, 0.014835, 0.003141, -0.713818, 1.745526, 1.056005, -0.441330, -0.445152, 1.088543, 0.658546, -0.275223
346.255496, 24.100000, 111.500000, 0.000000, 0.000000, 145.500000, 12.400000, 40.500000, 84.000000, 0.014835, 0.003141, -0.713818, 1.745526, 1.056005, -0.441330, -0.205258, 0.501923, 0.303654, -0.126905
346.356461, 24.100000, 111.500000, 0.000000, 0.000000, 145.500000, 12.400000, 40.500000, 84.000000, 0.014835, 0.003141, -0.713818, 1.745526, 1.056005, -0.441330, -0.020929, 0.051176, 0.030962, -0.012940
346.457434, 24.100000, 111.500000, 0.000000, 0.000000, 145.500000, 12.400000, 40.500000, 84.000000, 0.014835, 0.003141, -0.713818, 1.745526, 1.056005, -0.441330, 0.115002, -0.281220, -0.170131, 0.071102
346.558370, 24.100000, 111.500000, 0.000000, 0.000000, 145.500000, 12.400000, 40.500000, 84.000000, 0.014835, 0.003141, -0.713818, 1.745526, 1.056005, -0.441330, 0.209803, -0.513040, -0.310377, 0.129714
346.659357, 24.100000, 111.500000, 0.000000, 0.000000, 145.500000, 12.400000, 40.500000, 84.000000, 0.014835, 0.003141, -0.713818, 1.745526, 1.056005, -0.441330, 0.270515, -0.661501, -0.400192, 0.167250
346.760257, 24.100000, 111.500000, 0.000000, 0.000000, 145.500000, 12.400000, 40.500000, 84.000000, 0.014835, 0.003141, -0.713818, 1.745526, 1.056005, -0.441330, 0.303718, -0.742693, -0.449312, 0.187778
346.861244, 24.100000, 111.500000, 0.000000, 0.000000, 145.500000, 12.400000, 40.500000, 84.000000, 0.014835, 0.003141, -0.713818, 1.745526, 1.056005, -0.441330, 0.315381, -0.771213, -0.466566, 0.194989
346.962191, 24.100000, 111.500000, 0.000000, 0.000000, 145.500000, 12.400000, 40.500000, 84.000000, 0.014835, 0.003141, -0.713818, 1.745526, 1.056005, -0.441330, 0.310775, -0.759949, -0.459752, 0.192142
347.063182, 24.100000, 111.500000, 0.000000, 0.000000, 145.500000, 12.400000, 40.500000, 84.000000, 0.014835, 0.003141, -0.713818, 1.745526, 1.056005, -0.441330, 0.294441, -0.720007, -0.435588, 0.182043
347.164147, 24.100000, 111.500000, 0.000000, 0.000000, 145.500000, 12.400000, 40.500000, 84.000000, 0.014835, 0.003141, -0.713818, 1.745526, 1.056005, -0.441330, 0.270194, -0.660717, -0.399719, 0.167052
347.265118, 24.100000, 111.500000, 0.000000, 0.000000, 145.500000, 12.400000, 40.500000, 84.000000, 0.014835, 0.003141, -0.713818, 1.745526, 1.056005, -0.441330, 0.241162, -0.589723, -0.356769, 0.149103
347.366088, 24.100000, 111.500000, 0.000000, 0.000000, 145.500000, 12.400000, 40.500000, 84.000000, 0.014835, 0.003141, -0.713818, 1.745526, 1.056005, -0.441330, 0.209834, -0.513114, -0.310423, 0.129733
347.466992, 24.100000, 111.500000, 0.000000, 0.000000, 145.500000, 12.400000, 40.500000, 84.000000, 0.014835, 0.003141, -0.713818, 1.745526, 1.056005, -0.441330, 0.178129, -0.435586, -0.263520, 0.110131
347.567961, 24.100000, 111.500000, 0.000000, 0.000000, 145.500000, 12.400000, 40.500000, 84.000000, 0.014835, 0.003141, -0.713818, 1.745526, 1.056005, -0.441330, 0.147471, -0.360618, -0.218166, 0.091177
347.668984, 24.100000, 111.500000, 0.000000, 0.000000, 145.500000, 12.400000, 40.500000, 84.000000, 0.014835, 0.003141, -0.713818, 1.745526, 1.056005, -0.441330, 0.118859, -0.290650, -0.175837, 0.073487
347.769932, 24.100000, 111.500000, 0.000000, 0.000000, 145.500000, 12.400000, 40.500000, 84.000000, 0.014835, 0.003141, -0.713818, 1.745526, 1.056005, -0.441330, 0.092938, -0.227265, -0.137490, 0.057461
347.870817, 24.100000, 111.500000, 0.000000, 0.000000, 145.500000, 12.400000, 40.500000, 84.000000, 0.014835, 0.003141, -0.713818, 1.745526, 1.056005, -0.441330, 0.070070, -0.171346, -0.103660, 0.043322
347.971765, 24.100000, 111.500000, 0.000000, 0.000000, 145.500000, 12.400000, 40.500000, 84.000000, 0.014835, 0.003141, -0.713818, 1.745526, 1.056005, -0.441330, 0.050393, -0.123229, -0.074551, 0.031157
348.072761, 24.100000, 111.500000, 0.000000, 0.000000, 145.500000, 12.400000, 40.500000, 84.000000, 0.014835, 0.003141, -0.713818, 1.745526, 1.056005, -0.441330, 0.033874, -0.082835, -0.050113, 0.020944
348.173725, 24.100000, 111.500000, 0.000000, 0.000000, 145.500000, 12.400000, 40.500000, 84.000000, 0.014835, 0.003141, -0.713818, 1.745526, 1.056005, -0.441330, 0.020359, -0.049784, -0.030118, 0.012587
348.274671, 24.100000, 111.500000, 0.000000, 0.000000, 145.500000, 12.400000, 40.500000, 84.000000, 0.014835, 0.003141, -0.713818, 1.745526, 1.056005, -0.441330, 0.009607, -0.023491, -0.014212, 0.005939
348.375639, 24.100000, 111.500000, 0.000000, 0.000000, 145.500000, 12.400000, 40.500000, 84.000000, 0.014835, 0.003141, -0.713818, 1.745526, 1.056005, -0.441330, 0.001328, -0.003247, -0.001965, 0.000821
348.476627, 24.100000, 111.500000, 0.000000, 0.000000, 145.500000, 12.400000, 40.500000, 84.000000, 0.014835, 0.003141, -0.713818, 1.745526, 1.056005, -0.441330, -0.004793, 0.011721, 0.007091, -0.002963
348.577517, 24.100000, 111.500000, 0.000000, 0.000000, 145.500000, 12.400000, 40.500000, 84.000000, 0.014835, 0.003141, -0.713818, 1.745526, 1.056005, -0.441330, -0.009078, 0.022199, 0.013430, -0.005613
348.678502, 24.100000, 111.500000, 0.000000, 0.000000, 145.500000, 12.400000, 40.500000, 84.000000, 0.014835, 0.003141, -0.713818, 1.745526, 1.056005, -0.441330, -0.011839, 0.028951, 0.017515, -0.007320
348.779475, 24.100000, 111.500000, 0.000000, 0.000000, 145.500000, 12.400000, 40.500000, 84.000000, 0.014835, 0.003141, -0.713818, 1.745526, 1.056005, -0.441330, -0.013369, 0.032691, 0.019777, -0.008265
348.880442, 24.100000, 111.500000, 0.000000, 0.000000, 145.500000, 12.400000, 40.500000, 84.000000, 0.014835, 0.003141, -0.713818, 1.745526, 1.056005, -0.441330, -0.013932, 0.034068, 0.020610, -0.008614
348.981351, 24.100000, 111.500000, 0.000000, 0.000000, 145.500000, 12.400000, 40.500000, 84.000000, 0.014835, 0.003141, -0.713818, 1.745526, 1.056005, -0.441330, -0.013763, 0.033656, 0.020361, -0.008509
349.082315, 24.100000, 111.500000, 0.000000, 0.000000, 145.500000, 12.400000, 40.500000, 84.000000, 0.014835, 0.003141, -0.713818, 1.745526, 1.056005, -0.441330, -0.013066, 0.031951, 0.019330, -0.008078
349.183285, 24.100000, 111.500000, 0.000000, 0.000000, 145.500000, 12.400000, 40.500000, 84.000000, 0.014835, 0.003141, -0.713818, 1.745526, 1.056005, -0.441330, -0.012010, 0.029369, 0.017768, -0.007426
349.284259, 24.100000, 111.500000, 0.000000, 0.000000, 145.500000, 12.400000, 40.500000, 84.000000, 0.014835, 0.003141, -0.713818, 1.745526, 1.056005, -0.441330, -0.010736, 0.026253, 0.015882, -0.006638
349.385148, 24.100000, 111.500000, 0.000000, 0.000000, 145.500000, 12.400000, 40.500000, 84.000000, 0.014835, 0.003141, -0.713818, 1.745526, 1.056005, -0.441330, -0.009355, 0.022875, 0.013839, -0.005784
349.486102, 24.100000, 111.500000, 0.000000, 0.000000, 145.500000, 12.400000, 40.500000, 84.000000, 0.014835, 0.003141, -0.713818, 1.745526, 1.056005, -0.441330, -0.007952, 0.019446, 0.011764, -0.004917
349.587094, 24.100000, 111.500000, 0.000000, 0.000000, 145.500000, 12.400000, 40.500000, 84.000000, 0.014835, 0.003141, -0.713818, 1.745526, 1.056005, -0.441330, -0.006593, 0.016123, 0.009754, -0.004076
349.687976, 24.100000, 111.500000, 0.000000, 0.000000, 145.500000, 12.400000, 40.500000, 84.000000, 0.014835, 0.003141, -0.713818, 1.745526, 1.056005, -0.441330, -0.005322, 0.013015, 0.007874, -0.003291
349.788941, 24.100000, 111.500000, 0.000000, 0.000000, 145.500000, 12.400000, 40.500000, 84.000000, 0.014835, 0.003141, -0.713818, 1.745526, 1.056005, -0.441330, -0.004169, 0.010196, 0.006168, -0.002578
349.889859, 24.100000, 111.500000, 0.000000, 0.000000, 145.500000, 12.400000, 40.500000, 84.000000, 0.014835, 0.003141, -0.713818, 1.745526, 1.056005, -0.441330, -0.003151, 0.007705, 0.004661, -0.001948
349.990836, 24.100000, 111.500000, 0.000000, 0.000000, 145.500000, 12.400000, 40.500000, 84.000000, 0.014835, 0.003141, -0.713818, 1.745526, 1.056005, -0.441330, -0.002273, 0.005558, 0.003363, -0.001405
350.091808, 24.100000, 111.500000, 0.000000, 0.000000, 145.500000, 12.400000, 40.500000, 84.000000, 0.014835, 0.003141, -0.713818, 1.745526, 1.056005, -0.441330, -0.001535, 0.003754, 0.002271, -0.000949
350.192729, 24.100000, 111.500000, 0.000000, 0.000000, 145.500000, 12.400000, 40.500000, 84.000000, 0.014835, 0.003141, -0.713818, 1.745526, 1.056005, -0.441330, -0.000930, 0.002275, 0.001376, -0.000575
350.293667, 24.100000, 111.500000, 0.000000, 0.000000, 145.500000, 12.400000, 40.500000, 84.000000, 0.014835, 0.003141, -0.713818, 1.745526, 1.056005, -0.441330, -0.000449, 0.001097, 0.000664, -0.000277
350.394672, 24.100000, 111.500000, 0.000000, 0.000000, 145.500000, 12.400000, 40.500000, 84.000000, 0.014835, 0.003141, -0.713818, 1.745526, 1.056005, -0.441330, -0.000077, 0.000188, 0.000114, -0.000047
350.495588, 24.100000, 111.500000, 0.000000, 0.000000, 145.500000, 12.400000, 40.500000, 84.000000, 0.014835, 0.003141, -0.713818, 1.745526, 1.056005, -0.441330, 0.000199, -0.000486, -0.000294, 0.000123
350.596530, 24.100000, 111.500000, 0.000000, 0.000000, 145.500000, 12.400000, 40.500000, 84.000000, 0.014835, 0.003141, -0.713818, 1.745526, 1.056005, -0.441330, 0.000392, -0.000960, -0.000581, 0.000243
350.697472, 24.100000, 111.500000, 0.000000, 0.000000, 145.500000, 12.400000, 40.500000, 84.000000, 0.014835, 0.003141, -0.713818, 1.745526, 1.056005, -0.441330, 0.000518, -0.001267, -0.000766, 0.000320
350.798503, 24.100000, 111.500000, 0.000000, 0.000000, 145.500000, 12.400000, 40.500000, 84.000000, 0.014835, 0.003141, -0.713818, 1.745526, 1.056005, -0.441330, 0.000588, -0.001439, -0.000870, 0.000364
350.899661, 24.100000, 111.500000, 0.000000, 0.000000, 145.500000, 12.400000, 40.500000, 84.000000, 0.014835, 0.003141, -0.713818, 1.745526, 1.056005, -0.441330, 0.000615, -0.001505, -0.000910, 0.000380
351.000746, 24.100000, 111.500000, 0.000000, 0.000000, 145.500000, 12.400000, 40.500000, 84.000000, 0.014835, 0.003141, -0.713818, 1.745526, 1.056005, -0.441330, 0.000609, -0.001490, -0.000902, 0.000377
351.101736, 24.100000, 111.500000, 0.000000, 0.000000, 145.500000, 12.400000, 40.500000, 84.000000, 0.014835, 0.003141, -0.713818, 1.745526, 1.056005, -0.441330, 0.000580, -0.001418, -0.000858, 0.000358
351.202829, 24.100000, 111.500000, 0.000000, 0.000000, 145.500000, 12.400000, 40.500000, 84.000000, 0.014835, 0.003141, -0.713818, 1.745526, 1.056005, -0.441330, 0.000534, -0.001305, -0.000790, 0.000330
351.303918, 24.100000, 111.500000, 0.000000, 0.000000, 145.500000, 12.400000, 40.500000, 84.000000, 0.014835, 0.003141, -0.713818, 1.745526, 1.056005, -0.441330, 0.000478, -0.001169, -0.000707, 0.000295
351.404829, 24.100000, 111.500000, 0.000000, 0.000000, 145.500000, 12.400000, 40.500000, 84.000000, 0.014835, 0.003141, -0.713818, 1.745526, 1.056005, -0.441330, 0.000417, -0.001020, -0.000617, 0.000258
351.505823, 24.100000, 111.500000, 0.000000, 0.000000, 145.500000, 12.400000, 40.500000, 84.000000, 0.014835, 0.003141, -0.713818, 1.745526, 1.056005, -0.441330, 0.000355, -0.000868, -0.000525, 0.000219
351.607015, 24.100000, 111.500000, 0.000000, 0.000000, 145.500000, 12.400000, 40.500000, 84.000000, 0.014835, 0.003141, -0.713818, 1.745526, 1.056005, -0.441330, 0.000295, -0.000721, -0.000436, 0.000182
351.707914, 24.100000, 111.500000, 0.000000, 0.000000, 145.500000, 12.400000, 40.500000, 84.000000, 0.014835, 0.003141, -0.713818, 1.745526, 1.056005, -0.441330, 0.000238, -0.000583, -0.000353, 0.000147
351.808874, 24.100000, 111.500000, 0.000000, 0.000000, 145.500000, 12.400000, 40.500000, 84.000000, 0.014835, 0.003141, -0.713818, 1.745526, 1.056005, -0.441330, 0.000187, -0.000457, -0.000277, 0.000116
351.909818, 24.100000, 111.500000, 0.000000, 0.000000, 145.500000, 12.400000, 40.500000, 84.000000, 0.014835, 0.003141, -0.713818, 1.745526, 1.056005, -0.441330, 0.000142, -0.000346, -0.000210, 0.000088
352.010709, 24.100000, 111.500000, 0.000000, 0.000000, 145.500000, 12.400000, 40.500000, 84.000000, 0.014835, 0.003141, -0.713818, 1.745526, 1.056005, -0.441330, 0.000103, -0.000251, -0.000152, 0.000063
352.111680, 24.100000, 111.500000, 0.000000, 0.000000, 145.500000, 12.400000, 40.500000, 84.000000, 0.014835, 0.003141, -0.713818, 1.745526, 1.056005, -0.441330, 0.000070, -0.000170, -0.000103, 0.000043
352.212642, 24.100000, 111.500000, 0.000000, 0.000000, 145.500000, 12.400000, 40.500000, 84.000000, 0.014835, 0.003141, -0.713818, 1.745526, 1.056005, -0.441330, 0.000042, -0.000104, -0.000063, 0.000026
352.313528, 24.100000, 111.500000, 0.000000, 0.000000, 145.500000, 12.400000, 40.500000, 84.000000, 0.014835, 0.003141, -0.713818, 1.745526, 1.056005, -0.441330, 0.000021, -0.000051, -0.000031, 0.000013
352.414537, 24.100000, 111.500000, 0.000000, 0.000000, 145.500000, 12.400000, 40.500000, 84.000000, 0.014835, 0.003141, -0.713818, 1.745526, 1.056005, -0.441330, 0.000004, -0.000010, -0.000006, 0.000003
352.515469, 24.100000, 111.500000, 0.000000, 0.000000, 145.500000, 12.400000, 40.500000, 84.000000, 0.014835, 0.003141, -0.713818, 1.745526, 1.056005, -0.441330, -0.000008, 0.000020, 0.000012, -0.000005
352.616518, 24.100000, 111.500000, 0.000000, 0.000000, 145.500000, 12.400000, 40.500000, 84.000000, 0.014835, 0.003141, -0.713818, 1.745526, 1.056005, -0.441330, -0.000017, 0.000041, 0.000025, -0.000010
352.717576, 24.100000, 111.500000, 0.000000, 0.000000, 145.500000, 12.400000, 40.500000, 84.000000, 0.014835, 0.003141, -0.713818, 1.745526, 1.056005, -0.441330, -0.000023, 0.000055, 0.000034, -0.000014
352.818508, 24.100000, 111.500000, 0.000000, 0.000000, 145.500000, 12.400000, 40.500000, 84.000000, 0.014835, 0.003141, -0.713818, 1.745526, 1.056005, -0.441330, -0.000026, 0.000063, 0.000038, -0.000016
352.919464, 24.100000, 111.500000, 0.000000, 0.000000, 145.500000, 12.400000, 40.500000, 84.000000, 0.014835, 0.003141, -0.713818, 1.745526, 1.056005, -0.441330, -0.000027, 0.000066, 0.000040, -0.000017
353.020505, 24.100000, 111.500000, 0.000000, 0.000000, 145.500000, 12.400000, 40.500000, 84.000000, 0.014835, 0.003141, -0.713818, 1.745526, 1.056005, -0.441330, -0.000027, 0.000066, 0.000040, -0.000017
353.121695, 24.100000, 111.500000, 0.000000, 0.000000, 145.500000, 12.400000, 40.500000, 84.000000, 0.014835, 0.003141, -0.713818, 1.745526, 1.056005, -0.441330, -0.000026, 0.000063, 0.000038, -0.000016
353.222661, 24.100000, 111.500000, 0.000000, 0.000000, 145.500000, 12.400000, 40.500000, 84.000000, 0.014835, 0.003141, -0.713818, 1.745526, 1.056005, -0.441330, -0.000024, 0.000058, 0.000035, -0.000015
353.323594, 24.100000, 111.500000, 0.000000, 0.000000, 145.500000, 12.400000, 40.500000, 84.000000, 0.014835, 0.003141, -0.713818, 1.745526, 1.056005, -0.441330, -0.000021, 0.000052, 0.000031, -0.000013
353.424529, 24.100000, 111.500000, 0.000000, 0.000000, 145.500000, 12.400000, 40.500000, 84.000000, 0.014835, 0.003141, -0.713818, 1.745526, 1.056005, -0.441330, -0.000019, 0.000045, 0.000027, -0.000011
353.525466, 24.100000, 111.500000, 0.000000, 0.000000, 145.500000, 12.400000, 40.500000, 84.000000, 0.014835, 0.003141, -0.713818, 1.745526, 1.056005, -0.441330, -0.000016, 0.000039, 0.000023, -0.000010
353.626395, 24.100000, 111.500000, 0.000000, 0.000000, 145.500000, 12.400000, 40.500000, 84.000000, 0.014835, 0.003141, -0.713818, 1.745526, 1.056005, -0.441330, -0.000013, 0.000032, 0.000019, -0.000008
353.727341, 24.100000, 111.500000, 0.000000, 0.000000, 145.500000, 12.400000, 40.500000, 84.000000, 0.014835, 0.003141, -0.713818, 1.745526, 1.056005, -0.441330, -0.000011, 0.000026, 0.000016, -0.000007
353.828337, 24.100000, 111.500000, 0.000000, 0.000000, 145.500000, 12.400000, 40.500000, 84.000000, 0.014835, 0.003141, -0.713818, 1.745526, 1.056005, -0.441330, -0.000008, 0.000021, 0.000012, -0.000005
353.929242, 24.100000, 111.500000, 0.000000, 0.000000, 145.500000, 12.400000, 40.500000, 84.000000, 0.014835, 0.003141, -0.713818, 1.745526, 1.056005, -0.441330, -0.000006, 0.000016, 0.000009, -0.000004
354.030009, 24.100000, 111.500000, 0.000000, 0.000000, 145.500000, 12.400000, 40.500000, 84.000000, 0.014835, 0.003141, -0.713818, 1.745526, 1.056005, -0.441330, -0.000005, 0.000011, 0.000007, -0.000003
354.131198, 24.100000, 111.500000, 0.000000, 0.000000, 145.500000, 12.400000, 40.500000, 84.000000, 0.014835, 0.003141, -0.713818, 1.745526, 1.056005, -0.441330, -0.000003, 0.000008, 0.000005, -0.000002
354.232083, 24.100000, 111.500000, 0.000000, 0.000000, 145.500000, 12.400000, 40.500000, 84.000000, 0.014835, 0.003141, -0.713818, 1.745526, 1.056005, -0.441330, -0.000002, 0.000005, 0.000003, -0.000001
354.333051, 24.100000, 111.500000, 0.000000, 0.000000, 145.500000, 12.400000, 40.500000, 84.000000, 0.014835, 0.003141, -0.713818, 1.745526, 1.056005, -0.441330, -0.000001, 0.000002, 0.000001, -0.000001
354.433999, 24.100000, 111.500000, 0.000000, 0.000000, 145.500000, 12.400000, 40.500000, 84.000000, 0.014835, 0.003141, -0.713818, 1.745526, 1.056005, -0.441330, -0.000000, 0.000001, 0.000000, -0.000000
354.535034, 24.100000, 111.500000, 0.000000, 0.000000, 145.500000, 12.400000, 40.500000, 84.000000, 0.014835, 0.003141, -0.713818, 1.745526, 1.056005, -0.441330, 0.000000, -0.000001, -0.000000, 0.000000
354.635985, 24.100000, 111.500000, 0.000000, 0.000000, 145.500000, 12.400000, 40.500000, 84.000000, 0.014835, 0.003141, -0.713818, 1.745526, 1.056005, -0.441330, 0.000001, -0.000002, -0.000001, 0.000000
354.736871, 24.100000, 111.500000, 0.000000, 0.000000, 145.500000, 12.400000, 40.500000, 84.000000, 0.014835, 0.003141, -0.713818, 1.745526, 1.056005, -0.441330, 0.000001, -0.000002, -0.000001, 0.000001
354.837897, 24.100000, 111.500000, 0.000000, 0.000000, 145.500000, 12.400000, 40.500000, 84.000000, 0.014835, 0.003141, -0.713818, 1.745526, 1.056005, -0.441330, 0.000001, -0.000003, -0.000002, 0.000001
354.938850, 24.100000, 111.500000, 0.000000, 0.000000, 145.500000, 12.400000, 40.500000, 84.000000, 0.014835, 0.003141, -0.713818, 1.745526, 1.056005, -0.441330, 0.000001, -0.000003, -0.000002, 0.000001
355.039805, 24.100000, 111.500000, 0.000000, 0.000000, 145.500000, 12.400000, 40.500000, 84.000000, 0.014835, 0.003141, -0.713818, 1.745526, 1.056005, -0.441330, 0.000001, -0.000003, -0.000002, 0.000001
355.140757, 24.100000, 111.500000, 0.000000, 0.000000, 145.500000, 12.400000, 40.500000, 84.000000, 0.014835, 0.003141, -0.713818, 1.745526, 1.056005, -0.441330, 0.000001, -0.000003, -0.000002, 0.000001
355.241707, 24.100000, 111.500000, 0.000000, 0.000000, 145.500000, 12.400000, 40.500000, 84.000000, 0.014835, 0.003141, -0.713818, 1.745526, 1.056005, -0.441330, 0.000001, -0.000003, -0.000002, 0.000001
355.342659, 24.100000, 111.500000, 0.000000, 0.000000, 145.500000, 12.400000, 40.500000, 84.000000, 0.014835, 0.003141, -0.713818, 1.745526, 1.056005, -0.441330, 0.000001, -0.000002, -0.000001, 0.000001
355.443612, 24.100000, 111.500000, 0.000000, 0.000000, 145.500000, 12.400000, 40.500000, 84.000000, 0.014835, 0.003141, -0.713818, 1.745526, 1.056005, -0.441330, 0.000001, -0.000002, -0.000001, 0.000001
355.544579, 24.100000, 111.500000, 0.000000, 0.000000, 145.500000, 12.400000, 40.500000, 84.000000, 0.014835, 0.003141, -0.713818, 1.745526, 1.056005, -0.441330, 0.000001, -0.000002, -0.000001, 0.000000
355.645528, 24.100000, 111.500000, 0.000000, 0.000000, 145.500000, 12.400000, 40.500000, 84.000000, 0.014835, 0.003141, -0.713818, 1.745526, 1.056005, -0.441330, 0.000001, -0.000001, -0.000001, 0.000000
355.746478, 24.100000, 111.500000, 0.000000, 0.000000, 145.500000, 12.400000, 40.500000, 84.000000, 0.014835, 0.003141, -0.713818, 1.745526, 1.056005, -0.441330, 0.000000, -0.000001, -0.000001, 0.000000
355.847433, 24.100000, 111.500000, 0.000000, 0.000000, 145.500000, 12.400000, 40.500000, 84.000000, 0.014835, 0.003141, -0.713818, 1.745526, 1.056005, -0.441330, 0.000000, -0.000001, -0.000001, 0.000000
355.948381, 24.100000, 111.500000, 0.000000, 0.000000, 145.500000, 12.400000, 40.500000, 84.000000, 0.014835, 0.003141, -0.713818, 1.745526, 1.056005, -0.441330, 0.000000, -0.000001, -0.000000, 0.000000
356.049333, 24.100000, 111.500000, 0.000000, 0.000000, 145.500000, 12.400000, 40.500000, 84.000000, 0.014835, 0.003141, -0.713818, 1.745526, 1.056005, -0.441330, 0.000000, -0.000001, -0.000000, 0.000000
356.150281, 24.100000, 111.500000, 0.000000, 0.000000, 145.500000, 12.400000, 40.500000, 84.000000, 0.014835, 0.003141, -0.713818, 1.745526, 1.056005, -0.441330, 0.000000, -0.000000, -0.000000, 0.000000
356.251229, 24.100000, 111.500000, 0.000000, 0.000000, 145.500000, 12.400000, 40.500000, 84.000000, 0.014835, 0.003141, -0.713818, 1.745526, 1.056005, -0.441330, 0.000000, -0.000000, -0.000000, 0.000000
356.352259, 24.100000, 111.500000, 0.000000, 0.000000, 145.500000, 12.400000, 40.500000, 84.000000, 0.014835, 0.003141, -0.713818, 1.745526, 1.056005, -0.441330, 0.000000, -0.000000, -0.000000, 0.000000
356.453209, 24.100000, 111.500000, 0.000000, 0.000000, 145.500000, 12.400000, 40.500000, 84.000000, 0.014835, 0.003141, -0.713818, 1.745526, 1.056005, -0.441330, 0.000000, -0.000000, -0.000000, 0.000000
356.554146, 24.100000, 111.500000, 0.000000, 0.000000, 145.500000, 12.400000, 40.500000, 84.000000, 0.014835, 0.003141, -0.713818, 1.745526, 1.056005, -0.441330, -0.000000, 0.000000, 0.000000, -0.000000
356.655099, 24.100000, 111.500000, 0.000000, 0.000000, 145.500000, 12.400000, 40.500000, 84.000000, 0.014835, 0.003141, -0.713818, 1.745526, 1.056005, -0.441330, -0.000000, 0.000000, 0.000000, -0.000000
356.756050, 24.100000, 111.500000, 0.000000, 0.000000, 145.500000, 12.400000, 40.500000, 84.000000, 0.014835, 0.003141, -0.713818, 1.745526, 1.056005, -0.441330, -0.000000, 0.000000, 0.000000, -0.000000
356.857003, 24.100000, 111.500000, 0.000000, 0.000000, 145.500000, 12.400000, 40.500000, 84.000000, 0.014835, 0.003141, -0.713818, 1.745526, 1.056005, -0.441330, -0.000000, 0.000000, 0.000000, -0.000000
356.957951, 24.100000, 111.500000, 0.000000, 0.000000, 145.500000, 12.400000, 40.500000, 84.000000, 0.014835, 0.003141, -0.713818, 1.745526, 1.056005, -0.441330, -0.000000, 0.000000, 0.000000, -0.000000
357.058913, 24.100000, 111.500000, 0.000000, 0.000000, 145.500000, 12.400000, 40.500000, 84.000000, 0.014835, 0.003141, -0.713818, 1.745526, 1.056005, -0.441330, -0.000000, 0.000000, 0.000000, -0.000000
357.159871, 24.100000, 111.500000, 0.000000, 0.000000, 145.500000, 12.400000, 40.500000, 84.000000, 0.014835, 0.003141, -0.713818, 1.745526, 1.056005, -0.441330, -0.000000, 0.000000, 0.000000, -0.000000
357.260756, 24.100000, 111.500000, 0.000000, 0.000000, 145.500000, 12.400000, 40.500000, 84.000000, 0.014835, 0.003141, -0.713818, 1.745526, 1.056005, -0.441330, -0.000000, 0.000000, 0.000000, -0.000000
357.361710, 24.100000, 111.500000, 0.000000, 0.000000, 145.500000, 12.400000, 40.500000, 84.000000, 0.014835, 0.003141, -0.713818, 1.745526, 1.056005, -0.441330, -0.000000, 0.000000, 0.000000, -0.000000
357.462745, 24.100000, 111.500000, 0.000000, 0.000000, 145.500000, 12.400000, 40.500000, 84.000000, 0.014835, 0.003141, -0.713818, 1.745526, 1.056005, -0.441330, -0.000000, 0.000000, 0.000000, -0.000000
357.563689, 24.100000, 111.500000, 0.000000, 0.000000, 145.500000, 12.400000, 40.500000, 84.000000, 0.014835, 0.003141, -0.713818, 1.745526, 1.056005, -0.441330, -0.000000, 0.000000, 0.000000, -0.000000
357.664630, 24.100000, 111.500000, 0.000000, 0.000000, 145.500000, 12.400000, 40.500000, 84.000000, 0.014835, 0.003141, -0.713818, 1.745526, 1.056005, -0.441330, -0.000000, 0.000000, 0.000000, -0.000000
357.765579, 24.100000, 111.500000, 0.000000, 0.000000, 145.500000, 12.400000, 40.500000, 84.000000, 0.014835, 0.003141, -0.713818, 1.745526, 1.056005, -0.441330, -0.000000, 0.000000, 0.000000, -0.000000
357.866551, 24.100000, 111.500000, 0.000000, 0.000000, 145.500000, 12.400000, 40.500000, 84.000000, 0.014835, 0.003141, -0.713818, 1.745526, 1.056005, -0.441330, -0.000000, 0.000000, 0.000000, -0.000000
357.967502, 24.100000, 111.500000, 0.000000, 0.000000, 145.500000, 12.400000, 40.500000, 84.000000, 0.014835, 0.003141, -0.713818, 1.745526, 1.056005, -0.441330, -0.000000, 0.000000, 0.000000, -0.000000
358.068475, 24.100000, 111.500000, 0.000000, 0.000000, 145.500000, 12.400000, 40.500000, 84.000000, 0.014835, 0.003141, -0.713818, 1.745526, 1.056005, -0.441330, -0.000000, 0.000000, 0.000000, -0.000000
358.169444, 24.100000, 111.500000, 0.000000, 0.000000, 145.500000, 12.400000, 40.500000, 84.000000, 0.014835, 0.003141, -0.713818, 1.745526, 1.056005, -0.441330, -0.000000, 0.000000, 0.000000, -0.000000
358.270586, 24.100000, 111.500000, 0.000000, 0.000000, 145.500000, 12.400000, 40.500000, 84.000000, 0.014835, 0.003141, -0.713818, 1.745526, 1.056005, -0.441330, -0.000000, 0.000000, 0.000000, -0.000000
358.371554, 24.100000, 111.500000, 0.000000, 0.000000, 145.500000, 12.400000, 40.500000, 84.000000, 0.014835, 0.003141, -0.713818, 1.745526, 1.056005, -0.441330, -0.000000, 0.000000, 0.000000, -0.000000
358.472612, 24.100000, 111.500000, 0.000000, 0.000000, 145.500000, 12.400000, 40.500000, 84.000000, 0.014835, 0.003141, -0.713818, 1.745526, 1.056005, -0.441330, -0.000000, 0.000000, 0.000000, -0.000000
358.573664, 24.100000, 111.500000, 0.000000, 0.000000, 145.500000, 12.400000, 40.500000, 84.000000, 0.014835, 0.003141, -0.713818, 1.745526, 1.056005, -0.441330, 0.000000, -0.000000, -0.000000, 0.000000
358.674720, 24.100000, 111.500000, 0.000000, 0.000000, 145.500000, 12.400000, 40.500000, 84.000000, 0.014835, 0.003141, -0.713818, 1.745526, 1.056005, -0.441330, 0.000000, -0.000000, -0.000000, 0.000000
358.775715, 24.100000, 111.500000, 0.000000, 0.000000, 145.500000, 12.400000, 40.500000, 84.000000, 0.014835, 0.003141, -0.713818, 1.745526, 1.056005, -0.441330, 0.000000, -0.000000, -0.000000, 0.000000
358.876774, 24.100000, 111.500000, 0.000000, 0.000000, 145.500000, 12.400000, 40.500000, 84.000000, 0.014835, 0.003141, -0.713818, 1.745526, 1.056005, -0.441330, 0.000000, -0.000000, -0.000000, 0.000000
358.977918, 24.100000, 111.500000, 0.000000, 0.000000, 145.500000, 12.400000, 40.500000, 84.000000, 0.014835, 0.003141, -0.713818, 1.745526, 1.056005, -0.441330, 0.000000, -0.000000, -0.000000, 0.000000
359.078879, 24.100000, 111.500000, 0.000000, 0.000000, 145.500000, 12.400000, 40.500000, 84.000000, 0.014835, 0.003141, -0.713818, 1.745526, 1.056005, -0.441330, 0.000000, -0.000000, -0.000000, 0.000000
359.179903, 24.100000, 111.500000, 0.000000, 0.000000, 145.500000, 12.400000, 40.500000, 84.000000, 0.014835, 0.003141, -0.713818, 1.745526, 1.056005, -0.441330, 0.000000, -0.000000, -0.000000, 0.000000
359.281047, 24.100000, 111.500000, 0.000000, 0.000000, 145.500000, 12.400000, 40.500000, 84.000000, 0.014835, 0.003141, -0.713818, 1.745526, 1.056005, -0.441330, 0.000000, -0.000000, -0.000000, 0.000000
359.382187, 24.100000, 111.500000, 0.000000, 0.000000, 145.500000, 12.400000, 40.500000, 84.000000, 0.014835, 0.003141, -0.713818, 1.745526, 1.056005, -0.441330, 0.000000, -0.000000, -0.000000, 0.000000
359.483156, 24.100000, 111.500000, 0.000000, 0.000000, 145.500000, 12.400000, 40.500000, 84.000000, 0.014835, 0.003141, -0.713818, 1.745526, 1.056005, -0.441330, 0.000000, -0.000000, -0.000000, 0.000000
359.584296, 24.100000, 111.500000, 0.000000, 0.000000, 145.500000, 12.400000, 40.500000, 84.000000, 0.014835, 0.003141, -0.713818, 1.745526, 1.056005, -0.441330, 0.000000, -0.000000, -0.000000, 0.000000
359.685185, 24.100000, 111.500000, 0.000000, 0.000000, 145.500000, 12.400000, 40.500000, 84.000000, 0.014835, 0.003141, -0.713818, 1.745526, 1.056005, -0.441330, 0.000000, -0.000000, -0.000000, 0.000000
359.786244, 24.100000, 111.500000, 0.000000, 0.000000, 145.500000, 12.400000, 40.500000, 84.000000, 0.014835, 0.003141, -0.713818, 1.745526, 1.056005, -0.441330, 0.000000, -0.000000, -0.000000, 0.000000
359.887214, 24.100000, 111.500000, 0.000000, 0.000000, 145.500000, 12.400000, 40.500000, 84.000000, 0.014835, 0.003141, -0.713818, 1.745526, 1.056005, -0.441330, 0.000000, -0.000000, -0.000000, 0.000000
359.988410, 24.100000, 111.500000, 0.000000, 0.000000, 145.500000, 12.400000, 40.500000, 84.000000, 0.014835, 0.003141, -0.713818, 1.745526, 1.056005, -0.441330, 0.000000, -0.000000, -0.000000, 0.000000
360.089323, 24.100000, 111.500000, 0.000000, 0.000000, 145.500000, 12.400000, 40.500000, 84.000000, 0.014835, 0.003141, -0.713818, 1.745526, 1.056005, -0.441330, 0.000000, -0.000000, -0.000000, 0.000000
360.190397, 24.100000, 111.500000, 0.000000, 0.000000, 145.500000, 12.400000, 40.500000, 84.000000, 0.014835, 0.003141, -0.713818, 1.745526, 1.056005, -0.441330, 0.000000, -0.000000, -0.000000, 0.000000
360.291299, 24.100000, 111.500000, 0.000000, 0.000000, 145.500000, 12.400000, 40.500000, 84.000000, 0.014835, 0.003141, -0.713818, 1.745526, 1.056005, -0.441330, 0.000000, -0.000000, -0.000000, 0.000000
360.392372, 24.100000, 111.500000, 0.000000, 0.000000, 145.500000, 12.400000, 40.500000, 84.000000, 0.014835, 0.003141, -0.713818, 1.745526, 1.056005, -0.441330, 0.000000, -0.000000, -0.000000, 0.000000
360.493385, 24.100000, 111.500000, 0.000000, 0.000000, 145.500000, 12.400000, 40.500000, 84.000000, 0.014835, 0.003141, -0.713818, 1.745526, 1.056005, -0.441330, 0.000000, -0.000000, -0.000000, 0.000000
360.594478, 24.100000, 111.500000, 0.000000, 0.000000, 145.500000, 12.400000, 40.500000, 84.000000, 0.014835, 0.003141, -0.713818, 1.745526, 1.056005, -0.441330, -0.000000, 0.000000, 0.000000, -0.000000
360.695398, 24.100000, 111.500000, 0.000000, 0.000000, 145.500000, 12.400000, 40.500000, 84.000000, 0.014835, 0.003141, -0.713818, 1.745526, 1.056005, -0.441330, -0.000000, 0.000000, 0.000000, -0.000000
360.796357, 24.100000, 111.500000, 0.000000, 0.000000, 145.500000, 12.400000, 40.500000, 84.000000, 0.014835, 0.003141, -0.713818, 1.745526, 1.056005, -0.441330, -0.000000, 0.000000, 0.000000, -0.000000
360.897311, 24.100000, 111.500000, 0.000000, 0.000000, 145.500000, 12.400000, 40.500000, 84.000000, 0.014835, 0.003141, -0.713818, 1.745526, 1.056005, -0.441330, -0.000000, 0.000000, 0.000000, -0.000000
360.998266, 24.100000, 111.500000, 0.000000, 0.000000, 145.500000, 12.400000, 40.500000, 84.000000, 0.014835, 0.003141, -0.713818, 1.745526, 1.056005, -0.441330, -0.000000, 0.000000, 0.000000, -0.000000
361.099198, 24.100000, 111.500000, 0.000000, 0.000000, 145.500000, 12.400000, 40.500000, 84.000000, 0.014835, 0.003141, -0.713818, 1.745526, 1.056005, -0.441330, -0.000000, 0.000000, 0.000000, -0.000000
361.200152, 24.100000, 111.500000, 0.000000, 0.000000, 145.500000, 12.400000, 40.500000, 84.000000, 0.014835, 0.003141, -0.713818, 1.745526, 1.056005, -0.441330, -0.000000, 0.000000, 0.000000, -0.000000
361.301101, 24.100000, 111.500000, 0.000000, 0.000000, 145.500000, 12.400000, 40.500000, 84.000000, 0.014835, 0.003141, -0.713818, 1.745526, 1.056005, -0.441330, -0.000000, 0.000000, 0.000000, -0.000000
361.401969, 24.100000, 111.500000, 0.000000, 0.000000, 145.500000, 12.400000, 40.500000, 84.000000, 0.014835, 0.003141, -0.713818, 1.745526, 1.056005, -0.441330, -0.000000, 0.000000, 0.000000, -0.000000
361.502920, 24.100000, 111.500000, 0.000000, 0.000000, 145.500000, 12.400000, 40.500000, 84.000000, 0.014835, 0.003141, -0.713818, 1.745526, 1.056005, -0.441330, -0.000000, 0.000000, 0.000000, -0.000000
361.603895, 24.100000, 111.500000, 0.000000, 0.000000, 145.500000, 12.400000, 40.500000, 84.000000, 0.014835, 0.003141, -0.713818, 1.745526, 1.056005, -0.441330, -0.000000, 0.000000, 0.000000, -0.000000
361.704851, 24.100000, 111.500000, 0.000000, 0.000000, 145.500000, 12.400000, 40.500000, 84.000000, 0.014835, 0.003141, -0.713818, 1.745526, 1.056005, -0.441330, -0.000000, 0.000000, 0.000000, -0.000000
361.805835, 24.100000, 111.500000, 0.000000, 0.000000, 145.500000, 12.400000, 40.500000, 84.000000, 0.014835, 0.003141, -0.713818, 1.745526, 1.056005, -0.441330, -0.000000, 0.000000, 0.000000, -0.000000
361.906755, 24.100000, 111.500000, 0.000000, 0.000000, 145.500000, 12.400000, 40.500000, 84.000000, 0.014835, 0.003141, -0.713818, 1.745526, 1.056005, -0.441330, -0.000000, 0.000000, 0.000000, -0.000000
362.007744, 24.100000, 111.500000, 0.000000, 0.000000, 145.500000, 12.400000, 40.500000, 84.000000, 0.014835, 0.003141, -0.713818, 1.745526, 1.056005, -0.441330, -0.000000, 0.000000, 0.000000, -0.000000
362.108633, 24.100000, 111.500000, 0.000000, 0.000000, 145.500000, 12.400000, 40.500000, 84.000000, 0.014835, 0.003141, -0.713818, 1.745526, 1.056005, -0.441330, -0.000000, 0.000000, 0.000000, -0.000000
362.209602, 24.100000, 111.500000, 0.000000, 0.000000, 145.500000, 12.400000, 40.500000, 84.000000, 0.014835, 0.003141, -0.713818, 1.745526, 1.056005, -0.441330, -0.000000, 0.000000, 0.000000, -0.000000
362.310570, 24.100000, 111.500000, 0.000000, 0.000000, 145.500000, 12.400000, 40.500000, 84.000000, 0.014835, 0.003141, -0.713818, 1.745526, 1.056005, -0.441330, -0.000000, 0.000000, 0.000000, -0.000000
362.411456, 24.100000, 111.500000, 0.000000, 0.000000, 145.500000, 12.400000, 40.500000, 84.000000, 0.014835, 0.003141, -0.713818, 1.745526, 1.056005, -0.441330, -0.000000, 0.000000, 0.000000, -0.000000
362.512432, 24.100000, 111.500000, 0.000000, 0.000000, 145.500000, 12.400000, 40.500000, 84.000000, 0.014835, 0.003141, -0.713818, 1.745526, 1.056005, -0.441330, -0.000000, 0.000000, 0.000000, -0.000000
362.613404, 24.100000, 111.500000, 0.000000, 0.000000, 145.500000, 12.400000, 40.500000, 84.000000, 0.014835, 0.003141, -0.713818, 1.745526, 1.056005, -0.441330, 0.000000, -0.000000, -0.000000, 0.000000
362.714351, 24.100000, 111.500000, 0.000000, 0.000000, 145.500000, 12.400000, 40.500000, 84.000000, 0.014835, 0.003141, -0.713818, 1.745526, 1.056005, -0.441330, 0.000000, -0.000000, -0.000000, 0.000000
362.815257, 24.100000, 111.500000, 0.000000, 0.000000, 145.500000, 12.400000, 40.500000, 84.000000, 0.014835, 0.003141, -0.713818, 1.745526, 1.056005, -0.441330, 0.000000, -0.000000, -0.000000, 0.000000
362.916228, 24.100000, 111.500000, 0.000000, 0.000000, 145.500000, 12.400000, 40.500000, 84.000000, 0.014835, 0.003141, -0.713818, 1.745526, 1.056005, -0.441330, 0.000000, -0.000000, -0.000000, 0.000000
363.017118, 24.100000, 111.500000, 0.000000, 0.000000, 145.500000, 12.400000, 40.500000, 84.000000, 0.014835, 0.003141, -0.713818, 1.745526, 1.056005, -0.441330, 0.000000, -0.000000, -0.000000, 0.000000
363.118106, 24.100000, 111.500000, 0.000000, 0.000000, 145.500000, 12.400000, 40.500000, 84.000000, 0.014835, 0.003141, -0.713818, 1.745526, 1.056005, -0.441330, 0.000000, -0.000000, -0.000000, 0.000000
363.218990, 24.100000, 111.500000, 0.000000, 0.000000, 145.500000, 12.400000, 40.500000, 84.000000, 0.014835, 0.003141, -0.713818, 1.745526, 1.056005, -0.441330, 0.000000, -0.000000, -0.000000, 0.000000
363.319955, 24.100000, 111.500000, 0.000000, 0.000000, 145.500000, 12.400000, 40.500000, 84.000000, 0.014835, 0.003141, -0.713818, 1.745526, 1.056005, -0.441330, 0.000000, -0.000000, -0.000000, 0.000000
363.420929, 24.100000, 111.500000, 0.000000, 0.000000, 145.500000, 12.400000, 40.500000, 84.000000, 0.014835, 0.003141, -0.713818, 1.745526, 1.056005, -0.441330, 0.000000, -0.000000, -0.000000, 0.000000
363.521931, 24.100000, 111.500000, 0.000000, 0.000000, 145.500000, 12.400000, 40.500000, 84.000000, 0.014835, 0.003141, -0.713818, 1.745526, 1.056005, -0.441330, 0.000000, -0.000000, -0.000000, 0.000000
363.622842, 24.100000, 111.500000, 0.000000, 0.000000, 145.500000, 12.400000, 40.500000, 84.000000, 0.014835, 0.003141, -0.713818, 1.745526, 1.056005, -0.441330, 0.000000, -0.000000, -0.000000, 0.000000
363.723787, 24.100000, 111.500000, 0.000000, 0.000000, 145.500000, 12.400000, 40.500000, 84.000000, 0.014835, 0.003141, -0.713818, 1.745526, 1.056005, -0.441330, 0.000000, -0.000000, -0.000000, 0.000000
363.824756, 24.100000, 111.500000, 0.000000, 0.000000, 145.500000, 12.400000, 40.500000, 84.000000, 0.014835, 0.003141, -0.713818, 1.745526, 1.056005, -0.441330, 0.000000, -0.000000, -0.000000, 0.000000
363.925693, 24.100000, 111.500000, 0.000000, 0.000000, 145.500000, 12.400000, 40.500000, 84.000000, 0.014835, 0.003141, -0.713818, 1.745526, 1.056005, -0.441330, 0.000000, -0.000000, -0.000000, 0.000000
364.026698, 24.100000, 111.500000, 0.000000, 0.000000, 145.500000, 12.400000, 40.500000, 84.000000, 0.014835, 0.003141, -0.713818, 1.745526, 1.056005, -0.441330, 0.000000, -0.000000, -0.000000, 0.000000
364.127601, 24.100000, 111.500000, 0.000000, 0.000000, 145.500000, 12.400000, 40.500000, 84.000000, 0.014835, 0.003141, -0.713818, 1.745526, 1.056005, -0.441330, 0.000000, -0.000000, -0.000000, 0.000000
364.228757, 24.100000, 111.500000, 0.000000, 0.000000, 145.500000, 12.400000, 40.500000, 84.000000, 0.014835, 0.003141, -0.713818, 1.745526, 1.056005, -0.441330, 0.000000, -0.000000, -0.000000, 0.000000
364.329724, 24.100000, 111.500000, 0.000000, 0.000000, 145.500000, 12.400000, 40.500000, 84.000000, 0.014835, 0.003141, -0.713818, 1.745526, 1.056005, -0.441330, 0.000000, -0.000000, -0.000000, 0.000000
364.430779, 24.100000, 111.500000, 0.000000, 0.000000, 145.500000, 12.400000, 40.500000, 84.000000, 0.014835, 0.003141, -0.713818, 1.745526, 1.056005, -0.441330, 0.000000, -0.000000, -0.000000, 0.000000
364.531699, 24.100000, 111.500000, 0.000000, 0.000000, 145.500000, 12.400000, 40.500000, 84.000000, 0.014835, 0.003141, -0.713818, 1.745526, 1.056005, -0.441330, 0.000000, -0.000000, -0.000000, 0.000000
364.632650, 24.100000, 111.500000, 0.000000, 0.000000, 145.500000, 12.400000, 40.500000, 84.000000, 0.014835, 0.003141, -0.713818, 1.745526, 1.056005, -0.441330, -0.000000, 0.000000, 0.000000, -0.000000
364.733637, 24.100000, 111.500000, 0.000000, 0.000000, 145.500000, 12.400000, 40.500000, 84.000000, 0.014835, 0.003141, -0.713818, 1.745526, 1.056005, -0.441330, -0.000000, 0.000000, 0.000000, -0.000000
364.834610, 24.100000, 111.500000, 0.000000, 0.000000, 145.500000, 12.400000, 40.500000, 84.000000, 0.014835, 0.003141, -0.713818, 1.745526, 1.056005, -0.441330, -0.000000, 0.000000, 0.000000, -0.000000
364.935581, 24.100000, 111.500000, 0.000000, 0.000000, 145.500000, 12.400000, 40.500000, 84.000000, 0.014835, 0.003141, -0.713818, 1.745526, 1.056005, -0.441330, -0.000000, 0.000000, 0.000000, -0.000000
365.036535, 24.100000, 111.500000, 0.000000, 0.000000, 145.500000, 12.400000, 40.500000, 84.000000, 0.014835, 0.003141, -0.713818, 1.745526, 1.056005, -0.441330, -0.000000, 0.000000, 0.000000, -0.000000
365.137509, 24.100000, 111.500000, 0.000000, 0.000000, 145.500000, 12.400000, 40.500000, 84.000000, 0.014835, 0.003141, -0.713818, 1.745526, 1.056005, -0.441330, -0.000000, 0.000000, 0.000000, -0.000000
365.238476, 24.100000, 111.500000, 0.000000, 0.000000, 145.500000, 12.400000, 40.500000, 84.000000, 0.014835, 0.003141, -0.713818, 1.745526, 1.056005, -0.441330, -0.000000, 0.000000, 0.000000, -0.000000
365.339444, 24.100000, 111.500000, 0.000000, 0.000000, 145.500000, 12.400000, 40.500000, 84.000000, 0.014835, 0.003141, -0.713818, 1.745526, 1.056005, -0.441330, -0.000000, 0.000000, 0.000000, -0.000000
365.440391, 24.100000, 111.500000, 0.000000, 0.000000, 145.500000, 12.400000, 40.500000, 84.000000, 0.014835, 0.003141, -0.713818, 1.745526, 1.056005, -0.441330, -0.000000, 0.000000, 0.000000, -0.000000
365.541365, 24.100000, 111.500000, 0.000000, 0.000000, 145.500000, 12.400000, 40.500000, 84.000000, 0.014835, 0.003141, -0.713818, 1.745526, 1.056005, -0.441330, -0.000000, 0.000000, 0.000000, -0.000000
365.642270, 24.100000, 111.500000, 0.000000, 0.000000, 145.500000, 12.400000, 40.500000, 84.000000, 0.014835, 0.003141, -0.713818, 1.745526, 1.056005, -0.441330, -0.000000, 0.000000, 0.000000, -0.000000
365.743409, 24.100000, 111.500000, 0.000000, 0.000000, 145.500000, 12.400000, 40.500000, 84.000000, 0.014835, 0.003141, -0.713818, 1.745526, 1.056005, -0.441330, -0.000000, 0.000000, 0.000000, -0.000000
365.844382, 24.100000, 111.500000, 0.000000, 0.000000, 145.500000, 12.400000, 40.500000, 84.000000, 0.014835, 0.003141, -0.713818, 1.745526, 1.056005, -0.441330, -0.000000, 0.000000, 0.000000, -0.000000
365.945438, 24.100000, 111.500000, 0.000000, 0.000000, 145.500000, 12.400000, 40.500000, 84.000000, 0.014835, 0.003141, -0.713818, 1.745526, 1.056005, -0.441330, -0.000000, 0.000000, 0.000000, -0.000000
366.046422, 24.100000, 111.500000, 0.000000, 0.000000, 145.500000, 12.400000, 40.500000, 84.000000, 0.014835, 0.003141, -0.713818, 1.745526, 1.056005, -0.441330, -0.000000, 0.000000, 0.000000, -0.000000
366.147420, 24.100000, 111.500000, 0.000000, 0.000000, 145.500000, 12.400000, 40.500000, 84.000000, 0.014835, 0.003141, -0.713818, 1.745526, 1.056005, -0.441330, -0.000000, 0.000000, 0.000000, -0.000000
366.248531, 24.100000, 111.500000, 0.000000, 0.000000, 145.500000, 12.400000, 40.500000, 84.000000, 0.014835, 0.003141, -0.713818, 1.745526, 1.056005, -0.441330, -0.000000, 0.000000, 0.000000, -0.000000
366.349579, 24.100000, 111.500000, 0.000000, 0.000000, 145.500000, 12.400000, 40.500000, 84.000000, 0.014835, 0.003141, -0.713818, 1.745526, 1.056005, -0.441330, -0.000000, 0.000000, 0.000000, -0.000000
366.450498, 24.100000, 111.500000, 0.000000, 0.000000, 145.500000, 12.400000, 40.500000, 84.000000, 0.014835, 0.003141, -0.713818, 1.745526, 1.056005, -0.441330, -0.000000, 0.000000, 0.000000, -0.000000
366.551597, 24.100000, 111.500000, 0.000000, 0.000000, 145.500000, 12.400000, 40.500000, 84.000000, 0.014835, 0.003141, -0.713818, 1.745526, 1.056005, -0.441330, -0.000000, 0.000000, 0.000000, -0.000000
366.652502, 24.100000, 111.500000, 0.000000, 0.000000, 145.500000, 12.400000, 40.500000, 84.000000, 0.014835, 0.003141, -0.713818, 1.745526, 1.056005, -0.441330, 0.000000, -0.000000, -0.000000, 0.000000
366.753428, 24.100000, 111.500000, 0.000000, 0.000000, 145.500000, 12.400000, 40.500000, 84.000000, 0.014835, 0.003141, -0.713818, 1.745526, 1.056005, -0.441330, 0.000000, -0.000000, -0.000000, 0.000000
366.854418, 24.100000, 111.500000, 0.000000, 0.000000, 145.500000, 12.400000, 40.500000, 84.000000, 0.014835, 0.003141, -0.713818, 1.745526, 1.056005, -0.441330, 0.000000, -0.000000, -0.000000, 0.000000
366.955323, 24.100000, 111.500000, 0.000000, 0.000000, 145.500000, 12.400000, 40.500000, 84.000000, 0.014835, 0.003141, -0.713818, 1.745526, 1.056005, -0.441330, 0.000000, -0.000000, -0.000000, 0.000000
367.056233, 24.100000, 111.500000, 0.000000, 0.000000, 145.500000, 12.400000, 40.500000, 84.000000, 0.014835, 0.003141, -0.713818, 1.745526, 1.056005, -0.441330, 0.000000, -0.000000, -0.000000, 0.000000
367.157224, 24.100000, 111.500000, 0.000000, 0.000000, 145.500000, 12.400000, 40.500000, 84.000000, 0.014835, 0.003141, -0.713818, 1.745526, 1.056005, -0.441330, 0.000000, -0.000000, -0.000000, 0.000000
367.258128, 24.100000, 111.500000, 0.000000, 0.000000, 145.500000, 12.400000, 40.500000, 84.000000, 0.014835, 0.003141, -0.713818, 1.745526, 1.056005, -0.441330, 0.000000, -0.000000, -0.000000, 0.000000
367.359123, 24.100000, 111.500000, 0.000000, 0.000000, 145.500000, 12.400000, 40.500000, 84.000000, 0.014835, 0.003141, -0.713818, 1.745526, 1.056005, -0.441330, 0.000000, -0.000000, -0.000000, 0.000000
367.460048, 24.100000, 111.500000, 0.000000, 0.000000, 145.500000, 12.400000, 40.500000, 84.000000, 0.014835, 0.003141, -0.713818, 1.745526, 1.056005, -0.441330, 0.000000, -0.000000, -0.000000, 0.000000
367.560972, 24.100000, 111.500000, 0.000000, 0.000000, 145.500000, 12.400000, 40.500000, 84.000000, 0.014835, 0.003141, -0.713818, 1.745526, 1.056005, -0.441330, 0.000000, -0.000000, -0.000000, 0.000000
367.661965, 24.100000, 111.500000, 0.000000, 0.000000, 145.500000, 12.400000, 40.500000, 84.000000, 0.014835, 0.003141, -0.713818, 1.745526, 1.056005, -0.441330, 0.000000, -0.000000, -0.000000, 0.000000
367.762867, 24.100000, 111.500000, 0.000000, 0.000000, 145.500000, 12.400000, 40.500000, 84.000000, 0.014835, 0.003141, -0.713818, 1.745526, 1.056005, -0.441330, 0.000000, -0.000000, -0.000000, 0.000000
367.863808, 24.100000, 111.500000, 0.000000, 0.000000, 145.500000, 12.400000, 40.500000, 84.000000, 0.014835, 0.003141, -0.713818, 1.745526, 1.056005, -0.441330, 0.000000, -0.000000, -0.000000, 0.000000
367.964712, 24.100000, 111.500000, 0.000000, 0.000000, 145.500000, 12.400000, 40.500000, 84.000000, 0.014835, 0.003141, -0.713818, 1.745526, 1.056005, -0.441330, 0.000000, -0.000000, -0.000000, 0.000000
368.065679, 24.100000, 111.500000, 0.000000, 0.000000, 145.500000, 12.400000, 40.500000, 84.000000, 0.014835, 0.003141, -0.713818, 1.745526, 1.056005, -0.441330, 0.000000, -0.000000, -0.000000, 0.000000
368.166629, 24.100000, 111.500000, 0.000000, 0.000000, 145.500000, 12.400000, 40.500000, 84.000000, 0.014835, 0.003141, -0.713818, 1.745526, 1.056005, -0.441330, 0.000000, -0.000000, -0.000000, 0.000000
368.267580, 24.100000, 111.500000, 0.000000, 0.000000, 145.500000, 12.400000, 40.500000, 84.000000, 0.014835, 0.003141, -0.713818, 1.745526, 1.056005, -0.441330, 0.000000, -0.000000, -0.000000, 0.000000
368.368530, 24.100000, 111.500000, 0.000000, 0.000000, 145.500000, 12.400000, 40.500000, 84.000000, 0.014835, 0.003141, -0.713818, 1.745526, 1.056005, -0.441330, 0.000000, -0.000000, -0.000000, 0.000000
368.469478, 24.100000, 111.500000, 0.000000, 0.000000, 145.500000, 12.400000, 40.500000, 84.000000, 0.014835, 0.003141, -0.713818, 1.745526, 1.056005, -0.441330, 0.000000, -0.000000, -0.000000, 0.000000
368.570423, 24.100000, 111.500000, 0.000000, 0.000000, 145.500000, 12.400000, 40.500000, 84.000000, 0.014835, 0.003141, -0.713818, 1.745526, 1.056005, -0.441330, 0.000000, -0.000000, -0.000000, 0.000000
368.671370, 24.100000, 111.500000, 0.000000, 0.000000, 145.500000, 12.400000, 40.500000, 84.000000, 0.014835, 0.003141, -0.713818, 1.745526, 1.056005, -0.441330, -0.000000, 0.000000, 0.000000, -0.000000
368.772327, 24.100000, 111.500000, 0.000000, 0.000000, 145.500000, 12.400000, 40.500000, 84.000000, 0.014835, 0.003141, -0.713818, 1.745526, 1.056005, -0.441330, -0.000000, 0.000000, 0.000000, -0.000000
368.873207, 24.100000, 111.500000, 0.000000, 0.000000, 145.500000, 12.400000, 40.500000, 84.000000, 0.014835, 0.003141, -0.713818, 1.745526, 1.056005, -0.441330, -0.000000, 0.000000, 0.000000, -0.000000
368.974147, 24.100000, 111.500000, 0.000000, 0.000000, 145.500000, 12.400000, 40.500000, 84.000000, 0.014835, 0.003141, -0.713818, 1.745526, 1.056005, -0.441330, -0.000000, 0.000000, 0.000000, -0.000000
369.075154, 24.100000, 111.500000, 0.000000, 0.000000, 145.500000, 12.400000, 40.500000, 84.000000, 0.014835, 0.003141, -0.713818, 1.745526, 1.056005, -0.441330, -0.000000, 0.000000, 0.000000, -0.000000
369.176101, 24.100000, 111.500000, 0.000000, 0.000000, 145.500000, 12.400000, 40.500000, 84.000000, 0.014835, 0.003141, -0.713818, 1.745526, 1.056005, -0.441330, -0.000000, 0.000000, 0.000000, -0.000000
369.276982, 24.100000, 111.500000, 0.000000, 0.000000, 145.500000, 12.400000, 40.500000, 84.000000, 0.014835, 0.003141, -0.713818, 1.745526, 1.056005, -0.441330, -0.000000, 0.000000, 0.000000, -0.000000
369.378036, 24.100000, 111.500000, 0.000000, 0.000000, 145.500000, 12.400000, 40.500000, 84.000000, 0.014835, 0.003141, -0.713818, 1.745526, 1.056005, -0.441330, -0.000000, 0.000000, 0.000000, -0.000000
369.479158, 24.100000, 111.500000, 0.000000, 0.000000, 145.500000, 12.400000, 40.500000, 84.000000, 0.014835, 0.003141, -0.713818, 1.745526, 1.056005, -0.441330, -0.000000, 0.000000, 0.000000, -0.000000
369.580113, 24.100000, 111.500000, 0.000000, 0.000000, 145.500000, 12.400000, 40.500000, 84.000000, 0.014835, 0.003141, -0.713818, 1.745526, 1.056005, -0.441330, -0.000000, 0.000000, 0.000000, -0.000000
369.681062, 24.100000, 111.500000, 0.000000, 0.000000, 145.500000, 12.400000, 40.500000, 84.000000, 0.014835, 0.003141, -0.713818, 1.745526, 1.056005, -0.441330, -0.000000, 0.000000, 0.000000, -0.000000
369.782100, 24.100000, 111.500000, 0.000000, 0.000000, 145.500000, 12.400000, 40.500000, 84.000000, 0.014835, 0.003141, -0.713818, 1.745526, 1.056005, -0.441330, -0.000000, 0.000000, 0.000000, -0.000000
369.883134, 24.100000, 111.500000, 0.000000, 0.000000, 145.500000, 12.400000, 40.500000, 84.000000, 0.014835, 0.003141, -0.713818, 1.745526, 1.056005, -0.441330, -0.000000, 0.000000, 0.000000, -0.000000
369.984167, 24.100000, 111.500000, 0.000000, 0.000000, 145.500000, 12.400000, 40.500000, 84.000000, 0.014835, 0.003141, -0.713818, 1.745526, 1.056005, -0.441330, -0.000000, 0.000000, 0.000000, -0.000000
370.085141, 24.100000, 111.500000, 0.000000, 0.000000, 145.500000, 12.400000, 40.500000, 84.000000, 0.014835, 0.003141, -0.713818, 1.745526, 1.056005, -0.441330, -0.000000, 0.000000, 0.000000, -0.000000
370.186033, 24.100000, 111.500000, 0.000000, 0.000000, 145.500000, 12.400000, 40.500000, 84.000000, 0.014835, 0.003141, -0.713818, 1.745526, 1.056005, -0.441330, -0.000000, 0.000000, 0.000000, -0.000000
370.287090, 24.100000, 111.500000, 0.000000, 0.000000, 145.500000, 12.400000, 40.500000, 84.000000, 0.014835, 0.003141, -0.713818, 1.745526, 1.056005, -0.441330, -0.000000, 0.000000, 0.000000, -0.000000
370.388059, 24.100000, 111.500000, 0.000000, 0.000000, 145.500000, 12.400000, 40.500000, 84.000000, 0.014835, 0.003141, -0.713818, 1.745526, 1.056005, -0.441330, -0.000000, 0.000000, 0.000000, -0.000000
370.489091, 24.100000, 111.500000, 0.000000, 0.000000, 145.500000, 12.400000, 40.500000, 84.000000, 0.014835, 0.003141, -0.713818, 1.745526, 1.056005, -0.441330, -0.000000, 0.000000, 0.000000, -0.000000
370.590233, 24.100000, 111.500000, 0.000000, 0.000000, 145.500000, 12.400000, 40.500000, 84.000000, 0.014835, 0.003141, -0.713818, 1.745526, 1.056005, -0.441330, -0.000000, 0.000000, 0.000000, -0.000000
370.691205, 24.100000, 111.500000, 0.000000, 0.000000, 145.500000, 12.400000, 40.500000, 84.000000, 0.014835, 0.003141, -0.713818, 1.745526, 1.056005, -0.441330, 0.000000, -0.000000, -0.000000, 0.000000
370.792179, 24.100000, 111.500000, 0.000000, 0.000000, 145.500000, 12.400000, 40.500000, 84.000000, 0.014835, 0.003141, -0.713818, 1.745526, 1.056005, -0.441330, 0.000000, -0.000000, -0.000000, 0.000000
370.893231, 24.100000, 111.500000, 0.000000, 0.000000, 145.500000, 12.400000, 40.500000, 84.000000, 0.014835, 0.003141, -0.713818, 1.745526, 1.056005, -0.441330, 0.000000, -0.000000, -0.000000, 0.000000
370.994218, 24.100000, 111.500000, 0.000000, 0.000000, 145.500000, 12.400000, 40.500000, 84.000000, 0.014835, 0.003141, -0.713818, 1.745526, 1.056005, -0.441330, 0.000000, -0.000000, -0.000000, 0.000000
371.095293, 24.100000, 111.500000, 0.000000, 0.000000, 145.500000, 12.400000, 40.500000, 84.000000, 0.014835, 0.003141, -0.713818, 1.745526, 1.056005, -0.441330, 0.000000, -0.000000, -0.000000, 0.000000
371.196351, 24.100000, 111.500000, 0.000000, 0.000000, 145.500000, 12.400000, 40.500000, 84.000000, 0.014835, 0.003141, -0.713818, 1.745526, 1.056005, -0.441330, 0.000000, -0.000000, -0.000000, 0.000000
371.297318, 24.100000, 111.500000, 0.000000, 0.000000, 145.500000, 12.400000, 40.500000, 84.000000, 0.014835, 0.003141, -0.713818, 1.745526, 1.056005, -0.441330, 0.000000, -0.000000, -0.000000, 0.000000
371.398386, 24.100000, 111.500000, 0.000000, 0.000000, 145.500000, 12.400000, 40.500000, 84.000000, 0.014835, 0.003141, -0.713818, 1.745526, 1.056005, -0.441330, 0.000000, -0.000000, -0.000000, 0.000000
371.499444, 24.100000, 111.500000, 0.000000, 0.000000, 145.500000, 12.400000, 40.500000, 84.000000, 0.014835, 0.003141, -0.713818, 1.745526, 1.056005, -0.441330, 0.000000, -0.000000, -0.000000, 0.000000
371.600463, 24.100000, 111.500000, 0.000000, 0.000000, 145.500000, 12.400000, 40.500000, 84.000000, 0.014835, 0.003141, -0.713818, 1.745526, 1.056005, -0.441330, 0.000000, -0.000000, -0.000000, 0.000000
371.701600, 24.100000, 111.500000, 0.000000, 0.000000, 145.500000, 12.400000, 40.500000, 84.000000, 0.014835, 0.003141, -0.713818, 1.745526, 1.056005, -0.441330, 0.000000, -0.000000, -0.000000, 0.000000
371.802492, 24.100000, 111.500000, 0.000000, 0.000000, 145.500000, 12.400000, 40.500000, 84.000000, 0.014835, 0.003141, -0.713818, 1.745526, 1.056005, -0.441330, 0.000000, -0.000000, -0.000000, 0.000000
371.903393, 24.100000, 111.500000, 0.000000, 0.000000, 145.500000, 12.400000, 40.500000, 84.000000, 0.014835, 0.003141, -0.713818, 1.745526, 1.056005, -0.441330, 0.000000, -0.000000, -0.000000, 0.000000
372.004357, 24.100000, 111.500000, 0.000000, 0.000000, 145.500000, 12.400000, 40.500000, 84.000000, 0.014835, 0.003141, -0.713818, 1.745526, 1.056005, -0.441330, 0.000000, -0.000000, -0.000000, 0.000000
372.105325, 24.100000, 111.500000, 0.000000, 0.000000, 145.500000, 12.400000, 40.500000, 84.000000, 0.014835, 0.003141, -0.713818, 1.745526, 1.056005, -0.441330, 0.000000, -0.000000, -0.000000, 0.000000
372.206379, 24.100000, 111.500000, 0.000000, 0.000000, 145.500000, 12.400000, 40.500000, 84.000000, 0.014835, 0.003141, -0.713818, 1.745526, 1.056005, -0.441330, 0.000000, -0.000000, -0.000000, 0.000000
372.307431, 24.100000, 111.500000, 0.000000, 0.000000, 145.500000, 12.400000, 40.500000, 84.000000, 0.014835, 0.003141, -0.713818, 1.745526, 1.056005, -0.441330, 0.000000, -0.000000, -0.000000, 0.000000
372.408489, 24.100000, 111.500000, 0.000000, 0.000000, 145.500000, 12.400000, 40.500000, 84.000000, 0.014835, 0.003141, -0.713818, 1.745526, 1.056005, -0.441330, 0.000000, -0.000000, -0.000000, 0.000000
372.509480, 24.100000, 111.500000, 0.000000, 0.000000, 145.500000, 12.400000, 40.500000, 84.000000, 0.014835, 0.003141, -0.713818, 1.745526, 1.056005, -0.441330, 0.000000, -0.000000, -0.000000, 0.000000
372.610450, 24.100000, 111.500000, 0.000000, 0.000000, 145.500000, 12.400000, 40.500000, 84.000000, 0.014835, 0.003141, -0.713818, 1.745526, 1.056005, -0.441330, 0.000000, -0.000000, -0.000000, 0.000000
372.711423, 24.100000, 111.500000, 0.000000, 0.000000, 145.500000, 12.400000, 40.500000, 84.000000, 0.014835, 0.003141, -0.713818, 1.745526, 1.056005, -0.441330, -0.000000, 0.000000, 0.000000, -0.000000
372.812308, 24.100000, 111.500000, 0.000000, 0.000000, 145.500000, 12.400000, 40.500000, 84.000000, 0.014835, 0.003141, -0.713818, 1.745526, 1.056005, -0.441330, -0.000000, 0.000000, 0.000000, -0.000000
372.913269, 24.100000, 111.500000, 0.000000, 0.000000, 145.500000, 12.400000, 40.500000, 84.000000, 0.014835, 0.003141, -0.713818, 1.745526, 1.056005, -0.441330, -0.000000, 0.000000, 0.000000, -0.000000
373.014243, 24.100000, 111.500000, 0.000000, 0.000000, 145.500000, 12.400000, 40.500000, 84.000000, 0.014835, 0.003141, -0.713818, 1.745526, 1.056005, -0.441330, -0.000000, 0.000000, 0.000000, -0.000000
373.115134, 24.100000, 111.500000, 0.000000, 0.000000, 145.500000, 12.400000, 40.500000, 84.000000, 0.014835, 0.003141, -0.713818, 1.745526, 1.056005, -0.441330, -0.000000, 0.000000, 0.000000, -0.000000
373.216109, 24.100000, 111.500000, 0.000000, 0.000000, 145.500000, 12.400000, 40.500000, 84.000000, 0.014835, 0.003141, -0.713818, 1.745526, 1.056005, -0.441330, -0.000000, 0.000000, 0.000000, -0.000000
373.317007, 24.100000, 111.500000, 0.000000, 0.000000, 145.500000, 12.400000, 40.500000, 84.000000, 0.014835, 0.003141, -0.713818, 1.745526, 1.056005, -0.441330, -0.000000, 0.000000, 0.000000, -0.000000
373.417981, 24.100000, 111.500000, 0.000000, 0.000000, 145.500000, 12.400000, 40.500000, 84.000000, 0.014835, 0.003141, -0.713818, 1.745526, 1.056005, -0.441330, -0.000000, 0.000000, 0.000000, -0.000000
373.518870, 24.100000, 111.500000, 0.000000, 0.000000, 145.500000, 12.400000, 40.500000, 84.000000, 0.014835, 0.003141, -0.713818, 1.745526, 1.056005, -0.441330, -0.000000, 0.000000, 0.000000, -0.000000
373.619841, 24.100000, 111.500000, 0.000000, 0.000000, 145.500000, 12.400000, 40.500000, 84.000000, 0.014835, 0.003141, -0.713818, 1.745526, 1.056005, -0.441330, -0.000000, 0.000000, 0.000000, -0.000000
373.720814, 24.100000, 111.500000, 0.000000, 0.000000, 145.500000, 12.400000, 40.500000, 84.000000, 0.014835, 0.003141, -0.713818, 1.745526, 1.056005, -0.441330, -0.000000, 0.000000, 0.000000, -0.000000
373.821788, 24.100000, 111.500000, 0.000000, 0.000000, 145.500000, 12.400000, 40.500000, 84.000000, 0.014835, 0.003141, -0.713818, 1.745526, 1.056005, -0.441330, -0.000000, 0.000000, 0.000000, -0.000000
373.922672, 24.100000, 111.500000, 0.000000, 0.000000, 145.500000, 12.400000, 40.500000, 84.000000, 0.014835, 0.003141, -0.713818, 1.745526, 1.056005, -0.441330, -0.000000, 0.000000, 0.000000, -0.000000
374.023652, 24.100000, 111.500000, 0.000000, 0.000000, 145.500000, 12.400000, 40.500000, 84.000000, 0.014835, 0.003141, -0.713818, 1.745526, 1.056005, -0.441330, -0.000000, 0.000000, 0.000000, -0.000000
374.124542, 24.100000, 111.500000, 0.000000, 0.000000, 145.500000, 12.400000, 40.500000, 84.000000, 0.014835, 0.003141, -0.713818, 1.745526, 1.056005, -0.441330, -0.000000, 0.000000, 0.000000, -0.000000
374.225472, 24.100000, 111.500000, 0.000000, 0.000000, 145.500000, 12.400000, 40.500000, 84.000000, 0.014835, 0.003141, -0.713818, 1.745526, 1.056005, -0.441330, -0.000000, 0.000000, 0.000000, -0.000000
374.326397, 24.100000, 111.500000, 0.000000, 0.000000, 145.500000, 12.400000, 40.500000, 84.000000, 0.014835, 0.003141, -0.713818, 1.745526, 1.056005, -0.441330, -0.000000, 0.000000, 0.000000, -0.000000
374.427387, 24.100000, 111.500000, 0.000000, 0.000000, 145.500000, 12.400000, 40.500000, 84.000000, 0.014835, 0.003141, -0.713818, 1.745526, 1.056005, -0.441330, -0.000000, 0.000000, 0.000000, -0.000000
374.528307, 24.100000, 111.500000, 0.000000, 0.000000, 145.500000, 12.400000, 40.500000, 84.000000, 0.014835, 0.003141, -0.713818, 1.745526, 1.056005, -0.441330, -0.000000, 0.000000, 0.000000, -0.000000
374.629230, 24.100000, 111.500000, 0.000000, 0.000000, 145.500000, 12.400000, 40.500000, 84.000000, 0.014835, 0.003141, -0.713818, 1.745526, 1.056005, -0.441330, -0.000000, 0.000000, 0.000000, -0.000000
374.730130, 24.100000, 111.500000, 0.000000, 0.000000, 145.500000, 12.400000, 40.500000, 84.000000, 0.014835, 0.003141, -0.713818, 1.745526, 1.056005, -0.441330, 0.000000, -0.000000, -0.000000, 0.000000
374.831125, 24.100000, 111.500000, 0.000000, 0.000000, 145.500000, 12.400000, 40.500000, 84.000000, 0.014835, 0.003141, -0.713818, 1.745526, 1.056005, -0.441330, 0.000000, -0.000000, -0.000000, 0.000000
374.932110, 24.100000, 111.500000, 0.000000, 0.000000, 145.500000, 12.400000, 40.500000, 84.000000, 0.014835, 0.003141, -0.713818, 1.745526, 1.056005, -0.441330, 0.000000, -0.000000, -0.000000, 0.000000
375.033106, 24.100000, 111.500000, 0.000000, 0.000000, 145.500000, 12.400000, 40.500000, 84.000000, 0.014835, 0.003141, -0.713818, 1.745526, 1.056005, -0.441330, 0.000000, -0.000000, -0.000000, 0.000000
375.134097, 24.100000, 111.500000, 0.000000, 0.000000, 145.500000, 12.400000, 40.500000, 84.000000, 0.014835, 0.003141, -0.713818, 1.745526, 1.056005, -0.441330, 0.000000, -0.000000, -0.000000, 0.000000
375.235105, 24.100000, 111.500000, 0.000000, 0.000000, 145.500000, 12.400000, 40.500000, 84.000000, 0.014835, 0.003141, -0.713818, 1.745526, 1.056005, -0.441330, 0.000000, -0.000000, -0.000000, 0.000000
375.336095, 24.100000, 111.500000, 0.000000, 0.000000, 145.500000, 12.400000, 40.500000, 84.000000, 0.014835, 0.003141, -0.713818, 1.745526, 1.056005, -0.441330, 0.000000, -0.000000, -0.000000, 0.000000
375.437176, 24.100000, 111.500000, 0.000000, 0.000000, 145.500000, 12.400000, 40.500000, 84.000000, 0.014835, 0.003141, -0.713818, 1.745526, 1.056005, -0.441330, 0.000000, -0.000000, -0.000000, 0.000000
375.538167, 24.100000, 111.500000, 0.000000, 0.000000, 145.500000, 12.400000, 40.500000, 84.000000, 0.014835, 0.003141, -0.713818, 1.745526, 1.056005, -0.441330, 0.000000, -0.000000, -0.000000, 0.000000
375.639157, 24.100000, 111.500000, 0.000000, 0.000000, 145.500000, 12.400000, 40.500000, 84.000000, 0.014835, 0.003141, -0.713818, 1.745526, 1.056005, -0.441330, 0.000000, -0.000000, -0.000000, 0.000000
375.740148, 24.100000, 111.500000, 0.000000, 0.000000, 145.500000, 12.400000, 40.500000, 84.000000, 0.014835, 0.003141, -0.713818, 1.745526, 1.056005, -0.441330, 0.000000, -0.000000, -0.000000, 0.000000
375.841139, 24.100000, 111.500000, 0.000000, 0.000000, 145.500000, 12.400000, 40.500000, 84.000000, 0.014835, 0.003141, -0.713818, 1.745526, 1.056005, -0.441330, 0.000000, -0.000000, -0.000000, 0.000000
375.942128, 24.100000, 111.500000, 0.000000, 0.000000, 145.500000, 12.400000, 40.500000, 84.000000, 0.014835, 0.003141, -0.713818, 1.745526, 1.056005, -0.441330, 0.000000, -0.000000, -0.000000, 0.000000
376.043194, 24.100000, 111.500000, 0.000000, 0.000000, 145.500000, 12.400000, 40.500000, 84.000000, 0.014835, 0.003141, -0.713818, 1.745526, 1.056005, -0.441330, 0.000000, -0.000000, -0.000000, 0.000000
376.144104, 24.100000, 111.500000, 0.000000, 0.000000, 145.500000, 12.400000, 40.500000, 84.000000, 0.014835, 0.003141, -0.713818, 1.745526, 1.056005, -0.441330, 0.000000, -0.000000, -0.000000, 0.000000
376.245081, 24.100000, 111.500000, 0.000000, 0.000000, 145.500000, 12.400000, 40.500000, 84.000000, 0.014835, 0.003141, -0.713818, 1.745526, 1.056005, -0.441330, 0.000000, -0.000000, -0.000000, 0.000000
376.346139, 24.100000, 111.500000, 0.000000, 0.000000, 145.500000, 12.400000, 40.500000, 84.000000, 0.014835, 0.003141, -0.713818, 1.745526, 1.056005, -0.441330, 0.000000, -0.000000, -0.000000, 0.000000
376.447107, 24.100000, 111.500000, 0.000000, 0.000000, 145.500000, 12.400000, 40.500000, 84.000000, 0.014835, 0.003141, -0.713818, 1.745526, 1.056005, -0.441330, 0.000000, -0.000000, -0.000000, 0.000000
376.548198, 24.100000, 111.500000, 0.000000, 0.000000, 145.500000, 12.400000, 40.500000, 84.000000, 0.014835, 0.003141, -0.713818, 1.745526, 1.056005, -0.441330, 0.000000, -0.000000, -0.000000, 0.000000
376.649345, 24.100000, 111.500000, 0.000000, 0.000000, 145.500000, 12.400000, 40.500000, 84.000000, 0.014835, 0.003141, -0.713818, 1.745526, 1.056005, -0.441330, 0.000000, -0.000000, -0.000000, 0.000000
376.750312, 24.100000, 111.500000, 0.000000, 0.000000, 145.500000, 12.400000, 40.500000, 84.000000, 0.014835, 0.003141, -0.713818, 1.745526, 1.056005, -0.441330, -0.000000, 0.000000, 0.000000, -0.000000
376.851289, 24.100000, 111.500000, 0.000000, 0.000000, 145.500000, 12.400000, 40.500000, 84.000000, 0.014835, 0.003141, -0.713818, 1.745526, 1.056005, -0.441330, -0.000000, 0.000000, 0.000000, -0.000000
376.952258, 24.100000, 111.500000, 0.000000, 0.000000, 145.500000, 12.400000, 40.500000, 84.000000, 0.014835, 0.003141, -0.713818, 1.745526, 1.056005, -0.441330, -0.000000, 0.000000, 0.000000, -0.000000
377.053236, 24.100000, 111.500000, 0.000000, 0.000000, 145.500000, 12.400000, 40.500000, 84.000000, 0.014835, 0.003141, -0.713818, 1.745526, 1.056005, -0.441330, -0.000000, 0.000000, 0.000000, -0.000000
377.154310, 24.100000, 111.500000, 0.000000, 0.000000, 145.500000, 12.400000, 40.500000, 84.000000, 0.014835, 0.003141, -0.713818, 1.745526, 1.056005, -0.441330, -0.000000, 0.000000, 0.000000, -0.000000
377.255203, 24.100000, 111.500000, 0.000000, 0.000000, 145.500000, 12.400000, 40.500000, 84.000000, 0.014835, 0.003141, -0.713818, 1.745526, 1.056005, -0.441330, -0.000000, 0.000000, 0.000000, -0.000000
377.356179, 24.100000, 111.500000, 0.000000, 0.000000, 145.500000, 12.400000, 40.500000, 84.000000, 0.014835, 0.003141, -0.713818, 1.745526, 1.056005, -0.441330, -0.000000, 0.000000, 0.000000, -0.000000
377.457072, 24.100000, 111.500000, 0.000000, 0.000000, 145.500000, 12.400000, 40.500000, 84.000000, 0.014835, 0.003141, -0.713818, 1.745526, 1.056005, -0.441330, -0.000000, 0.000000, 0.000000, -0.000000
377.558056, 24.100000, 111.500000, 0.000000, 0.000000, 145.500000, 12.400000, 40.500000, 84.000000, 0.014835, 0.003141, -0.713818, 1.745526, 1.056005, -0.441330, -0.000000, 0.000000, 0.000000, -0.000000
377.658933, 24.100000, 111.500000, 0.000000, 0.000000, 145.500000, 12.400000, 40.500000, 84.000000, 0.014835, 0.003141, -0.713818, 1.745526, 1.056005, -0.441330, -0.000000, 0.000000, 0.000000, -0.000000
377.759903, 24.100000, 111.500000, 0.000000, 0.000000, 145.500000, 12.400000, 40.500000, 84.000000, 0.014835, 0.003141, -0.713818, 1.745526, 1.056005, -0.441330, -0.000000, 0.000000, 0.000000, -0.000000
377.860952, 24.100000, 111.500000, 0.000000, 0.000000, 145.500000, 12.400000, 40.500000, 84.000000, 0.014835, 0.003141, -0.713818, 1.745526, 1.056005, -0.441330, -0.000000, 0.000000, 0.000000, -0.000000
377.961923, 24.100000, 111.500000, 0.000000, 0.000000, 145.500000, 12.400000, 40.500000, 84.000000, 0.014835, 0.003141, -0.713818, 1.745526, 1.056005, -0.441330, -0.000000, 0.000000, 0.000000, -0.000000
378.062928, 24.100000, 111.500000, 0.000000, 0.000000, 145.500000, 12.400000, 40.500000, 84.000000, 0.014835, 0.003141, -0.713818, 1.745526, 1.056005, -0.441330, -0.000000, 0.000000, 0.000000, -0.000000
378.163938, 24.100000, 111.500000, 0.000000, 0.000000, 145.500000, 12.400000, 40.500000, 84.000000, 0.014835, 0.003141, -0.713818, 1.745526, 1.056005, -0.441330, -0.000000, 0.000000, 0.000000, -0.000000
378.264926, 24.100000, 111.500000, 0.000000, 0.000000, 145.500000, 12.400000, 40.500000, 84.000000, 0.014835, 0.003141, -0.713818, 1.745526, 1.056005, -0.441330, -0.000000, 0.000000, 0.000000, -0.000000
378.365940, 24.100000, 111.500000, 0.000000, 0.000000, 145.500000, 12.400000, 40.500000, 84.000000, 0.014835, 0.003141, -0.713818, 1.745526, 1.056005, -0.441330, -0.000000, 0.000000, 0.000000, -0.000000
378.467023, 24.100000, 111.500000, 0.000000, 0.000000, 145.500000, 12.400000, 40.500000, 84.000000, 0.014835, 0.003141, -0.713818, 1.745526, 1.056005, -0.441330, -0.000000, 0.000000, 0.000000, -0.000000
378.568015, 24.100000, 111.500000, 0.000000, 0.000000, 145.500000, 12.400000, 40.500000, 84.000000, 0.014835, 0.003141, -0.713818, 1.745526, 1.056005, -0.441330, -0.000000, 0.000000, 0.000000, -0.000000
378.669023, 24.100000, 111.500000, 0.000000, 0.000000, 145.500000, 12.400000, 40.500000, 84.000000, 0.014835, 0.003141, -0.713818, 1.745526, 1.056005, -0.441330, -0.000000, 0.000000, 0.000000, -0.000000
378.770173, 24.100000, 111.500000, 0.000000, 0.000000, 145.500000, 12.400000, 40.500000, 84.000000, 0.014835, 0.003141, -0.713818, 1.745526, 1.056005, -0.441330, -0.000000, 0.000000, 0.000000, -0.000000
378.871103, 24.100000, 111.500000, 0.000000, 0.000000, 145.500000, 12.400000, 40.500000, 84.000000, 0.014835, 0.003141, -0.713818, 1.745526, 1.056005, -0.441330, 0.000000, -0.000000, -0.000000, 0.000000
378.972007, 24.100000, 111.500000, 0.000000, 0.000000, 145.500000, 12.400000, 40.500000, 84.000000, 0.014835, 0.003141, -0.713818, 1.745526, 1.056005, -0.441330, 0.000000, -0.000000, -0.000000, 0.000000
379.072967, 24.100000, 111.500000, 0.000000, 0.000000, 145.500000, 12.400000, 40.500000, 84.000000, 0.014835, 0.003141, -0.713818, 1.745526, 1.056005, -0.441330, 0.000000, -0.000000, -0.000000, 0.000000
379.173872, 24.100000, 111.500000, 0.000000, 0.000000, 145.500000, 12.400000, 40.500000, 84.000000, 0.014835, 0.003141, -0.713818, 1.745526, 1.056005, -0.441330, 0.000000, -0.000000, -0.000000, 0.000000
379.274864, 24.100000, 111.500000, 0.000000, 0.000000, 145.500000, 12.400000, 40.500000, 84.000000, 0.014835, 0.003141, -0.713818, 1.745526, 1.056005, -0.441330, 0.000000, -0.000000, -0.000000, 0.000000
379.375772, 24.100000, 111.500000, 0.000000, 0.000000, 145.500000, 12.400000, 40.500000, 84.000000, 0.014835, 0.003141, -0.713818, 1.745526, 1.056005, -0.441330, 0.000000, -0.000000, -0.000000, 0.000000
379.476680, 24.100000, 111.500000, 0.000000, 0.000000, 145.500000, 12.400000, 40.500000, 84.000000, 0.014835, 0.003141, -0.713818, 1.745526, 1.056005, -0.441330, 0.000000, -0.000000, -0.000000, 0.000000
379.577662, 24.100000, 111.500000, 0.000000, 0.000000, 145.500000, 12.400000, 40.500000, 84.000000, 0.014835, 0.003141, -0.713818, 1.745526, 1.056005, -0.441330, 0.000000, -0.000000, -0.000000, 0.000000
379.678567, 24.100000, 111.500000, 0.000000, 0.000000, 145.500000, 12.400000, 40.500000, 84.000000, 0.014835, 0.003141, -0.713818, 1.745526, 1.056005, -0.441330, 0.000000, -0.000000, -0.000000, 0.000000
379.779556, 24.100000, 111.500000, 0.000000, 0.000000, 145.500000, 12.400000, 40.500000, 84.000000, 0.014835, 0.003141, -0.713818, 1.745526, 1.056005, -0.441330, 0.000000, -0.000000, -0.000000, 0.000000
379.880546, 24.100000, 111.500000, 0.000000, 0.000000, 145.500000, 12.400000, 40.500000, 84.000000, 0.014835, 0.003141, -0.713818, 1.745526, 1.056005, -0.441330, 0.000000, -0.000000, -0.000000, 0.000000
379.981554, 24.100000, 111.500000, 0.000000, 0.000000, 145.500000, 12.400000, 40.500000, 84.000000, 0.014835, 0.003141, -0.713818, 1.745526, 1.056005, -0.441330, 0.000000, -0.000000, -0.000000, 0.000000
380.082559, 24.100000, 111.500000, 0.000000, 0.000000, 145.500000, 12.400000, 40.500000, 84.000000, 0.014835, 0.003141, -0.713818, 1.745526, 1.056005, -0.441330, 0.000000, -0.000000, -0.000000, 0.000000
380.183485, 24.100000, 111.500000, 0.000000, 0.000000, 145.500000, 12.400000, 40.500000, 84.000000, 0.014835, 0.003141, -0.713818, 1.745526, 1.056005, -0.441330, 0.000000, -0.000000, -0.000000, 0.000000
380.284391, 24.100000, 111.500000, 0.000000, 0.000000, 145.500000, 12.400000, 40.500000, 84.000000, 0.014835, 0.003141, -0.713818, 1.745526, 1.056005, -0.441330, 0.000000, -0.000000, -0.000000, 0.000000
380.385383, 24.100000, 111.500000, 0.000000, 0.000000, 145.500000, 12.400000, 40.500000, 84.000000, 0.014835, 0.003141, -0.713818, 1.745526, 1.056005, -0.441330, 0.000000, -0.000000, -0.000000, 0.000000
380.486284, 24.100000, 111.500000, 0.000000, 0.000000, 145.500000, 12.400000, 40.500000, 84.000000, 0.014835, 0.003141, -0.713818, 1.745526, 1.056005, -0.441330, 0.000000, -0.000000, -0.000000, 0.000000
380.587292, 24.100000, 111.500000, 0.000000, 0.000000, 145.500000, 12.400000, 40.500000, 84.000000, 0.014835, 0.003141, -0.713818, 1.745526, 1.056005, -0.441330, 0.000000, -0.000000, -0.000000, 0.000000
380.688220, 24.100000, 111.500000, 0.000000, 0.000000, 145.500000, 12.400000, 40.500000, 84.000000, 0.014835, 0.003141, -0.713818, 1.745526, 1.056005, -0.441330, 0.000000, -0.000000, -0.000000, 0.000000
380.789125, 24.100000, 111.500000, 0.000000, 0.000000, 145.500000, 12.400000, 40.500000, 84.000000, 0.014835, 0.003141, -0.713818, 1.745526, 1.056005, -0.441330, 0.000000, -0.000000, -0.000000, 0.000000
380.890038, 24.100000, 111.500000, 0.000000, 0.000000, 145.500000, 12.400000, 40.500000, 84.000000, 0.014835, 0.003141, -0.713818, 1.745526, 1.056005, -0.441330, -0.000000, 0.000000, 0.000000, -0.000000
380.991033, 24.100000, 111.500000, 0.000000, 0.000000, 145.500000, 12.400000, 40.500000, 84.000000, 0.014835, 0.003141, -0.713818, 1.745526, 1.056005, -0.441330, -0.000000, 0.000000, 0.000000, -0.000000
381.091947, 24.100000, 111.500000, 0.000000, 0.000000, 145.500000, 12.400000, 40.500000, 84.000000, 0.014835, 0.003141, -0.713818, 1.745526, 1.056005, -0.441330, -0.000000, 0.000000, 0.000000, -0.000000
381.192933, 24.100000, 111.500000, 0.000000, 0.000000, 145.500000, 12.400000, 40.500000, 84.000000, 0.014835, 0.003141, -0.713818, 1.745526, 1.056005, -0.441330, -0.000000, 0.000000, 0.000000, -0.000000
381.293857, 24.100000, 111.500000, 0.000000, 0.000000, 145.500000, 12.400000, 40.500000, 84.000000, 0.014835, 0.003141, -0.713818, 1.745526, 1.056005, -0.441330, -0.000000, 0.000000, 0.000000, -0.000000
381.394766, 24.100000, 111.500000, 0.000000, 0.000000, 145.500000, 12.400000, 40.500000, 84.000000, 0.014835, 0.003141, -0.713818, 1.745526, 1.056005, -0.441330, -0.000000, 0.000000, 0.000000, -0.000000
381.495757, 24.100000, 111.500000, 0.000000, 0.000000, 145.500000, 12.400000, 40.500000, 84.000000, 0.014835, 0.003141, -0.713818, 1.745526, 1.056005, -0.441330, -0.000000, 0.000000, 0.000000, -0.000000
381.596710, 24.100000, 111.500000, 0.000000, 0.000000, 145.500000, 12.400000, 40.500000, 84.000000, 0.014835, 0.003141, -0.713818, 1.745526, 1.056005, -0.441330, -0.000000, 0.000000, 0.000000, -0.000000
381.697705, 24.100000, 111.500000, 0.000000, 0.000000, 145.500000, 12.400000, 40.500000, 84.000000, 0.014835, 0.003141, -0.713818, 1.745526, 1.056005, -0.441330, -0.000000, 0.000000, 0.000000, -0.000000
381.798700, 24.100000, 111.500000, 0.000000, 0.000000, 145.500000, 12.400000, 40.500000, 84.000000, 0.014835, 0.003141, -0.713818, 1.745526, 1.056005, -0.441330, -0.000000, 0.000000, 0.000000, -0.000000
381.899693, 24.100000, 111.500000, 0.000000, 0.000000, 145.500000, 12.400000, 40.500000, 84.000000, 0.014835, 0.003141, -0.713818, 1.745526, 1.056005, -0.441330, -0.000000, 0.000000, 0.000000, -0.000000
382.000790, 24.100000, 111.500000, 0.000000, 0.000000, 145.500000, 12.400000, 40.500000, 84.000000, 0.014835, 0.003141, -0.713818, 1.745526, 1.056005, -0.441330, -0.000000, 0.000000, 0.000000, -0.000000
382.101796, 24.100000, 111.500000, 0.000000, 0.000000, 145.500000, 12.400000, 40.500000, 84.000000, 0.014835, 0.003141, -0.713818, 1.745526, 1.056005, -0.441330, -0.000000, 0.000000, 0.000000, -0.000000
382.202719, 24.100000, 111.500000, 0.000000, 0.000000, 145.500000, 12.400000, 40.500000, 84.000000, 0.014835, 0.003141, -0.713818, 1.745526, 1.056005, -0.441330, -0.000000, 0.000000, 0.000000, -0.000000
382.303726, 24.100000, 111.500000, 0.000000, 0.000000, 145.500000, 12.400000, 40.500000, 84.000000, 0.014835, 0.003141, -0.713818, 1.745526, 1.056005, -0.441330, -0.000000, 0.000000, 0.000000, -0.000000
382.404649, 24.100000, 111.500000, 0.000000, 0.000000, 145.500000, 12.400000, 40.500000, 84.000000, 0.014835, 0.003141, -0.713818, 1.745526, 1.056005, -0.441330, -0.000000, 0.000000, 0.000000, -0.000000
382.505567, 24.100000, 111.500000, 0.000000, 0.000000, 145.500000, 12.400000, 40.500000, 84.000000, 0.014835, 0.003141, -0.713818, 1.745526, 1.056005, -0.441330, -0.000000, 0.000000, 0.000000, -0.000000
382.606577, 24.100000, 111.500000, 0.000000, 0.000000, 145.500000, 12.400000, 40.500000, 84.000000, 0.014835, 0.003141, -0.713818, 1.745526, 1.056005, -0.441330, -0.000000, 0.000000, 0.000000, -0.000000
382.707496, 24.100000, 111.500000, 0.000000, 0.000000, 145.500000, 12.400000, 40.500000, 84.000000, 0.014835, 0.003141, -0.713818, 1.745526, 1.056005, -0.441330, -0.000000, 0.000000, 0.000000, -0.000000
382.808507, 24.100000, 111.500000, 0.000000, 0.000000, 145.500000, 12.400000, 40.500000, 84.000000, 0.014835, 0.003141, -0.713818, 1.745526, 1.056005, -0.441330, -0.000000, 0.000000, 0.000000, -0.000000
382.909421, 24.100000, 111.500000, 0.000000, 0.000000, 145.500000, 12.400000, 40.500000, 84.000000, 0.014835, 0.003141, -0.713818, 1.745526, 1.056005, -0.441330, 0.000000, -0.000000, -0.000000, 0.000000
383.010360, 24.100000, 111.500000, 0.000000, 0.000000, 145.500000, 12.400000, 40.500000, 84.000000, 0.014835, 0.003141, -0.713818, 1.745526, 1.056005, -0.441330, 0.000000, -0.000000, -0.000000, 0.000000
383.111364, 24.100000, 111.500000, 0.000000, 0.000000, 145.500000, 12.400000, 40.500000, 84.000000, 0.014835, 0.003141, -0.713818, 1.745526, 1.056005, -0.441330, 0.000000, -0.000000, -0.000000, 0.000000
383.212390, 24.100000, 111.500000, 0.000000, 0.000000, 145.500000, 12.400000, 40.500000, 84.000000, 0.014835, 0.003141, -0.713818, 1.745526, 1.056005, -0.441330, 0.000000, -0.000000, -0.000000, 0.000000
383.313390, 24.100000, 111.500000, 0.000000, 0.000000, 145.500000, 12.400000, 40.500000, 84.000000, 0.014835, 0.003141, -0.713818, 1.745526, 1.056005, -0.441330, 0.000000, -0.000000, -0.000000, 0.000000
383.414390, 24.100000, 111.500000, 0.000000, 0.000000, 145.500000, 12.400000, 40.500000, 84.000000, 0.014835, 0.003141, -0.713818, 1.745526, 1.056005, -0.441330, 0.000000, -0.000000, -0.000000, 0.000000
383.515488, 24.100000, 111.500000, 0.000000, 0.000000, 145.500000, 12.400000, 40.500000, 84.000000, 0.014835, 0.003141, -0.713818, 1.745526, 1.056005, -0.441330, 0.000000, -0.000000, -0.000000, 0.000000
383.616491, 24.100000, 111.500000, 0.000000, 0.000000, 145.500000, 12.400000, 40.500000, 84.000000, 0.014835, 0.003141, -0.713818, 1.745526, 1.056005, -0.441330, 0.000000, -0.000000, -0.000000, 0.000000
383.717573, 24.100000, 111.500000, 0.000000, 0.000000, 145.500000, 12.400000, 40.500000, 84.000000, 0.014835, 0.003141, -0.713818, 1.745526, 1.056005, -0.441330, 0.000000, -0.000000, -0.000000, 0.000000
383.818577, 24.100000, 111.500000, 0.000000, 0.000000, 145.500000, 12.400000, 40.500000, 84.000000, 0.014835, 0.003141, -0.713818, 1.745526, 1.056005, -0.441330, 0.000000, -0.000000, -0.000000, 0.000000
383.919577, 24.100000, 111.500000, 0.000000, 0.000000, 145.500000, 12.400000, 40.500000, 84.000000, 0.014835, 0.003141, -0.713818, 1.745526, 1.056005, -0.441330, 0.000000, -0.000000, -0.000000, 0.000000
384.020647, 24.100000, 111.500000, 0.000000, 0.000000, 145.500000, 12.400000, 40.500000, 84.000000, 0.014835, 0.003141, -0.713818, 1.745526, 1.056005, -0.441330, 0.000000, -0.000000, -0.000000, 0.000000
384.121610, 24.100000, 111.500000, 0.000000, 0.000000, 145.500000, 12.400000, 40.500000, 84.000000, 0.014835, 0.003141, -0.713818, 1.745526, 1.056005, -0.441330, 0.000000, -0.000000, -0.000000, 0.000000
384.222612, 24.100000, 111.500000, 0.000000, 0.000000, 145.500000, 12.400000, 40.500000, 84.000000, 0.014835, 0.003141, -0.713818, 1.745526, 1.056005, -0.441330, 0.000000, -0.000000, -0.000000, 0.000000
384.323618, 24.100000, 111.500000, 0.000000, 0.000000, 145.500000, 12.400000, 40.500000, 84.000000, 0.014835, 0.003141, -0.713818, 1.745526, 1.056005, -0.441330, 0.000000, -0.000000, -0.000000, 0.000000
384.424618, 24.100000, 111.500000, 0.000000, 0.000000, 145.500000, 12.400000, 40.500000, 84.000000, 0.014835, 0.003141, -0.713818, 1.745526, 1.056005, -0.441330, 0.000000, -0.000000, -0.000000, 0.000000
384.525541, 24.100000, 111.500000, 0.000000, 0.000000, 145.500000, 12.400000, 40.500000, 84.000000, 0.014835, 0.003141, -0.713818, 1.745526, 1.056005, -0.441330, 0.000000, -0.000000, -0.000000, 0.000000
384.626548, 24.100000, 111.500000, 0.000000, 0.000000, 145.500000, 12.400000, 40.500000, 84.000000, 0.014835, 0.003141, -0.713818, 1.745526, 1.056005, -0.441330, 0.000000, -0.000000, -0.000000, 0.000000
384.727471, 24.100000, 111.500000, 0.000000, 0.000000, 145.500000, 12.400000, 40.500000, 84.000000, 0.014835, 0.003141, -0.713818, 1.745526, 1.056005, -0.441330, 0.000000, -0.000000, -0.000000, 0.000000
384.828385, 24.100000, 111.500000, 0.000000, 0.000000, 145.500000, 12.400000, 40.500000, 84.000000, 0.014835, 0.003141, -0.713818, 1.745526, 1.056005, -0.441330, 0.000000, -0.000000, -0.000000, 0.000000
384.929384, 24.100000, 111.500000, 0.000000, 0.000000, 145.500000, 12.400000, 40.500000, 84.000000, 0.014835, 0.003141, -0.713818, 1.745526, 1.056005, -0.441330, -0.000000, 0.000000, 0.000000, -0.000000
385.030305, 24.100000, 111.500000, 0.000000, 0.000000, 145.500000, 12.400000, 40.500000, 84.000000, 0.014835, 0.003141, -0.713818, 1.745526, 1.056005, -0.441330, -0.000000, 0.000000, 0.000000, -0.000000
385.131240, 24.100000, 111.500000, 0.000000, 0.000000, 145.500000, 12.400000, 40.500000, 84.000000, 0.014835, 0.003141, -0.713818, 1.745526, 1.056005, -0.441330, -0.000000, 0.000000, 0.000000, -0.000000
385.232182, 24.100000, 111.500000, 0.000000, 0.000000, 145.500000, 12.400000, 40.500000, 84.000000, 0.014835, 0.003141, -0.713818, 1.745526, 1.056005, -0.441330, -0.000000, 0.000000, 0.000000, -0.000000
385.333181, 24.100000, 111.500000, 0.000000, 0.000000, 145.500000, 12.400000, 40.500000, 84.000000, 0.014835, 0.003141, -0.713818, 1.745526, 1.056005, -0.441330, -0.000000, 0.000000, 0.000000, -0.000000
385.434095, 24.100000, 111.500000, 0.000000, 0.000000, 145.500000, 12.400000, 40.500000, 84.000000, 0.014835, 0.003141, -0.713818, 1.745526, 1.056005, -0.441330, -0.000000, 0.000000, 0.000000, -0.000000
385.535029, 24.100000, 111.500000, 0.000000, 0.000000, 145.500000, 12.400000, 40.500000, 84.000000, 0.014835, 0.003141, -0.713818, 1.745526, 1.056005, -0.441330, -0.000000, 0.000000, 0.000000, -0.000000
385.636035, 24.100000, 111.500000, 0.000000, 0.000000, 145.500000, 12.400000, 40.500000, 84.000000, 0.014835, 0.003141, -0.713818, 1.745526, 1.056005, -0.441330, -0.000000, 0.000000, 0.000000, -0.000000
385.736950, 24.100000, 111.500000, 0.000000, 0.000000, 145.500000, 12.400000, 40.500000, 84.000000, 0.014835, 0.003141, -0.713818, 1.745526, 1.056005, -0.441330, -0.000000, 0.000000, 0.000000, -0.000000
385.837886, 24.100000, 111.500000, 0.000000, 0.000000, 145.500000, 12.400000, 40.500000, 84.000000, 0.014835, 0.003141, -0.713818, 1.745526, 1.056005, -0.441330, -0.000000, 0.000000, 0.000000, -0.000000
385.938890, 24.100000, 111.500000, 0.000000, 0.000000, 145.500000, 12.400000, 40.500000, 84.000000, 0.014835, 0.003141, -0.713818, 1.745526, 1.056005, -0.441330, -0.000000, 0.000000, 0.000000, -0.000000
386.039818, 24.100000, 111.500000, 0.000000, 0.000000, 145.500000, 12.400000, 40.500000, 84.000000, 0.014835, 0.003141, -0.713818, 1.745526, 1.056005, -0.441330, -0.000000, 0.000000, 0.000000, -0.000000
386.140836, 24.100000, 111.500000, 0.000000, 0.000000, 145.500000, 12.400000, 40.500000, 84.000000, 0.014835, 0.003141, -0.713818, 1.745526, 1.056005, -0.441330, -0.000000, 0.000000, 0.000000, -0.000000
386.241857, 24.100000, 111.500000, 0.000000, 0.000000, 145.500000, 12.400000, 40.500000, 84.000000, 0.014835, 0.003141, -0.713818, 1.745526, 1.056005, -0.441330, -0.000000, 0.000000, 0.000000, -0.000000
386.342879, 24.100000, 111.500000, 0.000000, 0.000000, 145.500000, 12.400000, 40.500000, 84.000000, 0.014835, 0.003141, -0.713818, 1.745526, 1.056005, -0.441330, -0.000000, 0.000000, 0.000000, -0.000000
386.443981, 24.100000, 111.500000, 0.000000, 0.000000, 145.500000, 12.400000, 40.500000, 84.000000, 0.014835, 0.003141, -0.713818, 1.745526, 1.056005, -0.441330, -0.000000, 0.000000, 0.000000, -0.000000
386.544999, 24.100000, 111.500000, 0.000000, 0.000000, 145.500000, 12.400000, 40.500000, 84.000000, 0.014835, 0.003141, -0.713818, 1.745526, 1.056005, -0.441330, -0.000000, 0.000000, 0.000000, -0.000000
386.646006, 24.100000, 111.500000, 0.000000, 0.000000, 145.500000, 12.400000, 40.500000, 84.000000, 0.014835, 0.003141, -0.713818, 1.745526, 1.056005, -0.441330, -0.000000, 0.000000, 0.000000, -0.000000
386.747113, 24.100000, 111.500000, 0.000000, 0.000000, 145.500000, 12.400000, 40.500000, 84.000000, 0.014835, 0.003141, -0.713818, 1.745526, 1.056005, -0.441330, -0.000000, 0.000000, 0.000000, -0.000000
386.848046, 24.100000, 111.500000, 0.000000, 0.000000, 145.500000, 12.400000, 40.500000, 84.000000, 0.014835, 0.003141, -0.713818, 1.745526, 1.056005, -0.441330, -0.000000, 0.000000, 0.000000, -0.000000
386.949059, 24.100000, 111.500000, 0.000000, 0.000000, 145.500000, 12.400000, 40.500000, 84.000000, 0.014835, 0.003141, -0.713818, 1.745526, 1.056005, -0.441330, 0.000000, -0.000000, -0.000000, 0.000000
387.049928, 24.100000, 111.500000, 0.000000, 0.000000, 145.500000, 12.400000, 40.500000, 84.000000, 0.014835, 0.003141, -0.713818, 1.745526, 1.056005, -0.441330, 0.000000, -0.000000, -0.000000, 0.000000
387.151037, 24.100000, 111.500000, 0.000000, 0.000000, 145.500000, 12.400000, 40.500000, 84.000000, 0.014835, 0.003141, -0.713818, 1.745526, 1.056005, -0.441330, 0.000000, -0.000000, -0.000000, 0.000000
387.251985, 24.100000, 111.500000, 0.000000, 0.000000, 145.500000, 12.400000, 40.500000, 84.000000, 0.014835, 0.003141, -0.713818, 1.745526, 1.056005, -0.441330, 0.000000, -0.000000, -0.000000, 0.000000
387.352920, 24.100000, 111.500000, 0.000000, 0.000000, 145.500000, 12.400000, 40.500000, 84.000000, 0.014835, 0.003141, -0.713818, 1.745526, 1.056005, -0.441330, 0.000000, -0.000000, -0.000000, 0.000000
387.454025, 24.100000, 111.500000, 0.000000, 0.000000, 145.500000, 12.400000, 40.500000, 84.000000, 0.014835, 0.003141, -0.713818, 1.745526, 1.056005, -0.441330, 0.000000, -0.000000, -0.000000, 0.000000
387.554959, 24.100000, 111.500000, 0.000000, 0.000000, 145.500000, 12.400000, 40.500000, 84.000000, 0.014835, 0.003141, -0.713818, 1.745526, 1.056005, -0.441330, 0.000000, -0.000000, -0.000000, 0.000000
387.656083, 24.100000, 111.500000, 0.000000, 0.000000, 145.500000, 12.400000, 40.500000, 84.000000, 0.014835, 0.003141, -0.713818, 1.745526, 1.056005, -0.441330, 0.000000, -0.000000, -0.000000, 0.000000
387.757095, 24.100000, 111.500000, 0.000000, 0.000000, 145.500000, 12.400000, 40.500000, 84.000000, 0.014835, 0.003141, -0.713818, 1.745526, 1.056005, -0.441330, 0.000000, -0.000000, -0.000000, 0.000000
387.858116, 24.100000, 111.500000, 0.000000, 0.000000, 145.500000, 12.400000, 40.500000, 84.000000, 0.014835, 0.003141, -0.713818, 1.745526, 1.056005, -0.441330, 0.000000, -0.000000, -0.000000, 0.000000
387.959131, 24.100000, 111.500000, 0.000000, 0.000000, 145.500000, 12.400000, 40.500000, 84.000000, 0.014835, 0.003141, -0.713818, 1.745526, 1.056005, -0.441330, 0.000000, -0.000000, -0.000000, 0.000000
388.060069, 24.100000, 111.500000, 0.000000, 0.000000, 145.500000, 12.400000, 40.500000, 84.000000, 0.014835, 0.003141, -0.713818, 1.745526, 1.056005, -0.441330, 0.000000, -0.000000, -0.000000, 0.000000
388.161089, 24.100000, 111.500000, 0.000000, 0.000000, 145.500000, 12.400000, 40.500000, 84.000000, 0.014835, 0.003141, -0.713818, 1.745526, 1.056005, -0.441330, 0.000000, -0.000000, -0.000000, 0.000000
388.262105, 24.100000, 111.500000, 0.000000, 0.000000, 145.500000, 12.400000, 40.500000, 84.000000, 0.014835, 0.003141, -0.713818, 1.745526, 1.056005, -0.441330, 0.000000, -0.000000, -0.000000, 0.000000
388.363038, 24.100000, 111.500000, 0.000000, 0.000000, 145.500000, 12.400000, 40.500000, 84.000000, 0.014835, 0.003141, -0.713818, 1.745526, 1.056005, -0.441330, 0.000000, -0.000000, -0.000000, 0.000000
388.464057, 24.100000, 111.500000, 0.000000, 0.000000, 145.500000, 12.400000, 40.500000, 84.000000, 0.014835, 0.003141, -0.713818, 1.745526, 1.056005, -0.441330, 0.000000, -0.000000, -0.000000, 0.000000
388.565076, 24.100000, 111.500000, 0.000000, 0.000000, 145.500000, 12.400000, 40.500000, 84.000000, 0.014835, 0.003141, -0.713818, 1.745526, 1.056005, -0.441330, 0.000000, -0.000000, -0.000000, 0.000000
388.666097, 24.100000, 111.500000, 0.000000, 0.000000, 145.500000, 12.400000, 40.500000, 84.000000, 0.014835, 0.003141, -0.713818, 1.745526, 1.056005, -0.441330, 0.000000, -0.000000, -0.000000, 0.000000
388.767113, 24.100000, 111.500000, 0.000000, 0.000000, 145.500000, 12.400000, 40.500000, 84.000000, 0.014835, 0.003141, -0.713818, 1.745526, 1.056005, -0.441330, 0.000000, -0.000000, -0.000000, 0.000000
388.868131, 24.100000, 111.500000, 0.000000, 0.000000, 145.500000, 12.400000, 40.500000, 84.000000, 0.014835, 0.003141, -0.713818, 1.745526, 1.056005, -0.441330, 0.000000, -0.000000, -0.000000, 0.000000
388.969080, 24.100000, 111.500000, 0.000000, 0.000000, 145.500000, 12.400000, 40.500000, 84.000000, 0.014835, 0.003141, -0.713818, 1.745526, 1.056005, -0.441330, -0.000000, 0.000000, 0.000000, -0.000000
389.070156, 24.100000, 111.500000, 0.000000, 0.000000, 145.500000, 12.400000, 40.500000, 84.000000, 0.014835, 0.003141, -0.713818, 1.745526, 1.056005, -0.441330, -0.000000, 0.000000, 0.000000, -0.000000
389.171251, 24.100000, 111.500000, 0.000000, 0.000000, 145.500000, 12.400000, 40.500000, 84.000000, 0.014835, 0.003141, -0.713818, 1.745526, 1.056005, -0.441330, -0.000000, 0.000000, 0.000000, -0.000000
389.272187, 24.100000, 111.500000, 0.000000, 0.000000, 145.500000, 12.400000, 40.500000, 84.000000, 0.014835, 0.003141, -0.713818, 1.745526, 1.056005, -0.441330, -0.000000, 0.000000, 0.000000, -0.000000
389.373138, 24.100000, 111.500000, 0.000000, 0.000000, 145.500000, 12.400000, 40.500000, 84.000000, 0.014835, 0.003141, -0.713818, 1.745526, 1.056005, -0.441330, -0.000000, 0.000000, 0.000000, -0.000000
389.473982, 24.100000, 111.500000, 0.000000, 0.000000, 145.500000, 12.400000, 40.500000, 84.000000, 0.014835, 0.003141, -0.713818, 1.745526, 1.056005, -0.441330, -0.000000, 0.000000, 0.000000, -0.000000
389.574914, 24.100000, 111.500000, 0.000000, 0.000000, 145.500000, 12.400000, 40.500000, 84.000000, 0.014835, 0.003141, -0.713818, 1.745526, 1.056005, -0.441330, -0.000000, 0.000000, 0.000000, -0.000000
389.675845, 24.100000, 111.500000, 0.000000, 0.000000, 145.500000, 12.400000, 40.500000, 84.000000, 0.014835, 0.003141, -0.713818, 1.745526, 1.056005, -0.441330, -0.000000, 0.000000, 0.000000, -0.000000
389.776862, 24.100000, 111.500000, 0.000000, 0.000000, 145.500000, 12.400000, 40.500000, 84.000000, 0.014835, 0.003141, -0.713818, 1.745526, 1.056005, -0.441330, -0.000000, 0.000000, 0.000000, -0.000000
389.877807, 24.100000, 111.500000, 0.000000, 0.000000, 145.500000, 12.400000, 40.500000, 84.000000, 0.014835, 0.003141, -0.713818, 1.745526, 1.056005, -0.441330, -0.000000, 0.000000, 0.000000, -0.000000
389.978820, 24.100000, 111.500000, 0.000000, 0.000000, 145.500000, 12.400000, 40.500000, 84.000000, 0.014835, 0.003141, -0.713818, 1.745526, 1.056005, -0.441330, -0.000000, 0.000000, 0.000000, -0.000000
390.079774, 24.100000, 111.500000, 0.000000, 0.000000, 145.500000, 12.400000, 40.500000, 84.000000, 0.014835, 0.003141, -0.713818, 1.745526, 1.056005, -0.441330, -0.000000, 0.000000, 0.000000, -0.000000
390.180805, 24.100000, 111.500000, 0.000000, 0.000000, 145.500000, 12.400000, 40.500000, 84.000000, 0.014835, 0.003141, -0.713818, 1.745526, 1.056005, -0.441330, -0.000000, 0.000000, 0.000000, -0.000000
390.281756, 24.100000, 111.500000, 0.000000, 0.000000, 145.500000, 12.400000, 40.500000, 84.000000, 0.014835, 0.003141, -0.713818, 1.745526, 1.056005, -0.441330, -0.000000, 0.000000, 0.000000, -0.000000
390.382645, 24.100000, 111.500000, 0.000000, 0.000000, 145.500000, 12.400000, 40.500000, 84.000000, 0.014835, 0.003141, -0.713818, 1.745526, 1.056005, -0.441330, -0.000000, 0.000000, 0.000000, -0.000000
390.483592, 24.100000, 111.500000, 0.000000, 0.000000, 145.500000, 12.400000, 40.500000, 84.000000, 0.014835, 0.003141, -0.713818, 1.745526, 1.056005, -0.441330, -0.000000, 0.000000, 0.000000, -0.000000
390.584546, 24.100000, 111.500000, 0.000000, 0.000000, 145.500000, 12.400000, 40.500000, 84.000000, 0.014835, 0.003141, -0.713818, 1.745526, 1.056005, -0.441330, -0.000000, 0.000000, 0.000000, -0.000000
390.685494, 24.100000, 111.500000, 0.000000, 0.000000, 145.500000, 12.400000, 40.500000, 84.000000, 0.014835, 0.003141, -0.713818, 1.745526, 1.056005, -0.441330, -0.000000, 0.000000, 0.000000, -0.000000
390.786445, 24.100000, 111.500000, 0.000000, 0.000000, 145.500000, 12.400000, 40.500000, 84.000000, 0.014835, 0.003141, -0.713818, 1.745526, 1.056005, -0.441330, -0.000000, 0.000000, 0.000000, -0.000000
390.887389, 24.100000, 111.500000, 0.000000, 0.000000, 145.500000, 12.400000, 40.500000, 84.000000, 0.014835, 0.003141, -0.713818, 1.745526, 1.056005, -0.441330, -0.000000, 0.000000, 0.000000, -0.000000
390.988338, 24.100000, 111.500000, 0.000000, 0.000000, 145.500000, 12.400000, 40.500000, 84.000000, 0.014835, 0.003141, -0.713818, 1.745526, 1.056005, -0.441330, 0.000000, -0.000000, -0.000000, 0.000000
391.089296, 24.100000, 111.500000, 0.000000, 0.000000, 145.500000, 12.400000, 40.500000, 84.000000, 0.014835, 0.003141, -0.713818, 1.745526, 1.056005, -0.441330, 0.000000, -0.000000, -0.000000, 0.000000
391.190249, 24.100000, 111.500000, 0.000000, 0.000000, 145.500000, 12.400000, 40.500000, 84.000000, 0.014835, 0.003141, -0.713818, 1.745526, 1.056005, -0.441330, 0.000000, -0.000000, -0.000000, 0.000000
391.291287, 24.100000, 111.500000, 0.000000, 0.000000, 145.500000, 12.400000, 40.500000, 84.000000, 0.014835, 0.003141, -0.713818, 1.745526, 1.056005, -0.441330, 0.000000, -0.000000, -0.000000, 0.000000
391.392238, 24.100000, 111.500000, 0.000000, 0.000000, 145.500000, 12.400000, 40.500000, 84.000000, 0.014835, 0.003141, -0.713818, 1.745526, 1.056005, -0.441330, 0.000000, -0.000000, -0.000000, 0.000000
391.493206, 24.100000, 111.500000, 0.000000, 0.000000, 145.500000, 12.400000, 40.500000, 84.000000, 0.014835, 0.003141, -0.713818, 1.745526, 1.056005, -0.441330, 0.000000, -0.000000, -0.000000, 0.000000
391.594124, 24.100000, 111.500000, 0.000000, 0.000000, 145.500000, 12.400000, 40.500000, 84.000000, 0.014835, 0.003141, -0.713818, 1.745526, 1.056005, -0.441330, 0.000000, -0.000000, -0.000000, 0.000000
391.695093, 24.100000, 111.500000, 0.000000, 0.000000, 145.500000, 12.400000, 40.500000, 84.000000, 0.014835, 0.003141, -0.713818, 1.745526, 1.056005, -0.441330, 0.000000, -0.000000, -0.000000, 0.000000
391.796063, 24.100000, 111.500000, 0.000000, 0.000000, 145.500000, 12.400000, 40.500000, 84.000000, 0.014835, 0.003141, -0.713818, 1.745526, 1.056005, -0.441330, 0.000000, -0.000000, -0.000000, 0.000000
391.896948, 24.100000, 111.500000, 0.000000, 0.000000, 145.500000, 12.400000, 40.500000, 84.000000, 0.014835, 0.003141, -0.713818, 1.745526, 1.056005, -0.441330, 0.000000, -0.000000, -0.000000, 0.000000
391.997898, 24.100000, 111.500000, 0.000000, 0.000000, 145.500000, 12.400000, 40.500000, 84.000000, 0.014835, 0.003141, -0.713818, 1.745526, 1.056005, -0.441330, 0.000000, -0.000000, -0.000000, 0.000000
392.098925, 24.100000, 111.500000, 0.000000, 0.000000, 145.500000, 12.400000, 40.500000, 84.000000, 0.014835, 0.003141, -0.713818, 1.745526, 1.056005, -0.441330, 0.000000, -0.000000, -0.000000, 0.000000
392.199860, 24.100000, 111.500000, 0.000000, 0.000000, 145.500000, 12.400000, 40.500000, 84.000000, 0.014835, 0.003141, -0.713818, 1.745526, 1.056005, -0.441330, 0.000000, -0.000000, -0.000000, 0.000000
392.300789, 24.100000, 111.500000, 0.000000, 0.000000, 145.500000, 12.400000, 40.500000, 84.000000, 0.014835, 0.003141, -0.713818, 1.745526, 1.056005, -0.441330, 0.000000, -0.000000, -0.000000, 0.000000
392.401719, 24.100000, 111.500000, 0.000000, 0.000000, 145.500000, 12.400000, 40.500000, 84.000000, 0.014835, 0.003141, -0.713818, 1.745526, 1.056005, -0.441330, 0.000000, -0.000000, -0.000000, 0.000000
392.502653, 24.100000, 111.500000, 0.000000, 0.000000, 145.500000, 12.400000, 40.500000, 84.000000, 0.014835, 0.003141, -0.713818, 1.745526, 1.056005, -0.441330, 0.000000, -0.000000, -0.000000, 0.000000
392.603589, 24.100000, 111.500000, 0.000000, 0.000000, 145.500000, 12.400000, 40.500000, 84.000000, 0.014835, 0.003141, -0.713818, 1.745526, 1.056005, -0.441330, 0.000000, -0.000000, -0.000000, 0.000000
392.704540, 24.100000, 111.500000, 0.000000, 0.000000, 145.500000, 12.400000, 40.500000, 84.000000, 0.014835, 0.003141, -0.713818, 1.745526, 1.056005, -0.441330, 0.000000, -0.000000, -0.000000, 0.000000
392.805488, 24.100000, 111.500000, 0.000000, 0.000000, 145.500000, 12.400000, 40.500000, 84.000000, 0.014835, 0.003141, -0.713818, 1.745526, 1.056005, -0.441330, 0.000000, -0.000000, -0.000000, 0.000000
392.906423, 24.100000, 111.500000, 0.000000, 0.000000, 145.500000, 12.400000, 40.500000, 84.000000, 0.014835, 0.003141, -0.713818, 1.745526, 1.056005, -0.441330, 0.000000, -0.000000, -0.000000, 0.000000
393.007358, 24.100000, 111.500000, 0.000000, 0.000000, 145.500000, 12.400000, 40.500000, 84.000000, 0.014835, 0.003141, -0.713818, 1.745526, 1.056005, -0.441330, -0.000000, 0.000000, 0.000000, -0.000000
393.108291, 24.100000, 111.500000, 0.000000, 0.000000, 145.500000, 12.400000, 40.500000, 84.000000, 0.014835, 0.003141, -0.713818, 1.745526, 1.056005, -0.441330, -0.000000, 0.000000, 0.000000, -0.000000
393.209231, 24.100000, 111.500000, 0.000000, 0.000000, 145.500000, 12.400000, 40.500000, 84.000000, 0.014835, 0.003141, -0.713818, 1.745526, 1.056005, -0.441330, -0.000000, 0.000000, 0.000000, -0.000000
393.310161, 24.100000, 111.500000, 0.000000, 0.000000, 145.500000, 12.400000, 40.500000, 84.000000, 0.014835, 0.003141, -0.713818, 1.745526, 1.056005, -0.441330, -0.000000, 0.000000, 0.000000, -0.000000
393.411095, 24.100000, 111.500000, 0.000000, 0.000000, 145.500000, 12.400000, 40.500000, 84.000000, 0.014835, 0.003141, -0.713818, 1.745526, 1.056005, -0.441330, -0.000000, 0.000000, 0.000000, -0.000000
393.512049, 24.100000, 111.500000, 0.000000, 0.000000, 145.500000, 12.400000, 40.500000, 84.000000, 0.014835, 0.003141, -0.713818, 1.745526, 1.056005, -0.441330, -0.000000, 0.000000, 0.000000, -0.000000
393.613005, 24.100000, 111.500000, 0.000000, 0.000000, 145.500000, 12.400000, 40.500000, 84.000000, 0.014835, 0.003141, -0.713818, 1.745526, 1.056005, -0.441330, -0.000000, 0.000000, 0.000000, -0.000000
393.713943, 24.100000, 111.500000, 0.000000, 0.000000, 145.500000, 12.400000, 40.500000, 84.000000, 0.014835, 0.003141, -0.713818, 1.745526, 1.056005, -0.441330, -0.000000, 0.000000, 0.000000, -0.000000
