JunhaAgu/can_excavator_plot/from_excavator.txt
time [ms], ACyl_LC [bar], ACyl_SC [bar], Swing_L [bar], Swing_R [bar], BCyl_LC [bar], BCyl_SC [bar], KCyl_LC [bar], KCyl_SC [bar], Body_Pitch_Angle [rad], Body_Roll_Angle [rad], Boom_Joint_Angle [rad], Arm_Joint_Angle [rad], Bkt_Joint_Angle [rad], Swing_Angle [rad], Boom_Joint_Rate [rad/s], Arm_Joint_Rate [rad/s], Bkt_Joint_Rate [rad/s], Swing_Rate [rad/s], 
12.059024, 25.600000, 77.000000, 128.399994, 179.800003, 796.599976, 848.000000, 899.400024, 950.799988, -2.190765, -2.085635, -1.139461, -0.088157, 0.963147, 2.014451, -1.185040, -0.091683, 1.001673, 2.095029
12.160284, 25.600000, 77.000000, 128.399994, 179.800003, 796.599976, 848.000000, 899.400024, 950.799988, -2.190765, -2.085635, -1.139461, -0.088157, 0.963147, 2.014451, -4.385376, -0.339285, 3.706806, 7.752898
12.261403, 25.600000, 77.000000, 128.399994, 179.800003, 796.599976, 848.000000, 899.400024, 950.799988, -2.190765, -2.085635, -1.139461, -0.088157, 0.963147, 2.014451, -7.732432, -0.598237, 6.535957, 13.670152
12.362724, 25.600000, 77.000000, 128.399994, 179.800003, 796.599976, 848.000000, 899.400024, 950.799988, -2.190765, -2.085635, -1.139461, -0.088157, 0.963147, 2.014451, -9.862377, -0.763025, 8.336326, 17.435678
12.463930, 25.600000, 77.000000, 128.399994, 179.800003, 796.599976, 848.000000, 899.400024, 950.799988, -2.190765, -2.085635, -1.139461, -0.088157, 0.963147, 2.014451, -11.011727, -0.851947, 9.307831, 19.467611
12.565187, 25.600000, 77.000000, 128.399994, 179.800003, 796.599976, 848.000000, 899.400024, 950.799988, -2.190765, -2.085635, -1.139461, -0.088157, 0.963147, 2.014451, -11.394668, -0.881575, 9.631516, 20.144609
12.658311, 25.600000, 77.000000, 128.399994, 179.800003, 796.599976, 848.000000, 899.400024, 950.799988, -2.190765, -2.085635, -1.139461, -0.088157, 0.963147, 2.014451, -11.200090, -0.866521, 9.467047, 19.800615
12.756424, 25.600000, 77.000000, 128.399994, 179.800003, 796.599976, 848.000000, 899.400024, 950.799988, -2.190765, -2.085635, -1.139461, -0.088157, 0.963147, 2.014451, -10.590480, -0.819357, 8.951764, 18.722885
12.849553, 25.600000, 77.000000, 128.399994, 179.800003, 796.599976, 848.000000, 899.400024, 950.799988, -2.190765, -2.085635, -1.139461, -0.088157, 0.963147, 2.014451, -9.702195, -0.750633, 8.200928, 17.152489
12.947542, 25.600000, 77.000000, 128.399994, 179.800003, 796.599976, 848.000000, 899.400024, 950.799988, -2.190765, -2.085635, -1.139461, -0.088157, 0.963147, 2.014451, -8.646768, -0.668977, 7.308811, 15.286600
13.048746, 25.600000, 77.000000, 128.399994, 179.800003, 796.599976, 848.000000, 899.400024, 950.799988, -2.190765, -2.085635, -1.139461, -0.088157, 0.963147, 2.014451, -7.512886, -0.581252, 6.350380, 13.282012
13.141854, 25.600000, 77.000000, 128.399994, 179.800003, 796.599976, 848.000000, 899.400024, 950.799988, -2.190765, -2.085635, -1.139461, -0.088157, 0.963147, 2.014451, -6.368803, -0.492737, 5.383327, 11.259391
13.239869, 25.600000, 77.000000, 128.399994, 179.800003, 796.599976, 848.000000, 899.400024, 950.799988, -2.190765, -2.085635, -1.139461, -0.088157, 0.963147, 2.014451, -5.264955, -0.407335, 4.450282, 9.307899
13.341103, 25.600000, 77.000000, 128.399994, 179.800003, 796.599976, 848.000000, 899.400024, 950.799988, -2.190765, -2.085635, -1.139461, -0.088157, 0.963147, 2.014451, -4.236616, -0.327776, 3.581063, 7.489902
13.442286, 25.600000, 77.000000, 128.399994, 179.800003, 796.599976, 848.000000, 899.400024, 950.799988, -2.190765, -2.085635, -1.139461, -0.088157, 0.963147, 2.014451, -3.306486, -0.255814, 2.794856, 5.845527
13.543469, 25.600000, 77.000000, 128.399994, 179.800003, 796.599976, 848.000000, 899.400024, 950.799988, -2.190765, -2.085635, -1.139461, -0.088157, 0.963147, 2.014451, -2.487099, -0.192420, 2.102257, 4.396935
13.644713, 25.600000, 77.000000, 128.399994, 179.800003, 796.599976, 848.000000, 899.400024, 950.799988, -2.190765, -2.085635, -1.139461, -0.088157, 0.963147, 2.014451, -1.783022, -0.137948, 1.507125, 3.152199
13.745965, 25.600000, 77.000000, 128.399994, 179.800003, 796.599976, 848.000000, 899.400024, 950.799988, -2.190765, -2.085635, -1.139461, -0.088157, 0.963147, 2.014451, -1.192793, -0.092283, 1.008225, 2.108735
13.847098, 25.600000, 77.000000, 128.399994, 179.800003, 796.599976, 848.000000, 899.400024, 950.799988, -2.190765, -2.085635, -1.139461, -0.088157, 0.963147, 2.014451, -0.710592, -0.054977, 0.600638, 1.256254
13.948315, 25.600000, 77.000000, 128.399994, 179.800003, 796.599976, 848.000000, 899.400024, 950.799988, -2.190765, -2.085635, -1.139461, -0.088157, 0.963147, 2.014451, -0.327652, -0.025350, 0.276952, 0.579255
14.049596, 25.600000, 77.000000, 128.399994, 179.800003, 796.599976, 848.000000, 899.400024, 950.799988, -2.190765, -2.085635, -1.139461, -0.088157, 0.963147, 2.014451, -0.033409, -0.002585, 0.028239, 0.059064
14.150744, 25.600000, 77.000000, 128.399994, 179.800003, 796.599976, 848.000000, 899.400024, 950.799988, -2.190765, -2.085635, -1.139461, -0.088157, 0.963147, 2.014451, 0.183576, 0.014203, -0.155171, -0.324544
14.243951, 25.600000, 77.000000, 128.399994, 179.800003, 796.599976, 848.000000, 899.400024, 950.799988, -2.190765, -2.085635, -1.139461, -0.088157, 0.963147, 2.014451, 0.334906, 0.025911, -0.283085, -0.592079
14.342128, 25.600000, 77.000000, 128.399994, 179.800003, 796.599976, 848.000000, 899.400024, 950.799988, -2.190765, -2.085635, -1.139461, -0.088157, 0.963147, 2.014451, 0.431820, 0.033409, -0.365003, -0.763413
14.443211, 25.600000, 77.000000, 128.399994, 179.800003, 796.599976, 848.000000, 899.400024, 950.799988, -2.190765, -2.085635, -1.139461, -0.088157, 0.963147, 2.014451, 0.484822, 0.037509, -0.409803, -0.857115
14.544325, 25.600000, 77.000000, 128.399994, 179.800003, 796.599976, 848.000000, 899.400024, 950.799988, -2.190765, -2.085635, -1.139461, -0.088157, 0.963147, 2.014451, 0.503439, 0.038950, -0.425540, -0.890029
14.637477, 25.600000, 77.000000, 128.399994, 179.800003, 796.599976, 848.000000, 899.400024, 950.799988, -2.190765, -2.085635, -1.139461, -0.088157, 0.963147, 2.014451, 0.496087, 0.038381, -0.419325, -0.877030
14.735576, 25.600000, 77.000000, 128.399994, 179.800003, 796.599976, 848.000000, 899.400024, 950.799988, -2.190765, -2.085635, -1.139461, -0.088157, 0.963147, 2.014451, 0.470013, 0.036364, -0.397285, -0.830934
14.836793, 25.600000, 77.000000, 128.399994, 179.800003, 796.599976, 848.000000, 899.400024, 950.799988, -2.190765, -2.085635, -1.139461, -0.088157, 0.963147, 2.014451, 0.431309, 0.033369, -0.364570, -0.762510
14.938072, 25.600000, 77.000000, 128.399994, 179.800003, 796.599976, 848.000000, 899.400024, 950.799988, -2.190765, -2.085635, -1.139461, -0.088157, 0.963147, 2.014451, 0.384965, 0.029784, -0.325397, -0.680578
15.039248, 25.600000, 77.000000, 128.399994, 179.800003, 796.599976, 848.000000, 899.400024, 950.799988, -2.190765, -2.085635, -1.139461, -0.088157, 0.963147, 2.014451, 0.334956, 0.025915, -0.283126, -0.592167
15.140548, 25.600000, 77.000000, 128.399994, 179.800003, 796.599976, 848.000000, 899.400024, 950.799988, -2.190765, -2.085635, -1.139461, -0.088157, 0.963147, 2.014451, 0.284346, 0.021999, -0.240348, -0.502695
15.241689, 25.600000, 77.000000, 128.399994, 179.800003, 796.599976, 848.000000, 899.400024, 950.799988, -2.190765, -2.085635, -1.139461, -0.088157, 0.963147, 2.014451, 0.235407, 0.018213, -0.198982, -0.416176
15.334868, 25.600000, 77.000000, 128.399994, 179.800003, 796.599976, 848.000000, 899.400024, 950.799988, -2.190765, -2.085635, -1.139461, -0.088157, 0.963147, 2.014451, 0.189733, 0.014679, -0.160375, -0.335429
15.433003, 25.600000, 77.000000, 128.399994, 179.800003, 796.599976, 848.000000, 899.400024, 950.799988, -2.190765, -2.085635, -1.139461, -0.088157, 0.963147, 2.014451, 0.148356, 0.011478, -0.125400, -0.262279
15.534203, 25.600000, 77.000000, 128.399994, 179.800003, 796.599976, 848.000000, 899.400024, 950.799988, -2.190765, -2.085635, -1.139461, -0.088157, 0.963147, 2.014451, 0.111853, 0.008654, -0.094545, -0.197744
15.635375, 25.600000, 77.000000, 128.399994, 179.800003, 796.599976, 848.000000, 899.400024, 950.799988, -2.190765, -2.085635, -1.139461, -0.088157, 0.963147, 2.014451, 0.080442, 0.006224, -0.067995, -0.142214
15.736565, 25.600000, 77.000000, 128.399994, 179.800003, 796.599976, 848.000000, 899.400024, 950.799988, -2.190765, -2.085635, -1.139461, -0.088157, 0.963147, 2.014451, 0.054074, 0.004184, -0.045707, -0.095597
15.829717, 25.600000, 77.000000, 128.399994, 179.800003, 796.599976, 848.000000, 899.400024, 950.799988, -2.190765, -2.085635, -1.139461, -0.088157, 0.963147, 2.014451, 0.032498, 0.002514, -0.027470, -0.057454
15.927789, 25.600000, 77.000000, 128.399994, 179.800003, 796.599976, 848.000000, 899.400024, 950.799988, -2.190765, -2.085635, -1.139461, -0.088157, 0.963147, 2.014451, 0.015335, 0.001186, -0.012962, -0.027111
16.029038, 25.600000, 77.000000, 128.399994, 179.800003, 796.599976, 848.000000, 899.400024, 950.799988, -2.190765, -2.085635, -1.139461, -0.088157, 0.963147, 2.014451, 0.002120, 0.000164, -0.001792, -0.003748
16.122143, 25.600000, 77.000000, 128.399994, 179.800003, 796.599976, 848.000000, 899.400024, 950.799988, -2.190765, -2.085635, -1.139461, -0.088157, 0.963147, 2.014451, -0.007651, -0.000592, 0.006467, 0.013527
16.220176, 25.600000, 77.000000, 128.399994, 179.800003, 796.599976, 848.000000, 899.400024, 950.799988, -2.190765, -2.085635, -1.139461, -0.088157, 0.963147, 2.014451, -0.014492, -0.001121, 0.012249, 0.025620
16.321279, 25.600000, 77.000000, 128.399994, 179.800003, 796.599976, 848.000000, 899.400024, 950.799988, -2.190765, -2.085635, -1.139461, -0.088157, 0.963147, 2.014451, -0.018899, -0.001462, 0.015975, 0.033412
16.422430, 25.600000, 77.000000, 128.399994, 179.800003, 796.599976, 848.000000, 899.400024, 950.799988, -2.190765, -2.085635, -1.139461, -0.088157, 0.963147, 2.014451, -0.021340, -0.001651, 0.018038, 0.037728
16.523585, 25.600000, 77.000000, 128.399994, 179.800003, 796.599976, 848.000000, 899.400024, 950.799988, -2.190765, -2.085635, -1.139461, -0.088157, 0.963147, 2.014451, -0.022239, -0.001721, 0.018798, 0.039317
16.624865, 25.600000, 77.000000, 128.399994, 179.800003, 796.599976, 848.000000, 899.400024, 950.799988, -2.190765, -2.085635, -1.139461, -0.088157, 0.963147, 2.014451, -0.021970, -0.001700, 0.018571, 0.038841
16.725994, 25.600000, 77.000000, 128.399994, 179.800003, 796.599976, 848.000000, 899.400024, 950.799988, -2.190765, -2.085635, -1.139461, -0.088157, 0.963147, 2.014451, -0.020857, -0.001614, 0.017630, 0.036874
16.827329, 25.600000, 77.000000, 128.399994, 179.800003, 796.599976, 848.000000, 899.400024, 950.799988, -2.190765, -2.085635, -1.139461, -0.088157, 0.963147, 2.014451, -0.019172, -0.001483, 0.016205, 0.033894
16.920432, 25.600000, 77.000000, 128.399994, 179.800003, 796.599976, 848.000000, 899.400024, 950.799988, -2.190765, -2.085635, -1.139461, -0.088157, 0.963147, 2.014451, -0.017138, -0.001326, 0.014486, 0.030298
17.018464, 25.600000, 77.000000, 128.399994, 179.800003, 796.599976, 848.000000, 899.400024, 950.799988, -2.190765, -2.085635, -1.139461, -0.088157, 0.963147, 2.014451, -0.014933, -0.001155, 0.012622, 0.026399
17.119653, 25.600000, 77.000000, 128.399994, 179.800003, 796.599976, 848.000000, 899.400024, 950.799988, -2.190765, -2.085635, -1.139461, -0.088157, 0.963147, 2.014451, -0.012694, -0.000982, 0.010730, 0.022442
17.220759, 25.600000, 77.000000, 128.399994, 179.800003, 796.599976, 848.000000, 899.400024, 950.799988, -2.190765, -2.085635, -1.139461, -0.088157, 0.963147, 2.014451, -0.010525, -0.000814, 0.008896, 0.018607
17.313867, 25.600000, 77.000000, 128.399994, 179.800003, 796.599976, 848.000000, 899.400024, 950.799988, -2.190765, -2.085635, -1.139461, -0.088157, 0.963147, 2.014451, -0.008496, -0.000657, 0.007182, 0.015020
17.411946, 25.600000, 77.000000, 128.399994, 179.800003, 796.599976, 848.000000, 899.400024, 950.799988, -2.190765, -2.085635, -1.139461, -0.088157, 0.963147, 2.014451, -0.006656, -0.000515, 0.005626, 0.011767
17.513077, 25.600000, 77.000000, 128.399994, 179.800003, 796.599976, 848.000000, 899.400024, 950.799988, -2.190765, -2.085635, -1.139461, -0.088157, 0.963147, 2.014451, -0.005030, -0.000389, 0.004251, 0.008892
17.614311, 25.600000, 77.000000, 128.399994, 179.800003, 796.599976, 848.000000, 899.400024, 950.799988, -2.190765, -2.085635, -1.139461, -0.088157, 0.963147, 2.014451, -0.003628, -0.000281, 0.003067, 0.006415
17.715450, 25.600000, 77.000000, 128.399994, 179.800003, 796.599976, 848.000000, 899.400024, 950.799988, -2.190765, -2.085635, -1.139461, -0.088157, 0.963147, 2.014451, -0.002451, -0.000190, 0.002071, 0.004332
17.816592, 25.600000, 77.000000, 128.399994, 179.800003, 796.599976, 848.000000, 899.400024, 950.799988, -2.190765, -2.085635, -1.139461, -0.088157, 0.963147, 2.014451, -0.001485, -0.000115, 0.001255, 0.002626
17.917753, 25.600000, 77.000000, 128.399994, 179.800003, 796.599976, 848.000000, 899.400024, 950.799988, -2.190765, -2.085635, -1.139461, -0.088157, 0.963147, 2.014451, -0.000716, -0.000055, 0.000605, 0.001266
18.019004, 25.600000, 77.000000, 128.399994, 179.800003, 796.599976, 848.000000, 899.400024, 950.799988, -2.190765, -2.085635, -1.139461, -0.088157, 0.963147, 2.014451, -0.000123, -0.000009, 0.000104, 0.000217
18.120256, 25.600000, 77.000000, 128.399994, 179.800003, 796.599976, 848.000000, 899.400024, 950.799988, -2.190765, -2.085635, -1.139461, -0.088157, 0.963147, 2.014451, 0.000317, 0.000025, -0.000268, -0.000561
18.213372, 25.600000, 77.000000, 128.399994, 179.800003, 796.599976, 848.000000, 899.400024, 950.799988, -2.190765, -2.085635, -1.139461, -0.088157, 0.963147, 2.014451, 0.000626, 0.000048, -0.000529, -0.001107
18.311341, 25.600000, 77.000000, 128.399994, 179.800003, 796.599976, 848.000000, 899.400024, 950.799988, -2.190765, -2.085635, -1.139461, -0.088157, 0.963147, 2.014451, 0.000827, 0.000064, -0.000699, -0.001462
18.412453, 25.600000, 77.000000, 128.399994, 179.800003, 796.599976, 848.000000, 899.400024, 950.799988, -2.190765, -2.085635, -1.139461, -0.088157, 0.963147, 2.014451, 0.000939, 0.000073, -0.000794, -0.001660
18.513614, 25.600000, 77.000000, 128.399994, 179.800003, 796.599976, 848.000000, 899.400024, 950.799988, -2.190765, -2.085635, -1.139461, -0.088157, 0.963147, 2.014451, 0.000982, 0.000076, -0.000830, -0.001737
18.614727, 25.600000, 77.000000, 128.399994, 179.800003, 796.599976, 848.000000, 899.400024, 950.799988, -2.190765, -2.085635, -1.139461, -0.088157, 0.963147, 2.014451, 0.000973, 0.000075, -0.000822, -0.001720
18.715794, 25.600000, 77.000000, 128.399994, 179.800003, 796.599976, 848.000000, 899.400024, 950.799988, -2.190765, -2.085635, -1.139461, -0.088157, 0.963147, 2.014451, 0.000925, 0.000072, -0.000782, -0.001636
18.808934, 25.600000, 77.000000, 128.399994, 179.800003, 796.599976, 848.000000, 899.400024, 950.799988, -2.190765, -2.085635, -1.139461, -0.088157, 0.963147, 2.014451, 0.000852, 0.000066, -0.000720, -0.001506
18.906988, 25.600000, 77.000000, 128.399994, 179.800003, 796.599976, 848.000000, 899.400024, 950.799988, -2.190765, -2.085635, -1.139461, -0.088157, 0.963147, 2.014451, 0.000763, 0.000059, -0.000645, -0.001349
19.008254, 25.600000, 77.000000, 128.399994, 179.800003, 796.599976, 848.000000, 899.400024, 950.799988, -2.190765, -2.085635, -1.139461, -0.088157, 0.963147, 2.014451, 0.000666, 0.000051, -0.000563, -0.001177
19.101379, 25.600000, 77.000000, 128.399994, 179.800003, 796.599976, 848.000000, 899.400024, 950.799988, -2.190765, -2.085635, -1.139461, -0.088157, 0.963147, 2.014451, 0.000567, 0.000044, -0.000479, -0.001002
19.199439, 25.600000, 77.000000, 128.399994, 179.800003, 796.599976, 848.000000, 899.400024, 950.799988, -2.190765, -2.085635, -1.139461, -0.088157, 0.963147, 2.014451, 0.000470, 0.000036, -0.000398, -0.000832
19.300623, 25.600000, 77.000000, 128.399994, 179.800003, 796.599976, 848.000000, 899.400024, 950.799988, -2.190765, -2.085635, -1.139461, -0.088157, 0.963147, 2.014451, 0.000380, 0.000029, -0.000322, -0.000673
19.401880, 25.600000, 77.000000, 128.399994, 179.800003, 796.599976, 848.000000, 899.400024, 950.799988, -2.190765, -2.085635, -1.139461, -0.088157, 0.963147, 2.014451, 0.000299, 0.000023, -0.000252, -0.000528
19.502993, 25.600000, 77.000000, 128.399994, 179.800003, 796.599976, 848.000000, 899.400024, 950.799988, -2.190765, -2.085635, -1.139461, -0.088157, 0.963147, 2.014451, 0.000226, 0.000017, -0.000191, -0.000400
19.604168, 25.600000, 77.000000, 128.399994, 179.800003, 796.599976, 848.000000, 899.400024, 950.799988, -2.190765, -2.085635, -1.139461, -0.088157, 0.963147, 2.014451, 0.000164, 0.000013, -0.000138, -0.000289
19.705376, 25.600000, 77.000000, 128.399994, 179.800003, 796.599976, 848.000000, 899.400024, 950.799988, -2.190765, -2.085635, -1.139461, -0.088157, 0.963147, 2.014451, 0.000111, 0.000009, -0.000094, -0.000196
19.806603, 25.600000, 77.000000, 128.399994, 179.800003, 796.599976, 848.000000, 899.400024, 950.799988, -2.190765, -2.085635, -1.139461, -0.088157, 0.963147, 2.014451, 0.000068, 0.000005, -0.000057, -0.000120
19.907755, 25.600000, 77.000000, 128.399994, 179.800003, 796.599976, 848.000000, 899.400024, 950.799988, -2.190765, -2.085635, -1.139461, -0.088157, 0.963147, 2.014451, 0.000033, 0.000003, -0.000028, -0.000059
20.009036, 25.600000, 77.000000, 128.399994, 179.800003, 796.599976, 848.000000, 899.400024, 950.799988, -2.190765, -2.085635, -1.139461, -0.088157, 0.963147, 2.014451, 0.000007, 0.000001, -0.000006, -0.000012
20.102153, 25.600000, 77.000000, 128.399994, 179.800003, 796.599976, 848.000000, 899.400024, 950.799988, -2.190765, -2.085635, -1.139461, -0.088157, 0.963147, 2.014451, -0.000013, -0.000001, 0.000011, 0.000023
20.200246, 25.600000, 77.000000, 128.399994, 179.800003, 796.599976, 848.000000, 899.400024, 950.799988, -2.190765, -2.085635, -1.139461, -0.088157, 0.963147, 2.014451, -0.000027, -0.000002, 0.000023, 0.000048
20.301430, 25.600000, 77.000000, 128.399994, 179.800003, 796.599976, 848.000000, 899.400024, 950.799988, -2.190765, -2.085635, -1.139461, -0.088157, 0.963147, 2.014451, -0.000036, -0.000003, 0.000031, 0.000064
20.394610, 25.600000, 77.000000, 128.399994, 179.800003, 796.599976, 848.000000, 899.400024, 950.799988, -2.190765, -2.085635, -1.139461, -0.088157, 0.963147, 2.014451, -0.000041, -0.000003, 0.000035, 0.000073
20.492691, 25.600000, 77.000000, 128.399994, 179.800003, 796.599976, 848.000000, 899.400024, 950.799988, -2.190765, -2.085635, -1.139461, -0.088157, 0.963147, 2.014451, -0.000043, -0.000003, 0.000037, 0.000077
20.593860, 25.600000, 77.000000, 128.399994, 179.800003, 796.599976, 848.000000, 899.400024, 950.799988, -2.190765, -2.085635, -1.139461, -0.088157, 0.963147, 2.014451, -0.000043, -0.000003, 0.000036, 0.000076
20.695072, 25.600000, 77.000000, 128.399994, 179.800003, 796.599976, 848.000000, 899.400024, 950.799988, -2.190765, -2.085635, -1.139461, -0.088157, 0.963147, 2.014451, -0.000041, -0.000003, 0.000035, 0.000073
20.796201, 25.600000, 77.000000, 128.399994, 179.800003, 796.599976, 848.000000, 899.400024, 950.799988, -2.190765, -2.085635, -1.139461, -0.088157, 0.963147, 2.014451, -0.000038, -0.000003, 0.000032, 0.000067
20.897344, 25.600000, 77.000000, 128.399994, 179.800003, 796.599976, 848.000000, 899.400024, 950.799988, -2.190765, -2.085635, -1.139461, -0.088157, 0.963147, 2.014451, -0.000034, -0.000003, 0.000029, 0.000060
20.998464, 25.600000, 77.000000, 128.399994, 179.800003, 796.599976, 848.000000, 899.400024, 950.799988, -2.190765, -2.085635, -1.139461, -0.088157, 0.963147, 2.014451, -0.000030, -0.000002, 0.000025, 0.000052
21.099647, 25.600000, 77.000000, 128.399994, 179.800003, 796.599976, 848.000000, 899.400024, 950.799988, -2.190765, -2.085635, -1.139461, -0.088157, 0.963147, 2.014451, -0.000025, -0.000002, 0.000021, 0.000045
21.200944, 25.600000, 77.000000, 128.399994, 179.800003, 796.599976, 848.000000, 899.400024, 950.799988, -2.190765, -2.085635, -1.139461, -0.088157, 0.963147, 2.014451, -0.000021, -0.000002, 0.000018, 0.000037
21.302154, 25.600000, 77.000000, 128.399994, 179.800003, 796.599976, 848.000000, 899.400024, 950.799988, -2.190765, -2.085635, -1.139461, -0.088157, 0.963147, 2.014451, -0.000017, -0.000001, 0.000014, 0.000030
21.403279, 25.600000, 77.000000, 128.399994, 179.800003, 796.599976, 848.000000, 899.400024, 950.799988, -2.190765, -2.085635, -1.139461, -0.088157, 0.963147, 2.014451, -0.000013, -0.000001, 0.000011, 0.000024
21.504411, 25.600000, 77.000000, 128.399994, 179.800003, 796.599976, 848.000000, 899.400024, 950.799988, -2.190765, -2.085635, -1.139461, -0.088157, 0.963147, 2.014451, -0.000010, -0.000001, 0.000009, 0.000018
21.605719, 25.600000, 77.000000, 128.399994, 179.800003, 796.599976, 848.000000, 899.400024, 950.799988, -2.190765, -2.085635, -1.139461, -0.088157, 0.963147, 2.014451, -0.000007, -0.000001, 0.000006, 0.000013
21.698871, 25.600000, 77.000000, 128.399994, 179.800003, 796.599976, 848.000000, 899.400024, 950.799988, -2.190765, -2.085635, -1.139461, -0.088157, 0.963147, 2.014451, -0.000005, -0.000000, 0.000004, 0.000009
21.796838, 25.600000, 77.000000, 128.399994, 179.800003, 796.599976, 848.000000, 899.400024, 950.799988, -2.190765, -2.085635, -1.139461, -0.088157, 0.963147, 2.014451, -0.000003, -0.000000, 0.000003, 0.000005
21.889943, 25.600000, 77.000000, 128.399994, 179.800003, 796.599976, 848.000000, 899.400024, 950.799988, -2.190765, -2.085635, -1.139461, -0.088157, 0.963147, 2.014451, -0.000002, -0.000000, 0.000001, 0.000003
21.987913, 25.600000, 77.000000, 128.399994, 179.800003, 796.599976, 848.000000, 899.400024, 950.799988, -2.190765, -2.085635, -1.139461, -0.088157, 0.963147, 2.014451, -0.000000, -0.000000, 0.000000, 0.000001
22.089197, 25.600000, 77.000000, 128.399994, 179.800003, 796.599976, 848.000000, 899.400024, 950.799988, -2.190765, -2.085635, -1.139461, -0.088157, 0.963147, 2.014451, 0.000001, 0.000000, -0.000000, -0.000001
22.190249, 25.600000, 77.000000, 128.399994, 179.800003, 796.599976, 848.000000, 899.400024, 950.799988, -2.190765, -2.085635, -1.139461, -0.088157, 0.963147, 2.014451, 0.000001, 0.000000, -0.000001, -0.000002
22.291322, 25.600000, 77.000000, 128.399994, 179.800003, 796.599976, 848.000000, 899.400024, 950.799988, -2.190765, -2.085635, -1.139461, -0.088157, 0.963147, 2.014451, 0.000002, 0.000000, -0.000001, -0.000003
22.384595, 25.600000, 77.000000, 128.399994, 179.800003, 796.599976, 848.000000, 899.400024, 950.799988, -2.190765, -2.085635, -1.139461, -0.088157, 0.963147, 2.014451, 0.000002, 0.000000, -0.000002, -0.000003
22.482608, 25.600000, 77.000000, 128.399994, 179.800003, 796.599976, 848.000000, 899.400024, 950.799988, -2.190765, -2.085635, -1.139461, -0.088157, 0.963147, 2.014451, 0.000002, 0.000000, -0.000002, -0.000003
22.583748, 25.600000, 77.000000, 128.399994, 179.800003, 796.599976, 848.000000, 899.400024, 950.799988, -2.190765, -2.085635, -1.139461, -0.088157, 0.963147, 2.014451, 0.000002, 0.000000, -0.000002, -0.000003
22.684991, 25.600000, 77.000000, 128.399994, 179.800003, 796.599976, 848.000000, 899.400024, 950.799988, -2.190765, -2.085635, -1.139461, -0.088157, 0.963147, 2.014451, 0.000002, 0.000000, -0.000002, -0.000003
22.786125, 25.600000, 77.000000, 128.399994, 179.800003, 796.599976, 848.000000, 899.400024, 950.799988, -2.190765, -2.085635, -1.139461, -0.088157, 0.963147, 2.014451, 0.000002, 0.000000, -0.000001, -0.000003
22.887328, 25.600000, 77.000000, 128.399994, 179.800003, 796.599976, 848.000000, 899.400024, 950.799988, -2.190765, -2.085635, -1.139461, -0.088157, 0.963147, 2.014451, 0.000002, 0.000000, -0.000001, -0.000003
22.980533, 25.600000, 77.000000, 128.399994, 179.800003, 796.599976, 848.000000, 899.400024, 950.799988, -2.190765, -2.085635, -1.139461, -0.088157, 0.963147, 2.014451, 0.000001, 0.000000, -0.000001, -0.000002
23.078552, 25.600000, 77.000000, 128.399994, 179.800003, 796.599976, 848.000000, 899.400024, 950.799988, -2.190765, -2.085635, -1.139461, -0.088157, 0.963147, 2.014451, 0.000001, 0.000000, -0.000001, -0.000002
23.179735, 25.600000, 77.000000, 128.399994, 179.800003, 796.599976, 848.000000, 899.400024, 950.799988, -2.190765, -2.085635, -1.139461, -0.088157, 0.963147, 2.014451, 0.000001, 0.000000, -0.000001, -0.000002
23.280978, 25.600000, 77.000000, 128.399994, 179.800003, 796.599976, 848.000000, 899.400024, 950.799988, -2.190765, -2.085635, -1.139461, -0.088157, 0.963147, 2.014451, 0.000001, 0.000000, -0.000001, -0.000001
23.382136, 25.600000, 77.000000, 128.399994, 179.800003, 796.599976, 848.000000, 899.400024, 950.799988, -2.190765, -2.085635, -1.139461, -0.088157, 0.963147, 2.014451, 0.000001, 0.000000, -0.000001, -0.000001
23.483317, 25.600000, 77.000000, 128.399994, 179.800003, 796.599976, 848.000000, 899.400024, 950.799988, -2.190765, -2.085635, -1.139461, -0.088157, 0.963147, 2.014451, 0.000000, 0.000000, -0.000000, -0.000001
23.584598, 25.600000, 77.000000, 128.399994, 179.800003, 796.599976, 848.000000, 899.400024, 950.799988, -2.190765, -2.085635, -1.139461, -0.088157, 0.963147, 2.014451, 0.000000, 0.000000, -0.000000, -0.000001
23.685639, 25.600000, 77.000000, 128.399994, 179.800003, 796.599976, 848.000000, 899.400024, 950.799988, -2.190765, -2.085635, -1.139461, -0.088157, 0.963147, 2.014451, 0.000000, 0.000000, -0.000000, -0.000000
23.786829, 25.600000, 77.000000, 128.399994, 179.800003, 796.599976, 848.000000, 899.400024, 950.799988, -2.190765, -2.085635, -1.139461, -0.088157, 0.963147, 2.014451, 0.000000, 0.000000, -0.000000, -0.000000
23.888017, 25.600000, 77.000000, 128.399994, 179.800003, 796.599976, 848.000000, 899.400024, 950.799988, -2.190765, -2.085635, -1.139461, -0.088157, 0.963147, 2.014451, 0.000000, 0.000000, -0.000000, -0.000000
23.981136, 25.600000, 77.000000, 128.399994, 179.800003, 796.599976, 848.000000, 899.400024, 950.799988, -2.190765, -2.085635, -1.139461, -0.088157, 0.963147, 2.014451, 0.000000, 0.000000, -0.000000, -0.000000
24.079488, 25.600000, 77.000000, 128.399994, 179.800003, 796.599976, 848.000000, 899.400024, 950.799988, -2.190765, -2.085635, -1.139461, -0.088157, 0.963147, 2.014451, -0.000000, -0.000000, 0.000000, 0.000000
24.180788, 25.600000, 77.000000, 128.399994, 179.800003, 796.599976, 848.000000, 899.400024, 950.799988, -2.190765, -2.085635, -1.139461, -0.088157, 0.963147, 2.014451, -0.000000, -0.000000, 0.000000, 0.000000
24.282015, 25.600000, 77.000000, 128.399994, 179.800003, 796.599976, 848.000000, 899.400024, 950.799988, -2.190765, -2.085635, -1.139461, -0.088157, 0.963147, 2.014451, -0.000000, -0.000000, 0.000000, 0.000000
24.383120, 25.600000, 77.000000, 128.399994, 179.800003, 796.599976, 848.000000, 899.400024, 950.799988, -2.190765, -2.085635, -1.139461, -0.088157, 0.963147, 2.014451, -0.000000, -0.000000, 0.000000, 0.000000
24.484308, 25.600000, 77.000000, 128.399994, 179.800003, 796.599976, 848.000000, 899.400024, 950.799988, -2.190765, -2.085635, -1.139461, -0.088157, 0.963147, 2.014451, -0.000000, -0.000000, 0.000000, 0.000000
24.585481, 25.600000, 77.000000, 128.399994, 179.800003, 796.599976, 848.000000, 899.400024, 950.799988, -2.190765, -2.085635, -1.139461, -0.088157, 0.963147, 2.014451, -0.000000, -0.000000, 0.000000, 0.000000
24.686600, 25.600000, 77.000000, 128.399994, 179.800003, 796.599976, 848.000000, 899.400024, 950.799988, -2.190765, -2.085635, -1.139461, -0.088157, 0.963147, 2.014451, -0.000000, -0.000000, 0.000000, 0.000000
24.787752, 25.600000, 77.000000, 128.399994, 179.800003, 796.599976, 848.000000, 899.400024, 950.799988, -2.190765, -2.085635, -1.139461, -0.088157, 0.963147, 2.014451, -0.000000, -0.000000, 0.000000, 0.000000
24.888931, 25.600000, 77.000000, 128.399994, 179.800003, 796.599976, 848.000000, 899.400024, 950.799988, -2.190765, -2.085635, -1.139461, -0.088157, 0.963147, 2.014451, -0.000000, -0.000000, 0.000000, 0.000000
24.990162, 25.600000, 77.000000, 128.399994, 179.800003, 796.599976, 848.000000, 899.400024, 950.799988, -2.190765, -2.085635, -1.139461, -0.088157, 0.963147, 2.014451, -0.000000, -0.000000, 0.000000, 0.000000
25.091436, 25.600000, 77.000000, 128.399994, 179.800003, 796.599976, 848.000000, 899.400024, 950.799988, -2.190765, -2.085635, -1.139461, -0.088157, 0.963147, 2.014451, -0.000000, -0.000000, 0.000000, 0.000000
25.192564, 25.600000, 77.000000, 128.399994, 179.800003, 796.599976, 848.000000, 899.400024, 950.799988, -2.190765, -2.085635, -1.139461, -0.088157, 0.963147, 2.014451, -0.000000, -0.000000, 0.000000, 0.000000
25.293709, 25.600000, 77.000000, 128.399994, 179.800003, 796.599976, 848.000000, 899.400024, 950.799988, -2.190765, -2.085635, -1.139461, -0.088157, 0.963147, 2.014451, -0.000000, -0.000000, 0.000000, 0.000000
25.394820, 25.600000, 77.000000, 128.399994, 179.800003, 796.599976, 848.000000, 899.400024, 950.799988, -2.190765, -2.085635, -1.139461, -0.088157, 0.963147, 2.014451, -0.000000, -0.000000, 0.000000, 0.000000
25.495944, 25.600000, 77.000000, 128.399994, 179.800003, 796.599976, 848.000000, 899.400024, 950.799988, -2.190765, -2.085635, -1.139461, -0.088157, 0.963147, 2.014451, -0.000000, -0.000000, 0.000000, 0.000000
25.597019, 25.600000, 77.000000, 128.399994, 179.800003, 796.599976, 848.000000, 899.400024, 950.799988, -2.190765, -2.085635, -1.139461, -0.088157, 0.963147, 2.014451, -0.000000, -0.000000, 0.000000, 0.000000
25.698234, 25.600000, 77.000000, 128.399994, 179.800003, 796.599976, 848.000000, 899.400024, 950.799988, -2.190765, -2.085635, -1.139461, -0.088157, 0.963147, 2.014451, -0.000000, -0.000000, 0.000000, 0.000000
25.799445, 25.600000, 77.000000, 128.399994, 179.800003, 796.599976, 848.000000, 899.400024, 950.799988, -2.190765, -2.085635, -1.139461, -0.088157, 0.963147, 2.014451, -0.000000, -0.000000, 0.000000, 0.000000
25.900606, 25.600000, 77.000000, 128.399994, 179.800003, 796.599976, 848.000000, 899.400024, 950.799988, -2.190765, -2.085635, -1.139461, -0.088157, 0.963147, 2.014451, -0.000000, -0.000000, 0.000000, 0.000000
26.001695, 25.600000, 77.000000, 128.399994, 179.800003, 796.599976, 848.000000, 899.400024, 950.799988, -2.190765, -2.085635, -1.139461, -0.088157, 0.963147, 2.014451, -0.000000, -0.000000, 0.000000, 0.000000
26.102856, 25.600000, 77.000000, 128.399994, 179.800003, 796.599976, 848.000000, 899.400024, 950.799988, -2.190765, -2.085635, -1.139461, -0.088157, 0.963147, 2.014451, 0.000000, 0.000000, -0.000000, -0.000000
26.195972, 25.600000, 77.000000, 128.399994, 179.800003, 796.599976, 848.000000, 899.400024, 950.799988, -2.190765, -2.085635, -1.139461, -0.088157, 0.963147, 2.014451, 0.000000, 0.000000, -0.000000, -0.000000
26.294138, 25.600000, 77.000000, 128.399994, 179.800003, 796.599976, 848.000000, 899.400024, 950.799988, -2.190765, -2.085635, -1.139461, -0.088157, 0.963147, 2.014451, 0.000000, 0.000000, -0.000000, -0.000000
26.395275, 25.600000, 77.000000, 128.399994, 179.800003, 796.599976, 848.000000, 899.400024, 950.799988, -2.190765, -2.085635, -1.139461, -0.088157, 0.963147, 2.014451, 0.000000, 0.000000, -0.000000, -0.000000
26.496505, 25.600000, 77.000000, 128.399994, 179.800003, 796.599976, 848.000000, 899.400024, 950.799988, -2.190765, -2.085635, -1.139461, -0.088157, 0.963147, 2.014451, 0.000000, 0.000000, -0.000000, -0.000000
26.597666, 25.600000, 77.000000, 128.399994, 179.800003, 796.599976, 848.000000, 899.400024, 950.799988, -2.190765, -2.085635, -1.139461, -0.088157, 0.963147, 2.014451, 0.000000, 0.000000, -0.000000, -0.000000
26.698961, 25.600000, 77.000000, 128.399994, 179.800003, 796.599976, 848.000000, 899.400024, 950.799988, -2.190765, -2.085635, -1.139461, -0.088157, 0.963147, 2.014451, 0.000000, 0.000000, -0.000000, -0.000000
26.800085, 25.600000, 77.000000, 128.399994, 179.800003, 796.599976, 848.000000, 899.400024, 950.799988, -2.190765, -2.085635, -1.139461, -0.088157, 0.963147, 2.014451, 0.000000, 0.000000, -0.000000, -0.000000
26.901282, 25.600000, 77.000000, 128.399994, 179.800003, 796.599976, 848.000000, 899.400024, 950.799988, -2.190765, -2.085635, -1.139461, -0.088157, 0.963147, 2.014451, 0.000000, 0.000000, -0.000000, -0.000000
27.002477, 25.600000, 77.000000, 128.399994, 179.800003, 796.599976, 848.000000, 899.400024, 950.799988, -2.190765, -2.085635, -1.139461, -0.088157, 0.963147, 2.014451, 0.000000, 0.000000, -0.000000, -0.000000
27.095595, 25.600000, 77.000000, 128.399994, 179.800003, 796.599976, 848.000000, 899.400024, 950.799988, -2.190765, -2.085635, -1.139461, -0.088157, 0.963147, 2.014451, 0.000000, 0.000000, -0.000000, -0.000000
27.193728, 25.600000, 77.000000, 128.399994, 179.800003, 796.599976, 848.000000, 899.400024, 950.799988, -2.190765, -2.085635, -1.139461, -0.088157, 0.963147, 2.014451, 0.000000, 0.000000, -0.000000, -0.000000
27.294917, 25.600000, 77.000000, 128.399994, 179.800003, 796.599976, 848.000000, 899.400024, 950.799988, -2.190765, -2.085635, -1.139461, -0.088157, 0.963147, 2.014451, 0.000000, 0.000000, -0.000000, -0.000000
27.396053, 25.600000, 77.000000, 128.399994, 179.800003, 796.599976, 848.000000, 899.400024, 950.799988, -2.190765, -2.085635, -1.139461, -0.088157, 0.963147, 2.014451, 0.000000, 0.000000, -0.000000, -0.000000
27.489299, 25.600000, 77.000000, 128.399994, 179.800003, 796.599976, 848.000000, 899.400024, 950.799988, -2.190765, -2.085635, -1.139461, -0.088157, 0.963147, 2.014451, 0.000000, 0.000000, -0.000000, -0.000000
27.587542, 25.600000, 77.000000, 128.399994, 179.800003, 796.599976, 848.000000, 899.400024, 950.799988, -2.190765, -2.085635, -1.139461, -0.088157, 0.963147, 2.014451, 0.000000, 0.000000, -0.000000, -0.000000
27.688625, 25.600000, 77.000000, 128.399994, 179.800003, 796.599976, 848.000000, 899.400024, 950.799988, -2.190765, -2.085635, -1.139461, -0.088157, 0.963147, 2.014451, 0.000000, 0.000000, -0.000000, -0.000000
27.781780, 25.600000, 77.000000, 128.399994, 179.800003, 796.599976, 848.000000, 899.400024, 950.799988, -2.190765, -2.085635, -1.139461, -0.088157, 0.963147, 2.014451, 0.000000, 0.000000, -0.000000, -0.000000
27.879850, 25.600000, 77.000000, 128.399994, 179.800003, 796.599976, 848.000000, 899.400024, 950.799988, -2.190765, -2.085635, -1.139461, -0.088157, 0.963147, 2.014451, 0.000000, 0.000000, -0.000000, -0.000000
27.980995, 25.600000, 77.000000, 128.399994, 179.800003, 796.599976, 848.000000, 899.400024, 950.799988, -2.190765, -2.085635, -1.139461, -0.088157, 0.963147, 2.014451, 0.000000, 0.000000, -0.000000, -0.000000
28.082308, 25.600000, 77.000000, 128.399994, 179.800003, 796.599976, 848.000000, 899.400024, 950.799988, -2.190765, -2.085635, -1.139461, -0.088157, 0.963147, 2.014451, -0.000000, -0.000000, 0.000000, 0.000000
28.183475, 25.600000, 77.000000, 128.399994, 179.800003, 796.599976, 848.000000, 899.400024, 950.799988, -2.190765, -2.085635, -1.139461, -0.088157, 0.963147, 2.014451, -0.000000, -0.000000, 0.000000, 0.000000
28.284693, 25.600000, 77.000000, 128.399994, 179.800003, 796.599976, 848.000000, 899.400024, 950.799988, -2.190765, -2.085635, -1.139461, -0.088157, 0.963147, 2.014451, -0.000000, -0.000000, 0.000000, 0.000000
28.385797, 25.600000, 77.000000, 128.399994, 179.800003, 796.599976, 848.000000, 899.400024, 950.799988, -2.190765, -2.085635, -1.139461, -0.088157, 0.963147, 2.014451, -0.000000, -0.000000, 0.000000, 0.000000
28.486995, 25.600000, 77.000000, 128.399994, 179.800003, 796.599976, 848.000000, 899.400024, 950.799988, -2.190765, -2.085635, -1.139461, -0.088157, 0.963147, 2.014451, -0.000000, -0.000000, 0.000000, 0.000000
28.588271, 25.600000, 77.000000, 128.399994, 179.800003, 796.599976, 848.000000, 899.400024, 950.799988, -2.190765, -2.085635, -1.139461, -0.088157, 0.963147, 2.014451, -0.000000, -0.000000, 0.000000, 0.000000
28.689331, 25.600000, 77.000000, 128.399994, 179.800003, 796.599976, 848.000000, 899.400024, 950.799988, -2.190765, -2.085635, -1.139461, -0.088157, 0.963147, 2.014451, -0.000000, -0.000000, 0.000000, 0.000000
28.790557, 25.600000, 77.000000, 128.399994, 179.800003, 796.599976, 848.000000, 899.400024, 950.799988, -2.190765, -2.085635, -1.139461, -0.088157, 0.963147, 2.014451, -0.000000, -0.000000, 0.000000, 0.000000
28.883763, 25.600000, 77.000000, 128.399994, 179.800003, 796.599976, 848.000000, 899.400024, 950.799988, -2.190765, -2.085635, -1.139461, -0.088157, 0.963147, 2.014451, -0.000000, -0.000000, 0.000000, 0.000000
28.981723, 25.600000, 77.000000, 128.399994, 179.800003, 796.599976, 848.000000, 899.400024, 950.799988, -2.190765, -2.085635, -1.139461, -0.088157, 0.963147, 2.014451, -0.000000, -0.000000, 0.000000, 0.000000
29.074887, 25.600000, 77.000000, 128.399994, 179.800003, 796.599976, 848.000000, 899.400024, 950.799988, -2.190765, -2.085635, -1.139461, -0.088157, 0.963147, 2.014451, -0.000000, -0.000000, 0.000000, 0.000000
29.172918, 25.600000, 77.000000, 128.399994, 179.800003, 796.599976, 848.000000, 899.400024, 950.799988, -2.190765, -2.085635, -1.139461, -0.088157, 0.963147, 2.014451, -0.000000, -0.000000, 0.000000, 0.000000
29.266035, 25.600000, 77.000000, 128.399994, 179.800003, 796.599976, 848.000000, 899.400024, 950.799988, -2.190765, -2.085635, -1.139461, -0.088157, 0.963147, 2.014451, -0.000000, -0.000000, 0.000000, 0.000000
29.364161, 25.600000, 77.000000, 128.399994, 179.800003, 796.599976, 848.000000, 899.400024, 950.799988, -2.190765, -2.085635, -1.139461, -0.088157, 0.963147, 2.014451, -0.000000, -0.000000, 0.000000, 0.000000
29.465283, 25.600000, 77.000000, 128.399994, 179.800003, 796.599976, 848.000000, 899.400024, 950.799988, -2.190765, -2.085635, -1.139461, -0.088157, 0.963147, 2.014451, -0.000000, -0.000000, 0.000000, 0.000000
29.566424, 25.600000, 77.000000, 128.399994, 179.800003, 796.599976, 848.000000, 899.400024, 950.799988, -2.190765, -2.085635, -1.139461, -0.088157, 0.963147, 2.014451, -0.000000, -0.000000, 0.000000, 0.000000
29.667451, 25.600000, 77.000000, 128.399994, 179.800003, 796.599976, 848.000000, 899.400024, 950.799988, -2.190765, -2.085635, -1.139461, -0.088157, 0.963147, 2.014451, -0.000000, -0.000000, 0.000000, 0.000000
29.768667, 25.600000, 77.000000, 128.399994, 179.800003, 796.599976, 848.000000, 899.400024, 950.799988, -2.190765, -2.085635, -1.139461, -0.088157, 0.963147, 2.014451, -0.000000, -0.000000, 0.000000, 0.000000
29.869804, 25.600000, 77.000000, 128.399994, 179.800003, 796.599976, 848.000000, 899.400024, 950.799988, -2.190765, -2.085635, -1.139461, -0.088157, 0.963147, 2.014451, -0.000000, -0.000000, 0.000000, 0.000000
29.963042, 25.600000, 77.000000, 128.399994, 179.800003, 796.599976, 848.000000, 899.400024, 950.799988, -2.190765, -2.085635, -1.139461, -0.088157, 0.963147, 2.014451, -0.000000, -0.000000, 0.000000, 0.000000
30.061155, 25.600000, 77.000000, 128.399994, 179.800003, 796.599976, 848.000000, 899.400024, 950.799988, -2.190765, -2.085635, -1.139461, -0.088157, 0.963147, 2.014451, 0.000000, 0.000000, -0.000000, -0.000000
30.162341, 25.600000, 77.000000, 128.399994, 179.800003, 796.599976, 848.000000, 899.400024, 950.799988, -2.190765, -2.085635, -1.139461, -0.088157, 0.963147, 2.014451, 0.000000, 0.000000, -0.000000, -0.000000
30.263658, 25.600000, 77.000000, 128.399994, 179.800003, 796.599976, 848.000000, 899.400024, 950.799988, -2.190765, -2.085635, -1.139461, -0.088157, 0.963147, 2.014451, 0.000000, 0.000000, -0.000000, -0.000000
30.356815, 25.600000, 77.000000, 128.399994, 179.800003, 796.599976, 848.000000, 899.400024, 950.799988, -2.190765, -2.085635, -1.139461, -0.088157, 0.963147, 2.014451, 0.000000, 0.000000, -0.000000, -0.000000
30.454973, 25.600000, 77.000000, 128.399994, 179.800003, 796.599976, 848.000000, 899.400024, 950.799988, -2.190765, -2.085635, -1.139461, -0.088157, 0.963147, 2.014451, 0.000000, 0.000000, -0.000000, -0.000000
30.548205, 25.600000, 77.000000, 128.399994, 179.800003, 796.599976, 848.000000, 899.400024, 950.799988, -2.190765, -2.085635, -1.139461, -0.088157, 0.963147, 2.014451, 0.000000, 0.000000, -0.000000, -0.000000
30.646293, 25.600000, 77.000000, 128.399994, 179.800003, 796.599976, 848.000000, 899.400024, 950.799988, -2.190765, -2.085635, -1.139461, -0.088157, 0.963147, 2.014451, 0.000000, 0.000000, -0.000000, -0.000000
30.739537, 25.600000, 77.000000, 128.399994, 179.800003, 796.599976, 848.000000, 899.400024, 950.799988, -2.190765, -2.085635, -1.139461, -0.088157, 0.963147, 2.014451, 0.000000, 0.000000, -0.000000, -0.000000
30.837581, 25.600000, 77.000000, 128.399994, 179.800003, 796.599976, 848.000000, 899.400024, 950.799988, -2.190765, -2.085635, -1.139461, -0.088157, 0.963147, 2.014451, 0.000000, 0.000000, -0.000000, -0.000000
30.938784, 25.600000, 77.000000, 128.399994, 179.800003, 796.599976, 848.000000, 899.400024, 950.799988, -2.190765, -2.085635, -1.139461, -0.088157, 0.963147, 2.014451, 0.000000, 0.000000, -0.000000, -0.000000
31.039958, 25.600000, 77.000000, 128.399994, 179.800003, 796.599976, 848.000000, 899.400024, 950.799988, -2.190765, -2.085635, -1.139461, -0.088157, 0.963147, 2.014451, 0.000000, 0.000000, -0.000000, -0.000000
31.141283, 25.600000, 77.000000, 128.399994, 179.800003, 796.599976, 848.000000, 899.400024, 950.799988, -2.190765, -2.085635, -1.139461, -0.088157, 0.963147, 2.014451, 0.000000, 0.000000, -0.000000, -0.000000
31.242453, 25.600000, 77.000000, 128.399994, 179.800003, 796.599976, 848.000000, 899.400024, 950.799988, -2.190765, -2.085635, -1.139461, -0.088157, 0.963147, 2.014451, 0.000000, 0.000000, -0.000000, -0.000000
31.343567, 25.600000, 77.000000, 128.399994, 179.800003, 796.599976, 848.000000, 899.400024, 950.799988, -2.190765, -2.085635, -1.139461, -0.088157, 0.963147, 2.014451, 0.000000, 0.000000, -0.000000, -0.000000
31.444751, 25.600000, 77.000000, 128.399994, 179.800003, 796.599976, 848.000000, 899.400024, 950.799988, -2.190765, -2.085635, -1.139461, -0.088157, 0.963147, 2.014451, 0.000000, 0.000000, -0.000000, -0.000000
31.545919, 25.600000, 77.000000, 128.399994, 179.800003, 796.599976, 848.000000, 899.400024, 950.799988, -2.190765, -2.085635, -1.139461, -0.088157, 0.963147, 2.014451, 0.000000, 0.000000, -0.000000, -0.000000
31.647208, 25.600000, 77.000000, 128.399994, 179.800003, 796.599976, 848.000000, 899.400024, 950.799988, -2.190765, -2.085635, -1.139461, -0.088157, 0.963147, 2.014451, 0.000000, 0.000000, -0.000000, -0.000000
31.748454, 25.600000, 77.000000, 128.399994, 179.800003, 796.599976, 848.000000, 899.400024, 950.799988, -2.190765, -2.085635, -1.139461, -0.088157, 0.963147, 2.014451, 0.000000, 0.000000, -0.000000, -0.000000
31.841565, 25.600000, 77.000000, 128.399994, 179.800003, 796.599976, 848.000000, 899.400024, 950.799988, -2.190765, -2.085635, -1.139461, -0.088157, 0.963147, 2.014451, 0.000000, 0.000000, -0.000000, -0.000000
31.939618, 25.600000, 77.000000, 128.399994, 179.800003, 796.599976, 848.000000, 899.400024, 950.799988, -2.190765, -2.085635, -1.139461, -0.088157, 0.963147, 2.014451, 0.000000, 0.000000, -0.000000, -0.000000
32.032778, 25.600000, 77.000000, 128.399994, 179.800003, 796.599976, 848.000000, 899.400024, 950.799988, -2.190765, -2.085635, -1.139461, -0.088157, 0.963147, 2.014451, -0.000000, -0.000000, 0.000000, 0.000000
32.130860, 25.600000, 77.000000, 128.399994, 179.800003, 796.599976, 848.000000, 899.400024, 950.799988, -2.190765, -2.085635, -1.139461, -0.088157, 0.963147, 2.014451, -0.000000, -0.000000, 0.000000, 0.000000
32.231967, 25.600000, 77.000000, 128.399994, 179.800003, 796.599976, 848.000000, 899.400024, 950.799988, -2.190765, -2.085635, -1.139461, -0.088157, 0.963147, 2.014451, -0.000000, -0.000000, 0.000000, 0.000000
32.333211, 25.600000, 77.000000, 128.399994, 179.800003, 796.599976, 848.000000, 899.400024, 950.799988, -2.190765, -2.085635, -1.139461, -0.088157, 0.963147, 2.014451, -0.000000, -0.000000, 0.000000, 0.000000
32.426318, 25.600000, 77.000000, 128.399994, 179.800003, 796.599976, 848.000000, 899.400024, 950.799988, -2.190765, -2.085635, -1.139461, -0.088157, 0.963147, 2.014451, -0.000000, -0.000000, 0.000000, 0.000000
32.524291, 25.600000, 77.000000, 128.399994, 179.800003, 796.599976, 848.000000, 899.400024, 950.799988, -2.190765, -2.085635, -1.139461, -0.088157, 0.963147, 2.014451, -0.000000, -0.000000, 0.000000, 0.000000
32.625552, 25.600000, 77.000000, 128.399994, 179.800003, 796.599976, 848.000000, 899.400024, 950.799988, -2.190765, -2.085635, -1.139461, -0.088157, 0.963147, 2.014451, -0.000000, -0.000000, 0.000000, 0.000000
32.726799, 25.600000, 77.000000, 128.399994, 179.800003, 796.599976, 848.000000, 899.400024, 950.799988, -2.190765, -2.085635, -1.139461, -0.088157, 0.963147, 2.014451, -0.000000, -0.000000, 0.000000, 0.000000
32.819918, 25.600000, 77.000000, 128.399994, 179.800003, 796.599976, 848.000000, 899.400024, 950.799988, -2.190765, -2.085635, -1.139461, -0.088157, 0.963147, 2.014451, -0.000000, -0.000000, 0.000000, 0.000000
32.917918, 25.600000, 77.000000, 128.399994, 179.800003, 796.599976, 848.000000, 899.400024, 950.799988, -2.190765, -2.085635, -1.139461, -0.088157, 0.963147, 2.014451, -0.000000, -0.000000, 0.000000, 0.000000
33.019176, 25.600000, 77.000000, 128.399994, 179.800003, 796.599976, 848.000000, 899.400024, 950.799988, -2.190765, -2.085635, -1.139461, -0.088157, 0.963147, 2.014451, -0.000000, -0.000000, 0.000000, 0.000000
33.120412, 25.600000, 77.000000, 128.399994, 179.800003, 796.599976, 848.000000, 899.400024, 950.799988, -2.190765, -2.085635, -1.139461, -0.088157, 0.963147, 2.014451, -0.000000, -0.000000, 0.000000, 0.000000
33.221545, 25.600000, 77.000000, 128.399994, 179.800003, 796.599976, 848.000000, 899.400024, 950.799988, -2.190765, -2.085635, -1.139461, -0.088157, 0.963147, 2.014451, -0.000000, -0.000000, 0.000000, 0.000000
33.314718, 25.600000, 77.000000, 128.399994, 179.800003, 796.599976, 848.000000, 899.400024, 950.799988, -2.190765, -2.085635, -1.139461, -0.088157, 0.963147, 2.014451, -0.000000, -0.000000, 0.000000, 0.000000
33.412646, 25.600000, 77.000000, 128.399994, 179.800003, 796.599976, 848.000000, 899.400024, 950.799988, -2.190765, -2.085635, -1.139461, -0.088157, 0.963147, 2.014451, -0.000000, -0.000000, 0.000000, 0.000000
33.513815, 25.600000, 77.000000, 128.399994, 179.800003, 796.599976, 848.000000, 899.400024, 950.799988, -2.190765, -2.085635, -1.139461, -0.088157, 0.963147, 2.014451, -0.000000, -0.000000, 0.000000, 0.000000
33.614937, 25.600000, 77.000000, 128.399994, 179.800003, 796.599976, 848.000000, 899.400024, 950.799988, -2.190765, -2.085635, -1.139461, -0.088157, 0.963147, 2.014451, -0.000000, -0.000000, 0.000000, 0.000000
33.716080, 25.600000, 77.000000, 128.399994, 179.800003, 796.599976, 848.000000, 899.400024, 950.799988, -2.190765, -2.085635, -1.139461, -0.088157, 0.963147, 2.014451, -0.000000, -0.000000, 0.000000, 0.000000
33.817244, 25.600000, 77.000000, 128.399994, 179.800003, 796.599976, 848.000000, 899.400024, 950.799988, -2.190765, -2.085635, -1.139461, -0.088157, 0.963147, 2.014451, -0.000000, -0.000000, 0.000000, 0.000000
33.918334, 25.600000, 77.000000, 128.399994, 179.800003, 796.599976, 848.000000, 899.400024, 950.799988, -2.190765, -2.085635, -1.139461, -0.088157, 0.963147, 2.014451, -0.000000, -0.000000, 0.000000, 0.000000
34.019517, 25.600000, 77.000000, 128.399994, 179.800003, 796.599976, 848.000000, 899.400024, 950.799988, -2.190765, -2.085635, -1.139461, -0.088157, 0.963147, 2.014451, 0.000000, 0.000000, -0.000000, -0.000000
34.112655, 25.600000, 77.000000, 128.399994, 179.800003, 796.599976, 848.000000, 899.400024, 950.799988, -2.190765, -2.085635, -1.139461, -0.088157, 0.963147, 2.014451, 0.000000, 0.000000, -0.000000, -0.000000
34.210628, 25.600000, 77.000000, 128.399994, 179.800003, 796.599976, 848.000000, 899.400024, 950.799988, -2.190765, -2.085635, -1.139461, -0.088157, 0.963147, 2.014451, 0.000000, 0.000000, -0.000000, -0.000000
34.311755, 25.600000, 77.000000, 128.399994, 179.800003, 796.599976, 848.000000, 899.400024, 950.799988, -2.190765, -2.085635, -1.139461, -0.088157, 0.963147, 2.014451, 0.000000, 0.000000, -0.000000, -0.000000
34.404886, 25.600000, 77.000000, 128.399994, 179.800003, 796.599976, 848.000000, 899.400024, 950.799988, -2.190765, -2.085635, -1.139461, -0.088157, 0.963147, 2.014451, 0.000000, 0.000000, -0.000000, -0.000000
34.503161, 25.600000, 77.000000, 128.399994, 179.800003, 796.599976, 848.000000, 899.400024, 950.799988, -2.190765, -2.085635, -1.139461, -0.088157, 0.963147, 2.014451, 0.000000, 0.000000, -0.000000, -0.000000
34.604380, 25.600000, 77.000000, 128.399994, 179.800003, 796.599976, 848.000000, 899.400024, 950.799988, -2.190765, -2.085635, -1.139461, -0.088157, 0.963147, 2.014451, 0.000000, 0.000000, -0.000000, -0.000000
34.697521, 25.600000, 77.000000, 128.399994, 179.800003, 796.599976, 848.000000, 899.400024, 950.799988, -2.190765, -2.085635, -1.139461, -0.088157, 0.963147, 2.014451, 0.000000, 0.000000, -0.000000, -0.000000
34.795531, 25.600000, 77.000000, 128.399994, 179.800003, 796.599976, 848.000000, 899.400024, 950.799988, -2.190765, -2.085635, -1.139461, -0.088157, 0.963147, 2.014451, 0.000000, 0.000000, -0.000000, -0.000000
34.896779, 25.600000, 77.000000, 128.399994, 179.800003, 796.599976, 848.000000, 899.400024, 950.799988, -2.190765, -2.085635, -1.139461, -0.088157, 0.963147, 2.014451, 0.000000, 0.000000, -0.000000, -0.000000
34.998027, 25.600000, 77.000000, 128.399994, 179.800003, 796.599976, 848.000000, 899.400024, 950.799988, -2.190765, -2.085635, -1.139461, -0.088157, 0.963147, 2.014451, 0.000000, 0.000000, -0.000000, -0.000000
35.099259, 25.600000, 77.000000, 128.399994, 179.800003, 796.599976, 848.000000, 899.400024, 950.799988, -2.190765, -2.085635, -1.139461, -0.088157, 0.963147, 2.014451, 0.000000, 0.000000, -0.000000, -0.000000
35.200475, 25.600000, 77.000000, 128.399994, 179.800003, 796.599976, 848.000000, 899.400024, 950.799988, -2.190765, -2.085635, -1.139461, -0.088157, 0.963147, 2.014451, 0.000000, 0.000000, -0.000000, -0.000000
35.293656, 25.600000, 77.000000, 128.399994, 179.800003, 796.599976, 848.000000, 899.400024, 950.799988, -2.190765, -2.085635, -1.139461, -0.088157, 0.963147, 2.014451, 0.000000, 0.000000, -0.000000, -0.000000
35.391729, 25.600000, 77.000000, 128.399994, 179.800003, 796.599976, 848.000000, 899.400024, 950.799988, -2.190765, -2.085635, -1.139461, -0.088157, 0.963147, 2.014451, 0.000000, 0.000000, -0.000000, -0.000000
35.484855, 25.600000, 77.000000, 128.399994, 179.800003, 796.599976, 848.000000, 899.400024, 950.799988, -2.190765, -2.085635, -1.139461, -0.088157, 0.963147, 2.014451, 0.000000, 0.000000, -0.000000, -0.000000
35.582943, 25.600000, 77.000000, 128.399994, 179.800003, 796.599976, 848.000000, 899.400024, 950.799988, -2.190765, -2.085635, -1.139461, -0.088157, 0.963147, 2.014451, 0.000000, 0.000000, -0.000000, -0.000000
35.684213, 25.600000, 77.000000, 128.399994, 179.800003, 796.599976, 848.000000, 899.400024, 950.799988, -2.190765, -2.085635, -1.139461, -0.088157, 0.963147, 2.014451, 0.000000, 0.000000, -0.000000, -0.000000
35.785378, 25.600000, 77.000000, 128.399994, 179.800003, 796.599976, 848.000000, 899.400024, 950.799988, -2.190765, -2.085635, -1.139461, -0.088157, 0.963147, 2.014451, 0.000000, 0.000000, -0.000000, -0.000000
35.886635, 25.600000, 77.000000, 128.399994, 179.800003, 796.599976, 848.000000, 899.400024, 950.799988, -2.190765, -2.085635, -1.139461, -0.088157, 0.963147, 2.014451, 0.000000, 0.000000, -0.000000, -0.000000
35.987815, 25.600000, 77.000000, 128.399994, 179.800003, 796.599976, 848.000000, 899.400024, 950.799988, -2.190765, -2.085635, -1.139461, -0.088157, 0.963147, 2.014451, -0.000000, -0.000000, 0.000000, 0.000000
36.081024, 25.600000, 77.000000, 128.399994, 179.800003, 796.599976, 848.000000, 899.400024, 950.799988, -2.190765, -2.085635, -1.139461, -0.088157, 0.963147, 2.014451, -0.000000, -0.000000, 0.000000, 0.000000
36.179116, 25.600000, 77.000000, 128.399994, 179.800003, 796.599976, 848.000000, 899.400024, 950.799988, -2.190765, -2.085635, -1.139461, -0.088157, 0.963147, 2.014451, -0.000000, -0.000000, 0.000000, 0.000000
36.272239, 25.600000, 77.000000, 128.399994, 179.800003, 796.599976, 848.000000, 899.400024, 950.799988, -2.190765, -2.085635, -1.139461, -0.088157, 0.963147, 2.014451, -0.000000, -0.000000, 0.000000, 0.000000
36.370231, 25.600000, 77.000000, 128.399994, 179.800003, 796.599976, 848.000000, 899.400024, 950.799988, -2.190765, -2.085635, -1.139461, -0.088157, 0.963147, 2.014451, -0.000000, -0.000000, 0.000000, 0.000000
36.463358, 25.600000, 77.000000, 128.399994, 179.800003, 796.599976, 848.000000, 899.400024, 950.799988, -2.190765, -2.085635, -1.139461, -0.088157, 0.963147, 2.014451, -0.000000, -0.000000, 0.000000, 0.000000
36.561353, 25.600000, 77.000000, 128.399994, 179.800003, 796.599976, 848.000000, 899.400024, 950.799988, -2.190765, -2.085635, -1.139461, -0.088157, 0.963147, 2.014451, -0.000000, -0.000000, 0.000000, 0.000000
36.654497, 25.600000, 77.000000, 128.399994, 179.800003, 796.599976, 848.000000, 899.400024, 950.799988, -2.190765, -2.085635, -1.139461, -0.088157, 0.963147, 2.014451, -0.000000, -0.000000, 0.000000, 0.000000
36.752524, 25.600000, 77.000000, 128.399994, 179.800003, 796.599976, 848.000000, 899.400024, 950.799988, -2.190765, -2.085635, -1.139461, -0.088157, 0.963147, 2.014451, -0.000000, -0.000000, 0.000000, 0.000000
36.853716, 25.600000, 77.000000, 128.399994, 179.800003, 796.599976, 848.000000, 899.400024, 950.799988, -2.190765, -2.085635, -1.139461, -0.088157, 0.963147, 2.014451, -0.000000, -0.000000, 0.000000, 0.000000
36.954893, 25.600000, 77.000000, 128.399994, 179.800003, 796.599976, 848.000000, 899.400024, 950.799988, -2.190765, -2.085635, -1.139461, -0.088157, 0.963147, 2.014451, -0.000000, -0.000000, 0.000000, 0.000000
37.056182, 25.600000, 77.000000, 128.399994, 179.800003, 796.599976, 848.000000, 899.400024, 950.799988, -2.190765, -2.085635, -1.139461, -0.088157, 0.963147, 2.014451, -0.000000, -0.000000, 0.000000, 0.000000
37.149336, 25.600000, 77.000000, 128.399994, 179.800003, 796.599976, 848.000000, 899.400024, 950.799988, -2.190765, -2.085635, -1.139461, -0.088157, 0.963147, 2.014451, -0.000000, -0.000000, 0.000000, 0.000000
37.247417, 25.600000, 77.000000, 128.399994, 179.800003, 796.599976, 848.000000, 899.400024, 950.799988, -2.190765, -2.085635, -1.139461, -0.088157, 0.963147, 2.014451, -0.000000, -0.000000, 0.000000, 0.000000
37.348744, 25.600000, 77.000000, 128.399994, 179.800003, 796.599976, 848.000000, 899.400024, 950.799988, -2.190765, -2.085635, -1.139461, -0.088157, 0.963147, 2.014451, -0.000000, -0.000000, 0.000000, 0.000000
37.441878, 25.600000, 77.000000, 128.399994, 179.800003, 796.599976, 848.000000, 899.400024, 950.799988, -2.190765, -2.085635, -1.139461, -0.088157, 0.963147, 2.014451, -0.000000, -0.000000, 0.000000, 0.000000
37.539987, 25.600000, 77.000000, 128.399994, 179.800003, 796.599976, 848.000000, 899.400024, 950.799988, -2.190765, -2.085635, -1.139461, -0.088157, 0.963147, 2.014451, -0.000000, -0.000000, 0.000000, 0.000000
37.633296, 25.600000, 77.000000, 128.399994, 179.800003, 796.599976, 848.000000, 899.400024, 950.799988, -2.190765, -2.085635, -1.139461, -0.088157, 0.963147, 2.014451, -0.000000, -0.000000, 0.000000, 0.000000
37.731243, 25.600000, 77.000000, 128.399994, 179.800003, 796.599976, 848.000000, 899.400024, 950.799988, -2.190765, -2.085635, -1.139461, -0.088157, 0.963147, 2.014451, -0.000000, -0.000000, 0.000000, 0.000000
37.832390, 25.600000, 77.000000, 128.399994, 179.800003, 796.599976, 848.000000, 899.400024, 950.799988, -2.190765, -2.085635, -1.139461, -0.088157, 0.963147, 2.014451, -0.000000, -0.000000, 0.000000, 0.000000
37.933410, 25.600000, 77.000000, 128.399994, 179.800003, 796.599976, 848.000000, 899.400024, 950.799988, -2.190765, -2.085635, -1.139461, -0.088157, 0.963147, 2.014451, 0.000000, 0.000000, -0.000000, -0.000000
38.034608, 25.600000, 77.000000, 128.399994, 179.800003, 796.599976, 848.000000, 899.400024, 950.799988, -2.190765, -2.085635, -1.139461, -0.088157, 0.963147, 2.014451, 0.000000, 0.000000, -0.000000, -0.000000
38.135684, 25.600000, 77.000000, 128.399994, 179.800003, 796.599976, 848.000000, 899.400024, 950.799988, -2.190765, -2.085635, -1.139461, -0.088157, 0.963147, 2.014451, 0.000000, 0.000000, -0.000000, -0.000000
38.236914, 25.600000, 77.000000, 128.399994, 179.800003, 796.599976, 848.000000, 899.400024, 950.799988, -2.190765, -2.085635, -1.139461, -0.088157, 0.963147, 2.014451, 0.000000, 0.000000, -0.000000, -0.000000
38.338223, 25.600000, 77.000000, 128.399994, 179.800003, 796.599976, 848.000000, 899.400024, 950.799988, -2.190765, -2.085635, -1.139461, -0.088157, 0.963147, 2.014451, 0.000000, 0.000000, -0.000000, -0.000000
38.439521, 25.600000, 77.000000, 128.399994, 179.800003, 796.599976, 848.000000, 899.400024, 950.799988, -2.190765, -2.085635, -1.139461, -0.088157, 0.963147, 2.014451, 0.000000, 0.000000, -0.000000, -0.000000
38.540631, 25.600000, 77.000000, 128.399994, 179.800003, 796.599976, 848.000000, 899.400024, 950.799988, -2.190765, -2.085635, -1.139461, -0.088157, 0.963147, 2.014451, 0.000000, 0.000000, -0.000000, -0.000000
38.633758, 25.600000, 77.000000, 128.399994, 179.800003, 796.599976, 848.000000, 899.400024, 950.799988, -2.190765, -2.085635, -1.139461, -0.088157, 0.963147, 2.014451, 0.000000, 0.000000, -0.000000, -0.000000
38.731830, 25.600000, 77.000000, 128.399994, 179.800003, 796.599976, 848.000000, 899.400024, 950.799988, -2.190765, -2.085635, -1.139461, -0.088157, 0.963147, 2.014451, 0.000000, 0.000000, -0.000000, -0.000000
38.833126, 25.600000, 77.000000, 128.399994, 179.800003, 796.599976, 848.000000, 899.400024, 950.799988, -2.190765, -2.085635, -1.139461, -0.088157, 0.963147, 2.014451, 0.000000, 0.000000, -0.000000, -0.000000
38.934352, 25.600000, 77.000000, 128.399994, 179.800003, 796.599976, 848.000000, 899.400024, 950.799988, -2.190765, -2.085635, -1.139461, -0.088157, 0.963147, 2.014451, 0.000000, 0.000000, -0.000000, -0.000000
39.035663, 25.600000, 77.000000, 128.399994, 179.800003, 796.599976, 848.000000, 899.400024, 950.799988, -2.190765, -2.085635, -1.139461, -0.088157, 0.963147, 2.014451, 0.000000, 0.000000, -0.000000, -0.000000
39.136946, 25.600000, 77.000000, 128.399994, 179.800003, 796.599976, 848.000000, 899.400024, 950.799988, -2.190765, -2.085635, -1.139461, -0.088157, 0.963147, 2.014451, 0.000000, 0.000000, -0.000000, -0.000000
39.238131, 25.600000, 77.000000, 128.399994, 179.800003, 796.599976, 848.000000, 899.400024, 950.799988, -2.190765, -2.085635, -1.139461, -0.088157, 0.963147, 2.014451, 0.000000, 0.000000, -0.000000, -0.000000
39.331445, 25.600000, 77.000000, 128.399994, 179.800003, 796.599976, 848.000000, 899.400024, 950.799988, -2.190765, -2.085635, -1.139461, -0.088157, 0.963147, 2.014451, 0.000000, 0.000000, -0.000000, -0.000000
39.429511, 25.600000, 77.000000, 128.399994, 179.800003, 796.599976, 848.000000, 899.400024, 950.799988, -2.190765, -2.085635, -1.139461, -0.088157, 0.963147, 2.014451, 0.000000, 0.000000, -0.000000, -0.000000
39.530770, 25.600000, 77.000000, 128.399994, 179.800003, 796.599976, 848.000000, 899.400024, 950.799988, -2.190765, -2.085635, -1.139461, -0.088157, 0.963147, 2.014451, 0.000000, 0.000000, -0.000000, -0.000000
39.632010, 25.600000, 77.000000, 128.399994, 179.800003, 796.599976, 848.000000, 899.400024, 950.799988, -2.190765, -2.085635, -1.139461, -0.088157, 0.963147, 2.014451, 0.000000, 0.000000, -0.000000, -0.000000
39.733334, 25.600000, 77.000000, 128.399994, 179.800003, 796.599976, 848.000000, 899.400024, 950.799988, -2.190765, -2.085635, -1.139461, -0.088157, 0.963147, 2.014451, 0.000000, 0.000000, -0.000000, -0.000000
39.834534, 25.600000, 77.000000, 128.399994, 179.800003, 796.599976, 848.000000, 899.400024, 950.799988, -2.190765, -2.085635, -1.139461, -0.088157, 0.963147, 2.014451, 0.000000, 0.000000, -0.000000, -0.000000
39.927693, 25.600000, 77.000000, 128.399994, 179.800003, 796.599976, 848.000000, 899.400024, 950.799988, -2.190765, -2.085635, -1.139461, -0.088157, 0.963147, 2.014451, -0.000000, -0.000000, 0.000000, 0.000000
40.025983, 25.600000, 77.000000, 128.399994, 179.800003, 796.599976, 848.000000, 899.400024, 950.799988, -2.190765, -2.085635, -1.139461, -0.088157, 0.963147, 2.014451, -0.000000, -0.000000, 0.000000, 0.000000
40.127110, 25.600000, 77.000000, 128.399994, 179.800003, 796.599976, 848.000000, 899.400024, 950.799988, -2.190765, -2.085635, -1.139461, -0.088157, 0.963147, 2.014451, -0.000000, -0.000000, 0.000000, 0.000000
40.228291, 25.600000, 77.000000, 128.399994, 179.800003, 796.599976, 848.000000, 899.400024, 950.799988, -2.190765, -2.085635, -1.139461, -0.088157, 0.963147, 2.014451, -0.000000, -0.000000, 0.000000, 0.000000
40.329508, 25.600000, 77.000000, 128.399994, 179.800003, 796.599976, 848.000000, 899.400024, 950.799988, -2.190765, -2.085635, -1.139461, -0.088157, 0.963147, 2.014451, -0.000000, -0.000000, 0.000000, 0.000000
40.422707, 25.600000, 77.000000, 128.399994, 179.800003, 796.599976, 848.000000, 899.400024, 950.799988, -2.190765, -2.085635, -1.139461, -0.088157, 0.963147, 2.014451, -0.000000, -0.000000, 0.000000, 0.000000
40.520756, 25.600000, 77.000000, 128.399994, 179.800003, 796.599976, 848.000000, 899.400024, 950.799988, -2.190765, -2.085635, -1.139461, -0.088157, 0.963147, 2.014451, -0.000000, -0.000000, 0.000000, 0.000000
40.621943, 25.600000, 77.000000, 128.399994, 179.800003, 796.599976, 848.000000, 899.400024, 950.799988, -2.190765, -2.085635, -1.139461, -0.088157, 0.963147, 2.014451, -0.000000, -0.000000, 0.000000, 0.000000
40.723128, 25.600000, 77.000000, 128.399994, 179.800003, 796.599976, 848.000000, 899.400024, 950.799988, -2.190765, -2.085635, -1.139461, -0.088157, 0.963147, 2.014451, -0.000000, -0.000000, 0.000000, 0.000000
40.824297, 25.600000, 77.000000, 128.399994, 179.800003, 796.599976, 848.000000, 899.400024, 950.799988, -2.190765, -2.085635, -1.139461, -0.088157, 0.963147, 2.014451, -0.000000, -0.000000, 0.000000, 0.000000
40.925515, 25.600000, 77.000000, 128.399994, 179.800003, 796.599976, 848.000000, 899.400024, 950.799988, -2.190765, -2.085635, -1.139461, -0.088157, 0.963147, 2.014451, -0.000000, -0.000000, 0.000000, 0.000000
41.018642, 25.600000, 77.000000, 128.399994, 179.800003, 796.599976, 848.000000, 899.400024, 950.799988, -2.190765, -2.085635, -1.139461, -0.088157, 0.963147, 2.014451, -0.000000, -0.000000, 0.000000, 0.000000
41.116673, 25.600000, 77.000000, 128.399994, 179.800003, 796.599976, 848.000000, 899.400024, 950.799988, -2.190765, -2.085635, -1.139461, -0.088157, 0.963147, 2.014451, -0.000000, -0.000000, 0.000000, 0.000000
41.209959, 25.600000, 77.000000, 128.399994, 179.800003, 796.599976, 848.000000, 899.400024, 950.799988, -2.190765, -2.085635, -1.139461, -0.088157, 0.963147, 2.014451, -0.000000, -0.000000, 0.000000, 0.000000
41.308395, 25.600000, 77.000000, 128.399994, 179.800003, 796.599976, 848.000000, 899.400024, 950.799988, -2.190765, -2.085635, -1.139461, -0.088157, 0.963147, 2.014451, -0.000000, -0.000000, 0.000000, 0.000000
41.409469, 25.600000, 77.000000, 128.399994, 179.800003, 796.599976, 848.000000, 899.400024, 950.799988, -2.190765, -2.085635, -1.139461, -0.088157, 0.963147, 2.014451, -0.000000, -0.000000, 0.000000, 0.000000
41.510683, 25.600000, 77.000000, 128.399994, 179.800003, 796.599976, 848.000000, 899.400024, 950.799988, -2.190765, -2.085635, -1.139461, -0.088157, 0.963147, 2.014451, -0.000000, -0.000000, 0.000000, 0.000000
41.611858, 25.600000, 77.000000, 128.399994, 179.800003, 796.599976, 848.000000, 899.400024, 950.799988, -2.190765, -2.085635, -1.139461, -0.088157, 0.963147, 2.014451, -0.000000, -0.000000, 0.000000, 0.000000
41.704987, 25.600000, 77.000000, 128.399994, 179.800003, 796.599976, 848.000000, 899.400024, 950.799988, -2.190765, -2.085635, -1.139461, -0.088157, 0.963147, 2.014451, -0.000000, -0.000000, 0.000000, 0.000000
41.803036, 25.600000, 77.000000, 128.399994, 179.800003, 796.599976, 848.000000, 899.400024, 950.799988, -2.190765, -2.085635, -1.139461, -0.088157, 0.963147, 2.014451, -0.000000, -0.000000, 0.000000, 0.000000
41.904232, 25.600000, 77.000000, 128.399994, 179.800003, 796.599976, 848.000000, 899.400024, 950.799988, -2.190765, -2.085635, -1.139461, -0.088157, 0.963147, 2.014451, 0.000000, 0.000000, -0.000000, -0.000000
42.005383, 25.600000, 77.000000, 128.399994, 179.800003, 796.599976, 848.000000, 899.400024, 950.799988, -2.190765, -2.085635, -1.139461, -0.088157, 0.963147, 2.014451, 0.000000, 0.000000, -0.000000, -0.000000
42.106455, 25.600000, 77.000000, 128.399994, 179.800003, 796.599976, 848.000000, 899.400024, 950.799988, -2.190765, -2.085635, -1.139461, -0.088157, 0.963147, 2.014451, 0.000000, 0.000000, -0.000000, -0.000000
42.207673, 25.600000, 77.000000, 128.399994, 179.800003, 796.599976, 848.000000, 899.400024, 950.799988, -2.190765, -2.085635, -1.139461, -0.088157, 0.963147, 2.014451, 0.000000, 0.000000, -0.000000, -0.000000
42.308920, 25.600000, 77.000000, 128.399994, 179.800003, 796.599976, 848.000000, 899.400024, 950.799988, -2.190765, -2.085635, -1.139461, -0.088157, 0.963147, 2.014451, 0.000000, 0.000000, -0.000000, -0.000000
42.410083, 25.600000, 77.000000, 128.399994, 179.800003, 796.599976, 848.000000, 899.400024, 950.799988, -2.190765, -2.085635, -1.139461, -0.088157, 0.963147, 2.014451, 0.000000, 0.000000, -0.000000, -0.000000
42.511311, 25.600000, 77.000000, 128.399994, 179.800003, 796.599976, 848.000000, 899.400024, 950.799988, -2.190765, -2.085635, -1.139461, -0.088157, 0.963147, 2.014451, 0.000000, 0.000000, -0.000000, -0.000000
42.612528, 25.600000, 77.000000, 128.399994, 179.800003, 796.599976, 848.000000, 899.400024, 950.799988, -2.190765, -2.085635, -1.139461, -0.088157, 0.963147, 2.014451, 0.000000, 0.000000, -0.000000, -0.000000
42.713685, 25.600000, 77.000000, 128.399994, 179.800003, 796.599976, 848.000000, 899.400024, 950.799988, -2.190765, -2.085635, -1.139461, -0.088157, 0.963147, 2.014451, 0.000000, 0.000000, -0.000000, -0.000000
42.814804, 25.600000, 77.000000, 128.399994, 179.800003, 796.599976, 848.000000, 899.400024, 950.799988, -2.190765, -2.085635, -1.139461, -0.088157, 0.963147, 2.014451, 0.000000, 0.000000, -0.000000, -0.000000
42.916022, 25.600000, 77.000000, 128.399994, 179.800003, 796.599976, 848.000000, 899.400024, 950.799988, -2.190765, -2.085635, -1.139461, -0.088157, 0.963147, 2.014451, 0.000000, 0.000000, -0.000000, -0.000000
43.009186, 25.600000, 77.000000, 128.399994, 179.800003, 796.599976, 848.000000, 899.400024, 950.799988, -2.190765, -2.085635, -1.139461, -0.088157, 0.963147, 2.014451, 0.000000, 0.000000, -0.000000, -0.000000
43.107127, 25.600000, 77.000000, 128.399994, 179.800003, 796.599976, 848.000000, 899.400024, 950.799988, -2.190765, -2.085635, -1.139461, -0.088157, 0.963147, 2.014451, 0.000000, 0.000000, -0.000000, -0.000000
43.208410, 25.600000, 77.000000, 128.399994, 179.800003, 796.599976, 848.000000, 899.400024, 950.799988, -2.190765, -2.085635, -1.139461, -0.088157, 0.963147, 2.014451, 0.000000, 0.000000, -0.000000, -0.000000
43.309545, 25.600000, 77.000000, 128.399994, 179.800003, 796.599976, 848.000000, 899.400024, 950.799988, -2.190765, -2.085635, -1.139461, -0.088157, 0.963147, 2.014451, 0.000000, 0.000000, -0.000000, -0.000000
43.402781, 25.600000, 77.000000, 128.399994, 179.800003, 796.599976, 848.000000, 899.400024, 950.799988, -2.190765, -2.085635, -1.139461, -0.088157, 0.963147, 2.014451, 0.000000, 0.000000, -0.000000, -0.000000
43.500810, 25.600000, 77.000000, 128.399994, 179.800003, 796.599976, 848.000000, 899.400024, 950.799988, -2.190765, -2.085635, -1.139461, -0.088157, 0.963147, 2.014451, 0.000000, 0.000000, -0.000000, -0.000000
43.601935, 25.600000, 77.000000, 128.399994, 179.800003, 796.599976, 848.000000, 899.400024, 950.799988, -2.190765, -2.085635, -1.139461, -0.088157, 0.963147, 2.014451, 0.000000, 0.000000, -0.000000, -0.000000
43.703159, 25.600000, 77.000000, 128.399994, 179.800003, 796.599976, 848.000000, 899.400024, 950.799988, -2.190765, -2.085635, -1.139461, -0.088157, 0.963147, 2.014451, 0.000000, 0.000000, -0.000000, -0.000000
43.804386, 25.600000, 77.000000, 128.399994, 179.800003, 796.599976, 848.000000, 899.400024, 950.799988, -2.190765, -2.085635, -1.139461, -0.088157, 0.963147, 2.014451, 0.000000, 0.000000, -0.000000, -0.000000
43.905603, 25.600000, 77.000000, 128.399994, 179.800003, 796.599976, 848.000000, 899.400024, 950.799988, -2.190765, -2.085635, -1.139461, -0.088157, 0.963147, 2.014451, -0.000000, -0.000000, 0.000000, 0.000000
44.006836, 25.600000, 77.000000, 128.399994, 179.800003, 796.599976, 848.000000, 899.400024, 950.799988, -2.190765, -2.085635, -1.139461, -0.088157, 0.963147, 2.014451, -0.000000, -0.000000, 0.000000, 0.000000
44.108146, 25.600000, 77.000000, 128.399994, 179.800003, 796.599976, 848.000000, 899.400024, 950.799988, -2.190765, -2.085635, -1.139461, -0.088157, 0.963147, 2.014451, -0.000000, -0.000000, 0.000000, 0.000000
44.201249, 25.600000, 77.000000, 128.399994, 179.800003, 796.599976, 848.000000, 899.400024, 950.799988, -2.190765, -2.085635, -1.139461, -0.088157, 0.963147, 2.014451, -0.000000, -0.000000, 0.000000, 0.000000
44.299287, 25.600000, 77.000000, 128.399994, 179.800003, 796.599976, 848.000000, 899.400024, 950.799988, -2.190765, -2.085635, -1.139461, -0.088157, 0.963147, 2.014451, -0.000000, -0.000000, 0.000000, 0.000000
44.400399, 25.600000, 77.000000, 128.399994, 179.800003, 796.599976, 848.000000, 899.400024, 950.799988, -2.190765, -2.085635, -1.139461, -0.088157, 0.963147, 2.014451, -0.000000, -0.000000, 0.000000, 0.000000
44.501707, 25.600000, 77.000000, 128.399994, 179.800003, 796.599976, 848.000000, 899.400024, 950.799988, -2.190765, -2.085635, -1.139461, -0.088157, 0.963147, 2.014451, -0.000000, -0.000000, 0.000000, 0.000000
44.602936, 25.600000, 77.000000, 128.399994, 179.800003, 796.599976, 848.000000, 899.400024, 950.799988, -2.190765, -2.085635, -1.139461, -0.088157, 0.963147, 2.014451, -0.000000, -0.000000, 0.000000, 0.000000
44.703937, 25.600000, 77.000000, 128.399994, 179.800003, 796.599976, 848.000000, 899.400024, 950.799988, -2.190765, -2.085635, -1.139461, -0.088157, 0.963147, 2.014451, -0.000000, -0.000000, 0.000000, 0.000000
44.805073, 25.600000, 77.000000, 128.399994, 179.800003, 796.599976, 848.000000, 899.400024, 950.799988, -2.190765, -2.085635, -1.139461, -0.088157, 0.963147, 2.014451, -0.000000, -0.000000, 0.000000, 0.000000
44.906095, 25.600000, 77.000000, 128.399994, 179.800003, 796.599976, 848.000000, 899.400024, 950.799988, -2.190765, -2.085635, -1.139461, -0.088157, 0.963147, 2.014451, -0.000000, -0.000000, 0.000000, 0.000000
44.999308, 25.600000, 77.000000, 128.399994, 179.800003, 796.599976, 848.000000, 899.400024, 950.799988, -2.190765, -2.085635, -1.139461, -0.088157, 0.963147, 2.014451, -0.000000, -0.000000, 0.000000, 0.000000
45.097407, 25.600000, 77.000000, 128.399994, 179.800003, 796.599976, 848.000000, 899.400024, 950.799988, -2.190765, -2.085635, -1.139461, -0.088157, 0.963147, 2.014451, -0.000000, -0.000000, 0.000000, 0.000000
45.198576, 25.600000, 77.000000, 128.399994, 179.800003, 796.599976, 848.000000, 899.400024, 950.799988, -2.190765, -2.085635, -1.139461, -0.088157, 0.963147, 2.014451, -0.000000, -0.000000, 0.000000, 0.000000
45.299640, 25.600000, 77.000000, 128.399994, 179.800003, 796.599976, 848.000000, 899.400024, 950.799988, -2.190765, -2.085635, -1.139461, -0.088157, 0.963147, 2.014451, -0.000000, -0.000000, 0.000000, 0.000000
45.400721, 25.600000, 77.000000, 128.399994, 179.800003, 796.599976, 848.000000, 899.400024, 950.799988, -2.190765, -2.085635, -1.139461, -0.088157, 0.963147, 2.014451, -0.000000, -0.000000, 0.000000, 0.000000
45.501934, 25.600000, 77.000000, 128.399994, 179.800003, 796.599976, 848.000000, 899.400024, 950.799988, -2.190765, -2.085635, -1.139461, -0.088157, 0.963147, 2.014451, -0.000000, -0.000000, 0.000000, 0.000000
45.603105, 25.600000, 77.000000, 128.399994, 179.800003, 796.599976, 848.000000, 899.400024, 950.799988, -2.190765, -2.085635, -1.139461, -0.088157, 0.963147, 2.014451, -0.000000, -0.000000, 0.000000, 0.000000
45.704306, 25.600000, 77.000000, 128.399994, 179.800003, 796.599976, 848.000000, 899.400024, 950.799988, -2.190765, -2.085635, -1.139461, -0.088157, 0.963147, 2.014451, -0.000000, -0.000000, 0.000000, 0.000000
45.797443, 25.600000, 77.000000, 128.399994, 179.800003, 796.599976, 848.000000, 899.400024, 950.799988, -2.190765, -2.085635, -1.139461, -0.088157, 0.963147, 2.014451, -0.000000, -0.000000, 0.000000, 0.000000
45.895524, 25.600000, 77.000000, 128.399994, 179.800003, 796.599976, 848.000000, 899.400024, 950.799988, -2.190765, -2.085635, -1.139461, -0.088157, 0.963147, 2.014451, -0.000000, -0.000000, 0.000000, 0.000000
45.996665, 25.600000, 77.000000, 128.399994, 179.800003, 796.599976, 848.000000, 899.400024, 950.799988, -2.190765, -2.085635, -1.139461, -0.088157, 0.963147, 2.014451, 0.000000, 0.000000, -0.000000, -0.000000
46.089816, 25.600000, 77.000000, 128.399994, 179.800003, 796.599976, 848.000000, 899.400024, 950.799988, -2.190765, -2.085635, -1.139461, -0.088157, 0.963147, 2.014451, 0.000000, 0.000000, -0.000000, -0.000000
46.187871, 25.600000, 77.000000, 128.399994, 179.800003, 796.599976, 848.000000, 899.400024, 950.799988, -2.190765, -2.085635, -1.139461, -0.088157, 0.963147, 2.014451, 0.000000, 0.000000, -0.000000, -0.000000
46.289019, 25.600000, 77.000000, 128.399994, 179.800003, 796.599976, 848.000000, 899.400024, 950.799988, -2.190765, -2.085635, -1.139461, -0.088157, 0.963147, 2.014451, 0.000000, 0.000000, -0.000000, -0.000000
46.382181, 25.600000, 77.000000, 128.399994, 179.800003, 796.599976, 848.000000, 899.400024, 950.799988, -2.190765, -2.085635, -1.139461, -0.088157, 0.963147, 2.014451, 0.000000, 0.000000, -0.000000, -0.000000
46.480303, 25.600000, 77.000000, 128.399994, 179.800003, 796.599976, 848.000000, 899.400024, 950.799988, -2.190765, -2.085635, -1.139461, -0.088157, 0.963147, 2.014451, 0.000000, 0.000000, -0.000000, -0.000000
46.581495, 25.600000, 77.000000, 128.399994, 179.800003, 796.599976, 848.000000, 899.400024, 950.799988, -2.190765, -2.085635, -1.139461, -0.088157, 0.963147, 2.014451, 0.000000, 0.000000, -0.000000, -0.000000
46.674667, 25.600000, 77.000000, 128.399994, 179.800003, 796.599976, 848.000000, 899.400024, 950.799988, -2.190765, -2.085635, -1.139461, -0.088157, 0.963147, 2.014451, 0.000000, 0.000000, -0.000000, -0.000000
46.772679, 25.600000, 77.000000, 128.399994, 179.800003, 796.599976, 848.000000, 899.400024, 950.799988, -2.190765, -2.085635, -1.139461, -0.088157, 0.963147, 2.014451, 0.000000, 0.000000, -0.000000, -0.000000
46.873811, 25.600000, 77.000000, 128.399994, 179.800003, 796.599976, 848.000000, 899.400024, 950.799988, -2.190765, -2.085635, -1.139461, -0.088157, 0.963147, 2.014451, 0.000000, 0.000000, -0.000000, -0.000000
46.975127, 25.600000, 77.000000, 128.399994, 179.800003, 796.599976, 848.000000, 899.400024, 950.799988, -2.190765, -2.085635, -1.139461, -0.088157, 0.963147, 2.014451, 0.000000, 0.000000, -0.000000, -0.000000
47.076253, 25.600000, 77.000000, 128.399994, 179.800003, 796.599976, 848.000000, 899.400024, 950.799988, -2.190765, -2.085635, -1.139461, -0.088157, 0.963147, 2.014451, 0.000000, 0.000000, -0.000000, -0.000000
47.177401, 25.600000, 77.000000, 128.399994, 179.800003, 796.599976, 848.000000, 899.400024, 950.799988, -2.190765, -2.085635, -1.139461, -0.088157, 0.963147, 2.014451, 0.000000, 0.000000, -0.000000, -0.000000
47.270549, 25.600000, 77.000000, 128.399994, 179.800003, 796.599976, 848.000000, 899.400024, 950.799988, -2.190765, -2.085635, -1.139461, -0.088157, 0.963147, 2.014451, 0.000000, 0.000000, -0.000000, -0.000000
47.368506, 25.600000, 77.000000, 128.399994, 179.800003, 796.599976, 848.000000, 899.400024, 950.799988, -2.190765, -2.085635, -1.139461, -0.088157, 0.963147, 2.014451, 0.000000, 0.000000, -0.000000, -0.000000
47.469697, 25.600000, 77.000000, 128.399994, 179.800003, 796.599976, 848.000000, 899.400024, 950.799988, -2.190765, -2.085635, -1.139461, -0.088157, 0.963147, 2.014451, 0.000000, 0.000000, -0.000000, -0.000000
47.570792, 25.600000, 77.000000, 128.399994, 179.800003, 796.599976, 848.000000, 899.400024, 950.799988, -2.190765, -2.085635, -1.139461, -0.088157, 0.963147, 2.014451, 0.000000, 0.000000, -0.000000, -0.000000
47.671958, 25.600000, 77.000000, 128.399994, 179.800003, 796.599976, 848.000000, 899.400024, 950.799988, -2.190765, -2.085635, -1.139461, -0.088157, 0.963147, 2.014451, 0.000000, 0.000000, -0.000000, -0.000000
47.773162, 25.600000, 77.000000, 128.399994, 179.800003, 796.599976, 848.000000, 899.400024, 950.799988, -2.190765, -2.085635, -1.139461, -0.088157, 0.963147, 2.014451, 0.000000, 0.000000, -0.000000, -0.000000
47.874239, 25.600000, 77.000000, 128.399994, 179.800003, 796.599976, 848.000000, 899.400024, 950.799988, -2.190765, -2.085635, -1.139461, -0.088157, 0.963147, 2.014451, 0.000000, 0.000000, -0.000000, -0.000000
47.975465, 25.600000, 77.000000, 128.399994, 179.800003, 796.599976, 848.000000, 899.400024, 950.799988, -2.190765, -2.085635, -1.139461, -0.088157, 0.963147, 2.014451, -0.000000, -0.000000, 0.000000, 0.000000
48.076639, 25.600000, 77.000000, 128.399994, 179.800003, 796.599976, 848.000000, 899.400024, 950.799988, -2.190765, -2.085635, -1.139461, -0.088157, 0.963147, 2.014451, -0.000000, -0.000000, 0.000000, 0.000000
48.169773, 25.600000, 77.000000, 128.399994, 179.800003, 796.599976, 848.000000, 899.400024, 950.799988, -2.190765, -2.085635, -1.139461, -0.088157, 0.963147, 2.014451, -0.000000, -0.000000, 0.000000, 0.000000
48.267910, 25.600000, 77.000000, 128.399994, 179.800003, 796.599976, 848.000000, 899.400024, 950.799988, -2.190765, -2.085635, -1.139461, -0.088157, 0.963147, 2.014451, -0.000000, -0.000000, 0.000000, 0.000000
48.361109, 25.600000, 77.000000, 128.399994, 179.800003, 796.599976, 848.000000, 899.400024, 950.799988, -2.190765, -2.085635, -1.139461, -0.088157, 0.963147, 2.014451, -0.000000, -0.000000, 0.000000, 0.000000
48.459176, 25.600000, 77.000000, 128.399994, 179.800003, 796.599976, 848.000000, 899.400024, 950.799988, -2.190765, -2.085635, -1.139461, -0.088157, 0.963147, 2.014451, -0.000000, -0.000000, 0.000000, 0.000000
48.560360, 25.600000, 77.000000, 128.399994, 179.800003, 796.599976, 848.000000, 899.400024, 950.799988, -2.190765, -2.085635, -1.139461, -0.088157, 0.963147, 2.014451, -0.000000, -0.000000, 0.000000, 0.000000
48.653463, 25.600000, 77.000000, 128.399994, 179.800003, 796.599976, 848.000000, 899.400024, 950.799988, -2.190765, -2.085635, -1.139461, -0.088157, 0.963147, 2.014451, -0.000000, -0.000000, 0.000000, 0.000000
48.751405, 25.600000, 77.000000, 128.399994, 179.800003, 796.599976, 848.000000, 899.400024, 950.799988, -2.190765, -2.085635, -1.139461, -0.088157, 0.963147, 2.014451, -0.000000, -0.000000, 0.000000, 0.000000
48.852690, 25.600000, 77.000000, 128.399994, 179.800003, 796.599976, 848.000000, 899.400024, 950.799988, -2.190765, -2.085635, -1.139461, -0.088157, 0.963147, 2.014451, -0.000000, -0.000000, 0.000000, 0.000000
48.953864, 25.600000, 77.000000, 128.399994, 179.800003, 796.599976, 848.000000, 899.400024, 950.799988, -2.190765, -2.085635, -1.139461, -0.088157, 0.963147, 2.014451, -0.000000, -0.000000, 0.000000, 0.000000
49.055042, 25.600000, 77.000000, 128.399994, 179.800003, 796.599976, 848.000000, 899.400024, 950.799988, -2.190765, -2.085635, -1.139461, -0.088157, 0.963147, 2.014451, -0.000000, -0.000000, 0.000000, 0.000000
49.148146, 25.600000, 77.000000, 128.399994, 179.800003, 796.599976, 848.000000, 899.400024, 950.799988, -2.190765, -2.085635, -1.139461, -0.088157, 0.963147, 2.014451, -0.000000, -0.000000, 0.000000, 0.000000
49.246251, 25.600000, 77.000000, 128.399994, 179.800003, 796.599976, 848.000000, 899.400024, 950.799988, -2.190765, -2.085635, -1.139461, -0.088157, 0.963147, 2.014451, -0.000000, -0.000000, 0.000000, 0.000000
49.347428, 25.600000, 77.000000, 128.399994, 179.800003, 796.599976, 848.000000, 899.400024, 950.799988, -2.190765, -2.085635, -1.139461, -0.088157, 0.963147, 2.014451, -0.000000, -0.000000, 0.000000, 0.000000
49.448603, 25.600000, 77.000000, 128.399994, 179.800003, 796.599976, 848.000000, 899.400024, 950.799988, -2.190765, -2.085635, -1.139461, -0.088157, 0.963147, 2.014451, -0.000000, -0.000000, 0.000000, 0.000000
49.549731, 25.600000, 77.000000, 128.399994, 179.800003, 796.599976, 848.000000, 899.400024, 950.799988, -2.190765, -2.085635, -1.139461, -0.088157, 0.963147, 2.014451, -0.000000, -0.000000, 0.000000, 0.000000
49.650917, 25.600000, 77.000000, 128.399994, 179.800003, 796.599976, 848.000000, 899.400024, 950.799988, -2.190765, -2.085635, -1.139461, -0.088157, 0.963147, 2.014451, -0.000000, -0.000000, 0.000000, 0.000000
49.752153, 25.600000, 77.000000, 128.399994, 179.800003, 796.599976, 848.000000, 899.400024, 950.799988, -2.190765, -2.085635, -1.139461, -0.088157, 0.963147, 2.014451, -0.000000, -0.000000, 0.000000, 0.000000
49.853437, 25.600000, 77.000000, 128.399994, 179.800003, 796.599976, 848.000000, 899.400024, 950.799988, -2.190765, -2.085635, -1.139461, -0.088157, 0.963147, 2.014451, -0.000000, -0.000000, 0.000000, 0.000000
49.954588, 25.600000, 77.000000, 128.399994, 179.800003, 796.599976, 848.000000, 899.400024, 950.799988, -2.190765, -2.085635, -1.139461, -0.088157, 0.963147, 2.014451, 0.000000, 0.000000, -0.000000, -0.000000
50.055723, 25.600000, 77.000000, 128.399994, 179.800003, 796.599976, 848.000000, 899.400024, 950.799988, -2.190765, -2.085635, -1.139461, -0.088157, 0.963147, 2.014451, 0.000000, 0.000000, -0.000000, -0.000000
50.156937, 25.600000, 77.000000, 128.399994, 179.800003, 796.599976, 848.000000, 899.400024, 950.799988, -2.190765, -2.085635, -1.139461, -0.088157, 0.963147, 2.014451, 0.000000, 0.000000, -0.000000, -0.000000
50.250148, 25.600000, 77.000000, 128.399994, 179.800003, 796.599976, 848.000000, 899.400024, 950.799988, -2.190765, -2.085635, -1.139461, -0.088157, 0.963147, 2.014451, 0.000000, 0.000000, -0.000000, -0.000000
50.348289, 25.600000, 77.000000, 128.399994, 179.800003, 796.599976, 848.000000, 899.400024, 950.799988, -2.190765, -2.085635, -1.139461, -0.088157, 0.963147, 2.014451, 0.000000, 0.000000, -0.000000, -0.000000
50.449466, 25.600000, 77.000000, 128.399994, 179.800003, 796.599976, 848.000000, 899.400024, 950.799988, -2.190765, -2.085635, -1.139461, -0.088157, 0.963147, 2.014451, 0.000000, 0.000000, -0.000000, -0.000000
50.542588, 25.600000, 77.000000, 128.399994, 179.800003, 796.599976, 848.000000, 899.400024, 950.799988, -2.190765, -2.085635, -1.139461, -0.088157, 0.963147, 2.014451, 0.000000, 0.000000, -0.000000, -0.000000
50.640603, 25.600000, 77.000000, 128.399994, 179.800003, 796.599976, 848.000000, 899.400024, 950.799988, -2.190765, -2.085635, -1.139461, -0.088157, 0.963147, 2.014451, 0.000000, 0.000000, -0.000000, -0.000000
50.741706, 25.600000, 77.000000, 128.399994, 179.800003, 796.599976, 848.000000, 899.400024, 950.799988, -2.190765, -2.085635, -1.139461, -0.088157, 0.963147, 2.014451, 0.000000, 0.000000, -0.000000, -0.000000
50.842904, 25.600000, 77.000000, 128.399994, 179.800003, 796.599976, 848.000000, 899.400024, 950.799988, -2.190765, -2.085635, -1.139461, -0.088157, 0.963147, 2.014451, 0.000000, 0.000000, -0.000000, -0.000000
50.944082, 25.600000, 77.000000, 128.399994, 179.800003, 796.599976, 848.000000, 899.400024, 950.799988, -2.190765, -2.085635, -1.139461, -0.088157, 0.963147, 2.014451, 0.000000, 0.000000, -0.000000, -0.000000
51.037208, 25.600000, 77.000000, 128.399994, 179.800003, 796.599976, 848.000000, 899.400024, 950.799988, -2.190765, -2.085635, -1.139461, -0.088157, 0.963147, 2.014451, 0.000000, 0.000000, -0.000000, -0.000000
51.135297, 25.600000, 77.000000, 128.399994, 179.800003, 796.599976, 848.000000, 899.400024, 950.799988, -2.190765, -2.085635, -1.139461, -0.088157, 0.963147, 2.014451, 0.000000, 0.000000, -0.000000, -0.000000
51.236516, 25.600000, 77.000000, 128.399994, 179.800003, 796.599976, 848.000000, 899.400024, 950.799988, -2.190765, -2.085635, -1.139461, -0.088157, 0.963147, 2.014451, 0.000000, 0.000000, -0.000000, -0.000000
51.337663, 25.600000, 77.000000, 128.399994, 179.800003, 796.599976, 848.000000, 899.400024, 950.799988, -2.190765, -2.085635, -1.139461, -0.088157, 0.963147, 2.014451, 0.000000, 0.000000, -0.000000, -0.000000
51.438959, 25.600000, 77.000000, 128.399994, 179.800003, 796.599976, 848.000000, 899.400024, 950.799988, -2.190765, -2.085635, -1.139461, -0.088157, 0.963147, 2.014451, 0.000000, 0.000000, -0.000000, -0.000000
51.532110, 25.600000, 77.000000, 128.399994, 179.800003, 796.599976, 848.000000, 899.400024, 950.799988, -2.190765, -2.085635, -1.139461, -0.088157, 0.963147, 2.014451, 0.000000, 0.000000, -0.000000, -0.000000
51.630251, 25.600000, 77.000000, 128.399994, 179.800003, 796.599976, 848.000000, 899.400024, 950.799988, -2.190765, -2.085635, -1.139461, -0.088157, 0.963147, 2.014451, 0.000000, 0.000000, -0.000000, -0.000000
51.731472, 25.600000, 77.000000, 128.399994, 179.800003, 796.599976, 848.000000, 899.400024, 950.799988, -2.190765, -2.085635, -1.139461, -0.088157, 0.963147, 2.014451, 0.000000, 0.000000, -0.000000, -0.000000
51.824596, 25.600000, 77.000000, 128.399994, 179.800003, 796.599976, 848.000000, 899.400024, 950.799988, -2.190765, -2.085635, -1.139461, -0.088157, 0.963147, 2.014451, 0.000000, 0.000000, -0.000000, -0.000000
51.922610, 25.600000, 77.000000, 128.399994, 179.800003, 796.599976, 848.000000, 899.400024, 950.799988, -2.190765, -2.085635, -1.139461, -0.088157, 0.963147, 2.014451, -0.000000, -0.000000, 0.000000, 0.000000
52.023829, 25.600000, 77.000000, 128.399994, 179.800003, 796.599976, 848.000000, 899.400024, 950.799988, -2.190765, -2.085635, -1.139461, -0.088157, 0.963147, 2.014451, -0.000000, -0.000000, 0.000000, 0.000000
52.125001, 25.600000, 77.000000, 128.399994, 179.800003, 796.599976, 848.000000, 899.400024, 950.799988, -2.190765, -2.085635, -1.139461, -0.088157, 0.963147, 2.014451, -0.000000, -0.000000, 0.000000, 0.000000
52.226300, 25.600000, 77.000000, 128.399994, 179.800003, 796.599976, 848.000000, 899.400024, 950.799988, -2.190765, -2.085635, -1.139461, -0.088157, 0.963147, 2.014451, -0.000000, -0.000000, 0.000000, 0.000000
52.319509, 25.600000, 77.000000, 128.399994, 179.800003, 796.599976, 848.000000, 899.400024, 950.799988, -2.190765, -2.085635, -1.139461, -0.088157, 0.963147, 2.014451, -0.000000, -0.000000, 0.000000, 0.000000
52.417595, 25.600000, 77.000000, 128.399994, 179.800003, 796.599976, 848.000000, 899.400024, 950.799988, -2.190765, -2.085635, -1.139461, -0.088157, 0.963147, 2.014451, -0.000000, -0.000000, 0.000000, 0.000000
52.510721, 25.600000, 77.000000, 128.399994, 179.800003, 796.599976, 848.000000, 899.400024, 950.799988, -2.190765, -2.085635, -1.139461, -0.088157, 0.963147, 2.014451, -0.000000, -0.000000, 0.000000, 0.000000
52.608762, 25.600000, 77.000000, 128.399994, 179.800003, 796.599976, 848.000000, 899.400024, 950.799988, -2.190765, -2.085635, -1.139461, -0.088157, 0.963147, 2.014451, -0.000000, -0.000000, 0.000000, 0.000000
52.710048, 25.600000, 77.000000, 128.399994, 179.800003, 796.599976, 848.000000, 899.400024, 950.799988, -2.190765, -2.085635, -1.139461, -0.088157, 0.963147, 2.014451, -0.000000, -0.000000, 0.000000, 0.000000
52.811232, 25.600000, 77.000000, 128.399994, 179.800003, 796.599976, 848.000000, 899.400024, 950.799988, -2.190765, -2.085635, -1.139461, -0.088157, 0.963147, 2.014451, -0.000000, -0.000000, 0.000000, 0.000000
52.912527, 25.600000, 77.000000, 128.399994, 179.800003, 796.599976, 848.000000, 899.400024, 950.799988, -2.190765, -2.085635, -1.139461, -0.088157, 0.963147, 2.014451, -0.000000, -0.000000, 0.000000, 0.000000
53.005678, 25.600000, 77.000000, 128.399994, 179.800003, 796.599976, 848.000000, 899.400024, 950.799988, -2.190765, -2.085635, -1.139461, -0.088157, 0.963147, 2.014451, -0.000000, -0.000000, 0.000000, 0.000000
53.103571, 25.600000, 77.000000, 128.399994, 179.800003, 796.599976, 848.000000, 899.400024, 950.799988, -2.190765, -2.085635, -1.139461, -0.088157, 0.963147, 2.014451, -0.000000, -0.000000, 0.000000, 0.000000
53.204689, 25.600000, 77.000000, 128.399994, 179.800003, 796.599976, 848.000000, 899.400024, 950.799988, -2.190765, -2.085635, -1.139461, -0.088157, 0.963147, 2.014451, -0.000000, -0.000000, 0.000000, 0.000000
53.305854, 25.600000, 77.000000, 128.399994, 179.800003, 796.599976, 848.000000, 899.400024, 950.799988, -2.190765, -2.085635, -1.139461, -0.088157, 0.963147, 2.014451, -0.000000, -0.000000, 0.000000, 0.000000
53.406989, 25.600000, 77.000000, 128.399994, 179.800003, 796.599976, 848.000000, 899.400024, 950.799988, -2.190765, -2.085635, -1.139461, -0.088157, 0.963147, 2.014451, -0.000000, -0.000000, 0.000000, 0.000000
53.508039, 25.600000, 77.000000, 128.399994, 179.800003, 796.599976, 848.000000, 899.400024, 950.799988, -2.190765, -2.085635, -1.139461, -0.088157, 0.963147, 2.014451, -0.000000, -0.000000, 0.000000, 0.000000
53.609156, 25.600000, 77.000000, 128.399994, 179.800003, 796.599976, 848.000000, 899.400024, 950.799988, -2.190765, -2.085635, -1.139461, -0.088157, 0.963147, 2.014451, -0.000000, -0.000000, 0.000000, 0.000000
53.710467, 25.600000, 77.000000, 128.399994, 179.800003, 796.599976, 848.000000, 899.400024, 950.799988, -2.190765, -2.085635, -1.139461, -0.088157, 0.963147, 2.014451, -0.000000, -0.000000, 0.000000, 0.000000
53.811663, 25.600000, 77.000000, 128.399994, 179.800003, 796.599976, 848.000000, 899.400024, 950.799988, -2.190765, -2.085635, -1.139461, -0.088157, 0.963147, 2.014451, -0.000000, -0.000000, 0.000000, 0.000000
53.904807, 25.600000, 77.000000, 128.399994, 179.800003, 796.599976, 848.000000, 899.400024, 950.799988, -2.190765, -2.085635, -1.139461, -0.088157, 0.963147, 2.014451, 0.000000, 0.000000, -0.000000, -0.000000
54.002806, 25.600000, 77.000000, 128.399994, 179.800003, 796.599976, 848.000000, 899.400024, 950.799988, -2.190765, -2.085635, -1.139461, -0.088157, 0.963147, 2.014451, 0.000000, 0.000000, -0.000000, -0.000000
54.095957, 25.600000, 77.000000, 128.399994, 179.800003, 796.599976, 848.000000, 899.400024, 950.799988, -2.190765, -2.085635, -1.139461, -0.088157, 0.963147, 2.014451, 0.000000, 0.000000, -0.000000, -0.000000
54.194086, 25.600000, 77.000000, 128.399994, 179.800003, 796.599976, 848.000000, 899.400024, 950.799988, -2.190765, -2.085635, -1.139461, -0.088157, 0.963147, 2.014451, 0.000000, 0.000000, -0.000000, -0.000000
54.295218, 25.600000, 77.000000, 128.399994, 179.800003, 796.599976, 848.000000, 899.400024, 950.799988, -2.190765, -2.085635, -1.139461, -0.088157, 0.963147, 2.014451, 0.000000, 0.000000, -0.000000, -0.000000
54.396386, 25.600000, 77.000000, 128.399994, 179.800003, 796.599976, 848.000000, 899.400024, 950.799988, -2.190765, -2.085635, -1.139461, -0.088157, 0.963147, 2.014451, 0.000000, 0.000000, -0.000000, -0.000000
54.497621, 25.600000, 77.000000, 128.399994, 179.800003, 796.599976, 848.000000, 899.400024, 950.799988, -2.190765, -2.085635, -1.139461, -0.088157, 0.963147, 2.014451, 0.000000, 0.000000, -0.000000, -0.000000
54.598809, 25.600000, 77.000000, 128.399994, 179.800003, 796.599976, 848.000000, 899.400024, 950.799988, -2.190765, -2.085635, -1.139461, -0.088157, 0.963147, 2.014451, 0.000000, 0.000000, -0.000000, -0.000000
54.699946, 25.600000, 77.000000, 128.399994, 179.800003, 796.599976, 848.000000, 899.400024, 950.799988, -2.190765, -2.085635, -1.139461, -0.088157, 0.963147, 2.014451, 0.000000, 0.000000, -0.000000, -0.000000
54.793113, 25.600000, 77.000000, 128.399994, 179.800003, 796.599976, 848.000000, 899.400024, 950.799988, -2.190765, -2.085635, -1.139461, -0.088157, 0.963147, 2.014451, 0.000000, 0.000000, -0.000000, -0.000000
54.891244, 25.600000, 77.000000, 128.399994, 179.800003, 796.599976, 848.000000, 899.400024, 950.799988, -2.190765, -2.085635, -1.139461, -0.088157, 0.963147, 2.014451, 0.000000, 0.000000, -0.000000, -0.000000
54.992394, 25.600000, 77.000000, 128.399994, 179.800003, 796.599976, 848.000000, 899.400024, 950.799988, -2.190765, -2.085635, -1.139461, -0.088157, 0.963147, 2.014451, 0.000000, 0.000000, -0.000000, -0.000000
55.093565, 25.600000, 77.000000, 128.399994, 179.800003, 796.599976, 848.000000, 899.400024, 950.799988, -2.190765, -2.085635, -1.139461, -0.088157, 0.963147, 2.014451, 0.000000, 0.000000, -0.000000, -0.000000
55.186727, 25.600000, 77.000000, 128.399994, 179.800003, 796.599976, 848.000000, 899.400024, 950.799988, -2.190765, -2.085635, -1.139461, -0.088157, 0.963147, 2.014451, 0.000000, 0.000000, -0.000000, -0.000000
55.284835, 25.600000, 77.000000, 128.399994, 179.800003, 796.599976, 848.000000, 899.400024, 950.799988, -2.190765, -2.085635, -1.139461, -0.088157, 0.963147, 2.014451, 0.000000, 0.000000, -0.000000, -0.000000
55.385929, 25.600000, 77.000000, 128.399994, 179.800003, 796.599976, 848.000000, 899.400024, 950.799988, -2.190765, -2.085635, -1.139461, -0.088157, 0.963147, 2.014451, 0.000000, 0.000000, -0.000000, -0.000000
55.479091, 25.600000, 77.000000, 128.399994, 179.800003, 796.599976, 848.000000, 899.400024, 950.799988, -2.190765, -2.085635, -1.139461, -0.088157, 0.963147, 2.014451, 0.000000, 0.000000, -0.000000, -0.000000
55.576952, 25.600000, 77.000000, 128.399994, 179.800003, 796.599976, 848.000000, 899.400024, 950.799988, -2.190765, -2.085635, -1.139461, -0.088157, 0.963147, 2.014451, 0.000000, 0.000000, -0.000000, -0.000000
55.678128, 25.600000, 77.000000, 128.399994, 179.800003, 796.599976, 848.000000, 899.400024, 950.799988, -2.190765, -2.085635, -1.139461, -0.088157, 0.963147, 2.014451, 0.000000, 0.000000, -0.000000, -0.000000
55.779360, 25.600000, 77.000000, 128.399994, 179.800003, 796.599976, 848.000000, 899.400024, 950.799988, -2.190765, -2.085635, -1.139461, -0.088157, 0.963147, 2.014451, 0.000000, 0.000000, -0.000000, -0.000000
55.880543, 25.600000, 77.000000, 128.399994, 179.800003, 796.599976, 848.000000, 899.400024, 950.799988, -2.190765, -2.085635, -1.139461, -0.088157, 0.963147, 2.014451, -0.000000, -0.000000, 0.000000, 0.000000
55.981868, 25.600000, 77.000000, 128.399994, 179.800003, 796.599976, 848.000000, 899.400024, 950.799988, -2.190765, -2.085635, -1.139461, -0.088157, 0.963147, 2.014451, -0.000000, -0.000000, 0.000000, 0.000000
56.083012, 25.600000, 77.000000, 128.399994, 179.800003, 796.599976, 848.000000, 899.400024, 950.799988, -2.190765, -2.085635, -1.139461, -0.088157, 0.963147, 2.014451, -0.000000, -0.000000, 0.000000, 0.000000
56.184137, 25.600000, 77.000000, 128.399994, 179.800003, 796.599976, 848.000000, 899.400024, 950.799988, -2.190765, -2.085635, -1.139461, -0.088157, 0.963147, 2.014451, -0.000000, -0.000000, 0.000000, 0.000000
56.285368, 25.600000, 77.000000, 128.399994, 179.800003, 796.599976, 848.000000, 899.400024, 950.799988, -2.190765, -2.085635, -1.139461, -0.088157, 0.963147, 2.014451, -0.000000, -0.000000, 0.000000, 0.000000
56.378493, 25.600000, 77.000000, 128.399994, 179.800003, 796.599976, 848.000000, 899.400024, 950.799988, -2.190765, -2.085635, -1.139461, -0.088157, 0.963147, 2.014451, -0.000000, -0.000000, 0.000000, 0.000000
56.476479, 25.600000, 77.000000, 128.399994, 179.800003, 796.599976, 848.000000, 899.400024, 950.799988, -2.190765, -2.085635, -1.139461, -0.088157, 0.963147, 2.014451, -0.000000, -0.000000, 0.000000, 0.000000
56.577617, 25.600000, 77.000000, 128.399994, 179.800003, 796.599976, 848.000000, 899.400024, 950.799988, -2.190765, -2.085635, -1.139461, -0.088157, 0.963147, 2.014451, -0.000000, -0.000000, 0.000000, 0.000000
56.678815, 25.600000, 77.000000, 128.399994, 179.800003, 796.599976, 848.000000, 899.400024, 950.799988, -2.190765, -2.085635, -1.139461, -0.088157, 0.963147, 2.014451, -0.000000, -0.000000, 0.000000, 0.000000
56.771973, 25.600000, 77.000000, 128.399994, 179.800003, 796.599976, 848.000000, 899.400024, 950.799988, -2.190765, -2.085635, -1.139461, -0.088157, 0.963147, 2.014451, -0.000000, -0.000000, 0.000000, 0.000000
56.870108, 25.600000, 77.000000, 128.399994, 179.800003, 796.599976, 848.000000, 899.400024, 950.799988, -2.190765, -2.085635, -1.139461, -0.088157, 0.963147, 2.014451, -0.000000, -0.000000, 0.000000, 0.000000
56.971383, 25.600000, 77.000000, 128.399994, 179.800003, 796.599976, 848.000000, 899.400024, 950.799988, -2.190765, -2.085635, -1.139461, -0.088157, 0.963147, 2.014451, -0.000000, -0.000000, 0.000000, 0.000000
57.072469, 25.600000, 77.000000, 128.399994, 179.800003, 796.599976, 848.000000, 899.400024, 950.799988, -2.190765, -2.085635, -1.139461, -0.088157, 0.963147, 2.014451, -0.000000, -0.000000, 0.000000, 0.000000
57.173701, 25.600000, 77.000000, 128.399994, 179.800003, 796.599976, 848.000000, 899.400024, 950.799988, -2.190765, -2.085635, -1.139461, -0.088157, 0.963147, 2.014451, -0.000000, -0.000000, 0.000000, 0.000000
57.274876, 25.600000, 77.000000, 128.399994, 179.800003, 796.599976, 848.000000, 899.400024, 950.799988, -2.190765, -2.085635, -1.139461, -0.088157, 0.963147, 2.014451, -0.000000, -0.000000, 0.000000, 0.000000
57.368033, 25.600000, 77.000000, 128.399994, 179.800003, 796.599976, 848.000000, 899.400024, 950.799988, -2.190765, -2.085635, -1.139461, -0.088157, 0.963147, 2.014451, -0.000000, -0.000000, 0.000000, 0.000000
57.466074, 25.600000, 77.000000, 128.399994, 179.800003, 796.599976, 848.000000, 899.400024, 950.799988, -2.190765, -2.085635, -1.139461, -0.088157, 0.963147, 2.014451, -0.000000, -0.000000, 0.000000, 0.000000
57.567270, 25.600000, 77.000000, 128.399994, 179.800003, 796.599976, 848.000000, 899.400024, 950.799988, -2.190765, -2.085635, -1.139461, -0.088157, 0.963147, 2.014451, -0.000000, -0.000000, 0.000000, 0.000000
57.668520, 25.600000, 77.000000, 128.399994, 179.800003, 796.599976, 848.000000, 899.400024, 950.799988, -2.190765, -2.085635, -1.139461, -0.088157, 0.963147, 2.014451, -0.000000, -0.000000, 0.000000, 0.000000
57.769667, 25.600000, 77.000000, 128.399994, 179.800003, 796.599976, 848.000000, 899.400024, 950.799988, -2.190765, -2.085635, -1.139461, -0.088157, 0.963147, 2.014451, -0.000000, -0.000000, 0.000000, 0.000000
57.870888, 25.600000, 77.000000, 128.399994, 179.800003, 796.599976, 848.000000, 899.400024, 950.799988, -2.190765, -2.085635, -1.139461, -0.088157, 0.963147, 2.014451, 0.000000, 0.000000, -0.000000, -0.000000
57.972105, 25.600000, 77.000000, 128.399994, 179.800003, 796.599976, 848.000000, 899.400024, 950.799988, -2.190765, -2.085635, -1.139461, -0.088157, 0.963147, 2.014451, 0.000000, 0.000000, -0.000000, -0.000000
58.073296, 25.600000, 77.000000, 128.399994, 179.800003, 796.599976, 848.000000, 899.400024, 950.799988, -2.190765, -2.085635, -1.139461, -0.088157, 0.963147, 2.014451, 0.000000, 0.000000, -0.000000, -0.000000
58.166410, 25.600000, 77.000000, 128.399994, 179.800003, 796.599976, 848.000000, 899.400024, 950.799988, -2.190765, -2.085635, -1.139461, -0.088157, 0.963147, 2.014451, 0.000000, 0.000000, -0.000000, -0.000000
58.264383, 25.600000, 77.000000, 128.399994, 179.800003, 796.599976, 848.000000, 899.400024, 950.799988, -2.190765, -2.085635, -1.139461, -0.088157, 0.963147, 2.014451, 0.000000, 0.000000, -0.000000, -0.000000
58.365604, 25.600000, 77.000000, 128.399994, 179.800003, 796.599976, 848.000000, 899.400024, 950.799988, -2.190765, -2.085635, -1.139461, -0.088157, 0.963147, 2.014451, 0.000000, 0.000000, -0.000000, -0.000000
58.458821, 25.600000, 77.000000, 128.399994, 179.800003, 796.599976, 848.000000, 899.400024, 950.799988, -2.190765, -2.085635, -1.139461, -0.088157, 0.963147, 2.014451, 0.000000, 0.000000, -0.000000, -0.000000
58.556802, 25.600000, 77.000000, 128.399994, 179.800003, 796.599976, 848.000000, 899.400024, 950.799988, -2.190765, -2.085635, -1.139461, -0.088157, 0.963147, 2.014451, 0.000000, 0.000000, -0.000000, -0.000000
58.658131, 25.600000, 77.000000, 128.399994, 179.800003, 796.599976, 848.000000, 899.400024, 950.799988, -2.190765, -2.085635, -1.139461, -0.088157, 0.963147, 2.014451, 0.000000, 0.000000, -0.000000, -0.000000
58.759242, 25.600000, 77.000000, 128.399994, 179.800003, 796.599976, 848.000000, 899.400024, 950.799988, -2.190765, -2.085635, -1.139461, -0.088157, 0.963147, 2.014451, 0.000000, 0.000000, -0.000000, -0.000000
58.860567, 25.600000, 77.000000, 128.399994, 179.800003, 796.599976, 848.000000, 899.400024, 950.799988, -2.190765, -2.085635, -1.139461, -0.088157, 0.963147, 2.014451, 0.000000, 0.000000, -0.000000, -0.000000
58.961759, 25.600000, 77.000000, 128.399994, 179.800003, 796.599976, 848.000000, 899.400024, 950.799988, -2.190765, -2.085635, -1.139461, -0.088157, 0.963147, 2.014451, 0.000000, 0.000000, -0.000000, -0.000000
