JunhaAgu/can_excavator_plot/from_excavator2.txt
time [ms], ACyl_LC [bar], ACyl_SC [bar], Swing_L [bar], Swing_R [bar], BCyl_LC [bar], BCyl_SC [bar], KCyl_LC [bar], KCyl_SC [bar], Body_Pitch_Angle [rad], Body_Roll_Angle [rad], Boom_Joint_Angle [rad], Arm_Joint_Angle [rad], Bkt_Joint_Angle [rad], Swing_Angle [rad], Boom_Joint_Rate [rad/s], Arm_Joint_Rate [rad/s], Bkt_Joint_Rate [rad/s], Swing_Rate [rad/s], GPS_Easting [m], GPS_Northing [m], GPS_Elevation [m], GPS_Latitude [deg], GPS_Longitude [deg], GPS_Sea_Level [m]
3388.242241, 3.300000, 3.200000, 0.000000, 0.000000, 5.100000, 4.100000, 2.700000, 3.600000, -0.010298, 0.004189, -1.008255, 0.539503, -0.650135, -0.937417, -1.048585, 0.561083, -0.676141, -0.974913, 4689499908052154368.000000, 4706124876731681792.000000, 4640219533109644288.000000, 457.307709, 618.178894, 5197.625000
3388.341259, 5.700000, 3.900000, 0.000000, 0.000000, 3.500000, 2.900000, 4.000000, 8.500000, -0.010298, 0.004189, -1.008255, 0.539678, -0.649961, -0.937417, -3.880411, 2.076535, -2.501955, -3.607780, 4689499908052154368.000000, 4706124876731681792.000000, 4640219533109644288.000000, 457.307709, 618.178894, 5197.625000
3388.440272, 4.400000, 4.800000, 0.000000, 0.000000, 3.700000, 2.900000, 3.200000, 4.800000, -0.010298, 0.004189, -1.008255, 0.539852, -0.649961, -0.937417, -6.842062, 3.661944, -4.411174, -6.361350, 4689499908052154368.000000, 4706124876731681792.000000, 4640219533109644288.000000, 457.307709, 618.178894, 5197.625000
3388.539302, 5.000000, 3.700000, 0.000000, 0.000000, 4.200000, 4.000000, 3.300000, 5.400000, -0.010298, 0.004363, -1.008255, 0.539678, -0.649961, -0.937417, -8.726750, 4.671236, -5.625932, -8.113622, 4689499908052154368.000000, 4706124876731681792.000000, 4640219533109644288.000000, 457.307709, 618.178894, 5197.625000
3388.639313, 5.200000, 3.500000, 0.000000, 0.000000, 5.500000, 4.200000, 4.300000, 7.700000, -0.010298, 0.004363, -1.008255, 0.539503, -0.649961, -0.937417, -9.743755, 5.215588, -6.281384, -9.059174, 4689499908052154368.000000, 4706124876731681792.000000, 4640219533109644288.000000, 457.307709, 618.178894, 5197.625000
3388.738318, 4.000000, 4.300000, 0.000000, 0.000000, 4.400000, 3.800000, 3.800000, 5.600000, -0.010298, 0.004363, -1.008255, 0.539503, -0.649961, -0.937417, -10.082601, 5.396399, -6.499700, -9.374212, 4689499908052154368.000000, 4706124876731681792.000000, 4640219533109644288.000000, 457.307709, 618.178894, 5197.625000
3388.837334, 6.200000, 4.300000, 0.000000, 0.000000, 5.600000, 2.100000, 4.200000, 6.400000, -0.010298, 0.004189, -1.008255, 0.539503, -0.649961, -0.937417, -9.910428, 5.303668, -6.388622, -9.214136, 4689499908052154368.000000, 4706124876731681792.000000, 4640219533109644288.000000, 457.307709, 618.178894, 5197.625000
3388.937323, 5.700000, 3.600000, 0.000000, 0.000000, 3.100000, 3.900000, 3.700000, 6.700000, -0.010298, 0.004363, -1.008255, 0.539678, -0.649961, -0.937417, -9.371013, 5.014742, -6.040830, -8.712619, 4689499908052154368.000000, 4706124876731681792.000000, 4640219533109644288.000000, 457.307709, 618.178894, 5197.625000
3389.036344, 3.800000, 5.100000, 0.000000, 0.000000, 4.000000, 4.100000, 3.000000, 5.600000, -0.010298, 0.004363, -1.008255, 0.539678, -0.649786, -0.937417, -8.585011, 4.594296, -5.533918, -7.981841, 4689499908052154368.000000, 4706124876731681792.000000, 4640219533109644288.000000, 457.307709, 618.178894, 5197.625000
3389.135353, 4.800000, 6.400000, 0.000000, 0.000000, 4.000000, 4.200000, 4.300000, 5.500000, -0.010298, 0.004363, -1.008255, 0.539503, -0.649786, -0.937417, -7.651114, 4.094654, -4.931374, -7.113557, 4689499908052154368.000000, 4706124876731681792.000000, 4640219533109644288.000000, 457.307709, 618.178894, 5197.625000
3389.234373, 5.900000, 4.800000, 0.000000, 0.000000, 4.400000, 5.900000, 4.100000, 5.300000, -0.010298, 0.004363, -1.008255, 0.539503, -0.649961, -0.937417, -6.647795, 3.557454, -4.284252, -6.180730, 4689499908052154368.000000, 4706124876731681792.000000, 4640219533109644288.000000, 457.307709, 618.178894, 5197.625000
3389.334379, 4.400000, 5.500000, 0.000000, 0.000000, 3.900000, 3.500000, 3.400000, 5.800000, -0.010298, 0.004363, -1.008255, 0.539678, -0.649961, -0.937417, -5.635451, 3.015501, -3.631817, -5.239511, 4689499908052154368.000000, 4706124876731681792.000000, 4640219533109644288.000000, 457.307709, 618.178894, 5197.625000
3389.433393, 6.400000, 3.100000, 0.000000, 0.000000, 3.700000, 3.800000, 2.800000, 4.500000, -0.010298, 0.004363, -1.008255, 0.539678, -0.649961, -0.937417, -4.658708, 2.493032, -3.002513, -4.331393, 4689499908052154368.000000, 4706124876731681792.000000, 4640219533109644288.000000, 457.307709, 618.178894, 5197.625000
3389.532405, 4.400000, 4.200000, 0.000000, 0.000000, 4.800000, 4.200000, 5.700000, 4.600000, -0.010298, 0.004363, -1.008255, 0.539852, -0.649961, -0.937417, -3.748780, 2.006622, -2.416217, -3.485395, 4689499908052154368.000000, 4706124876731681792.000000, 4640219533109644288.000000, 457.307709, 618.178894, 5197.625000
3389.631434, 3.600000, 4.400000, 0.000000, 0.000000, 5.100000, 3.500000, 4.100000, 5.700000, -0.010298, 0.004363, -1.008255, 0.539678, -0.649961, -0.937417, -2.925751, 1.566736, -1.885882, -2.720192, 4689499908052154368.000000, 4706124876731681792.000000, 4640219533109644288.000000, 457.307709, 618.178894, 5197.625000
3389.730509, 6.100000, 5.700000, 0.000000, 0.000000, 6.000000, 3.700000, 5.400000, 6.200000, -0.010123, 0.004363, -1.008255, 0.539678, -0.649961, -0.937417, -2.200715, 1.178915, -1.418664, -2.046095, 4689499908052154368.000000, 4706124876731681792.000000, 4640219533109644288.000000, 457.307709, 618.178894, 5197.625000
3389.830455, 5.800000, 4.100000, 0.000000, 0.000000, 4.600000, 4.400000, 4.400000, 6.500000, -0.010298, 0.004363, -1.008255, 0.539503, -0.649961, -0.937417, -1.577711, 0.845236, -1.017175, -1.466862, 4689499908052154368.000000, 4706124876731681792.000000, 4640219533109644288.000000, 457.307709, 618.178894, 5197.625000
3389.929466, 4.000000, 3.900000, 0.000000, 0.000000, 5.200000, 4.500000, 4.200000, 5.000000, -0.010298, 0.004363, -1.008255, 0.539503, -0.649961, -0.937417, -1.055445, 0.565137, -0.680588, -0.981290, 4689499908052154368.000000, 4706124876731681792.000000, 4640219533109644288.000000, 457.307709, 618.178894, 5197.625000
3390.029461, 6.500000, 4.500000, 0.000000, 0.000000, 5.200000, 4.800000, 4.300000, 6.100000, -0.010298, 0.004363, -1.008255, 0.539852, -0.650135, -0.937417, -0.628769, 0.336524, -0.405771, -0.584592, 4689499908052154368.000000, 4706124876731681792.000000, 4640219533109644288.000000, 457.307709, 618.178894, 5197.625000
3390.128489, 5.200000, 6.200000, 0.000000, 0.000000, 5.000000, 4.400000, 4.200000, 5.600000, -0.010298, 0.004363, -1.008255, 0.539852, -0.650135, -0.937417, -0.289924, 0.155715, -0.187857, -0.269554, 4689499908052154368.000000, 4706124876731681792.000000, 4640219533109644288.000000, 457.307709, 618.178894, 5197.625000
3390.227520, 4.300000, 3.100000, 0.000000, 0.000000, 4.900000, 4.200000, 3.800000, 5.700000, -0.010298, 0.004363, -1.008255, 0.539678, -0.650135, -0.937417, -0.029562, 0.016925, -0.020538, -0.027485, 4689499908052154368.000000, 4706124876731681792.000000, 4640219533109644288.000000, 457.307709, 618.178894, 5197.625000
3390.327504, 5.500000, 5.700000, 0.000000, 0.000000, 3.700000, 3.200000, 3.900000, 5.000000, -0.010123, 0.004363, -1.008255, 0.539678, -0.650135, -0.937417, 0.162438, -0.085836, 0.102913, 0.151025, 4689499908052154368.000000, 4706124876731681792.000000, 4640219533109644288.000000, 457.307709, 618.178894, 5197.625000
3390.426521, 3.800000, 4.600000, 0.000000, 0.000000, 4.100000, 4.500000, 5.500000, 5.600000, -0.010298, 0.004363, -1.008255, 0.539678, -0.650135, -0.937417, 0.296342, -0.157731, 0.189074, 0.275522, 4689499908052154368.000000, 4706124876731681792.000000, 4640219533109644288.000000, 457.307709, 618.178894, 5197.625000
3390.525535, 4.200000, 3.600000, 0.000000, 0.000000, 3.800000, 4.900000, 5.000000, 3.600000, -0.010298, 0.004363, -1.008255, 0.539678, -0.650135, -0.937417, 0.382097, -0.203831, 0.244320, 0.355251, 4689499908052154368.000000, 4706124876731681792.000000, 4640219533109644288.000000, 457.307709, 618.178894, 5197.625000
3390.624568, 6.300000, 3.800000, 0.000000, 0.000000, 5.900000, 6.000000, 5.700000, 4.800000, -0.010123, 0.004363, -1.008255, 0.539852, -0.650135, -0.937417, 0.428996, -0.228928, 0.274610, 0.398855, 4689499908052154368.000000, 4706124876731681792.000000, 4640219533109644288.000000, 457.307709, 618.178894, 5197.625000
3390.724554, 3.900000, 4.700000, 0.000000, 0.000000, 6.400000, 3.400000, 2.900000, 3.100000, -0.010298, 0.004363, -1.008255, 0.539852, -0.650135, -0.937417, 0.445469, -0.237406, 0.285353, 0.414171, 4689499908052154368.000000, 4706124876731681792.000000, 4640219533109644288.000000, 457.307709, 618.178894, 5197.625000
3390.823573, 5.600000, 5.800000, 0.000000, 0.000000, 7.300000, 4.000000, 4.200000, 5.000000, -0.010298, 0.004363, -1.008255, 0.539678, -0.650135, -0.937417, 0.438963, -0.233718, 0.281325, 0.408123, 4689499908052154368.000000, 4706124876731681792.000000, 4640219533109644288.000000, 457.307709, 618.178894, 5197.625000
3390.922594, 4.600000, 5.500000, 0.000000, 0.000000, 4.500000, 5.800000, 3.800000, 5.500000, -0.010298, 0.004363, -1.008255, 0.539678, -0.650135, -0.937417, 0.415892, -0.221634, 0.266642, 0.386672, 4689499908052154368.000000, 4706124876731681792.000000, 4640219533109644288.000000, 457.307709, 618.178894, 5197.625000
3391.021632, 4.000000, 5.500000, 0.000000, 0.000000, 3.500000, 4.200000, 3.200000, 4.700000, -0.010298, 0.004363, -1.008255, 0.539678, -0.650135, -0.937417, 0.381645, -0.203719, 0.244765, 0.354831, 4689499908052154368.000000, 4706124876731681792.000000, 4640219533109644288.000000, 457.307709, 618.178894, 5197.625000
3391.120689, 6.300000, 4.500000, 0.000000, 0.000000, 3.800000, 4.100000, 3.100000, 6.000000, -0.010123, 0.004363, -1.008255, 0.539678, -0.649961, -0.937417, 0.340637, -0.182097, 0.218710, 0.316704, 4689499908052154368.000000, 4706124876731681792.000000, 4640219533109644288.000000, 457.307709, 618.178894, 5197.625000
3391.219701, 5.600000, 3.800000, 0.000000, 0.000000, 6.100000, 6.900000, 5.600000, 4.500000, -0.010123, 0.004363, -1.008255, 0.539852, -0.649961, -0.937417, 0.296386, -0.158481, 0.190864, 0.275563, 4689499908052154368.000000, 4706124876731681792.000000, 4640219533109644288.000000, 457.307709, 618.178894, 5197.625000
3391.319645, 5.000000, 2.700000, 0.000000, 0.000000, 3.500000, 3.900000, 2.400000, 6.000000, -0.010123, 0.004363, -1.008255, 0.539678, -0.649961, -0.937417, 0.251604, -0.134385, 0.162683, 0.233927, 4689499908052154368.000000, 4706124876731681792.000000, 4640219533109644288.000000, 457.307709, 618.178894, 5197.625000
3391.418667, 4.400000, 3.600000, 0.000000, 0.000000, 4.400000, 4.700000, 2.600000, 4.400000, -0.010123, 0.004363, -1.008255, 0.539503, -0.649961, -0.937417, 0.208301, -0.111491, 0.135250, 0.193666, 4689499908052154368.000000, 4706124876731681792.000000, 4640219533109644288.000000, 457.307709, 618.178894, 5197.625000
3391.517727, 4.600000, 4.300000, 0.000000, 0.000000, 5.200000, 5.300000, 2.400000, 6.500000, -0.010123, 0.004363, -1.008255, 0.539503, -0.649961, -0.937417, 0.167886, -0.090614, 0.109511, 0.156091, 4689499908052154368.000000, 4706124876731681792.000000, 4640219533109644288.000000, 457.307709, 618.178894, 5197.625000
3391.616731, 4.900000, 4.000000, 0.000000, 0.000000, 4.800000, 3.400000, 3.700000, 5.000000, -0.010123, 0.004363, -1.008255, 0.539678, -0.649961, -0.937417, 0.131273, -0.071538, 0.086085, 0.122050, 4689499908052154368.000000, 4706124876731681792.000000, 4640219533109644288.000000, 457.307709, 618.178894, 5197.625000
3391.715734, 4.200000, 4.600000, 0.000000, 0.000000, 3.700000, 3.700000, 2.300000, 3.400000, -0.009949, 0.004363, -1.008255, 0.539852, -0.649961, -0.937417, 0.098973, -0.054032, 0.065331, 0.092020, 4689499908052154368.000000, 4706124876731681792.000000, 4640219533109644288.000000, 457.307709, 618.178894, 5197.625000
3391.814747, 4.500000, 4.600000, 0.000000, 0.000000, 4.300000, 5.600000, 3.100000, 5.200000, -0.010123, 0.004363, -1.008255, 0.539678, -0.649961, -0.937417, 0.071180, -0.038588, 0.047400, 0.066179, 4689499908052154368.000000, 4706124876731681792.000000, 4640219533109644288.000000, 457.307709, 618.178894, 5197.625000
3391.914747, 5.400000, 3.800000, 0.000000, 0.000000, 4.700000, 4.500000, 2.600000, 6.000000, -0.010123, 0.004363, -1.008255, 0.539503, -0.649961, -0.937417, 0.047847, -0.026027, 0.032286, 0.044486, 4689499908052154368.000000, 4706124876731681792.000000, 4640219533109644288.000000, 457.307709, 618.178894, 5197.625000
3392.014766, 4.600000, 5.200000, 0.000000, 0.000000, 3.300000, 4.600000, 4.000000, 4.900000, -0.010123, 0.004363, -1.008255, 0.539503, -0.649961, -0.937417, 0.028756, -0.016285, 0.019865, 0.026736, 4689499908052154368.000000, 4706124876731681792.000000, 4640219533109644288.000000, 457.307709, 618.178894, 5197.625000
3392.113781, 3.500000, 4.700000, 0.000000, 0.000000, 4.200000, 5.400000, 3.700000, 4.900000, -0.010123, 0.004363, -1.008255, 0.539678, -0.649961, -0.937417, 0.013569, -0.008468, 0.009936, 0.012616, 4689499908052154368.000000, 4706124876731681792.000000, 4640219533109644288.000000, 457.307709, 618.178894, 5197.625000
3392.213769, 4.100000, 3.000000, 0.000000, 0.000000, 4.100000, 3.300000, 3.400000, 3.100000, -0.010123, 0.004363, -1.008255, 0.539678, -0.649961, -0.937417, 0.001876, -0.002022, 0.002247, 0.001744, 4689499908052154368.000000, 4706124876731681792.000000, 4640219533109644288.000000, 457.307709, 618.178894, 5197.625000
3392.312782, 5.800000, 3.600000, 0.000000, 0.000000, 3.800000, 2.600000, 4.000000, 6.000000, -0.010123, 0.004363, -1.008255, 0.539678, -0.649961, -0.937417, -0.006770, 0.002967, -0.003481, -0.006295, 4689499908052154368.000000, 4706124876731681792.000000, 4640219533109644288.000000, 457.307709, 618.178894, 5197.625000
3392.411794, 3.700000, 4.400000, 0.000000, 0.000000, 4.900000, 2.600000, 3.400000, 7.000000, -0.010123, 0.004363, -1.008255, 0.539678, -0.650135, -0.937417, -0.012823, 0.006499, -0.007713, -0.011922, 4689499908052154368.000000, 4706124876731681792.000000, 4640219533109644288.000000, 457.307709, 618.178894, 5197.625000
3392.510814, 4.800000, 4.500000, 0.000000, 0.000000, 5.100000, 2.800000, 3.700000, 3.700000, -0.010123, 0.004363, -1.008255, 0.539503, -0.650135, -0.937417, -0.016723, 0.008634, -0.010857, -0.015548, 4689499908052154368.000000, 4706124876731681792.000000, 4640219533109644288.000000, 457.307709, 618.178894, 5197.625000
3392.610823, 4.200000, 6.900000, 0.000000, 0.000000, 3.900000, 5.000000, 4.400000, 4.800000, -0.010123, 0.004363, -1.008255, 0.539503, -0.649961, -0.937417, -0.018883, 0.009473, -0.012708, -0.017556, 4689499908052154368.000000, 4706124876731681792.000000, 4640219533109644288.000000, 457.307709, 618.178894, 5197.625000
3392.709838, 4.300000, 3.400000, 0.000000, 0.000000, 4.600000, 3.700000, 3.300000, 5.900000, -0.010123, 0.004363, -1.008255, 0.539678, -0.649961, -0.937417, -0.019678, 0.009693, -0.013170, -0.018296, 4689499908052154368.000000, 4706124876731681792.000000, 4640219533109644288.000000, 457.307709, 618.178894, 5197.625000
3392.808932, 4.900000, 3.800000, 0.000000, 0.000000, 6.000000, 3.200000, 4.000000, 5.900000, -0.010123, 0.004363, -1.008255, 0.539678, -0.649786, -0.937417, -0.019441, 0.009815, -0.012596, -0.018075, 4689499908052154368.000000, 4706124876731681792.000000, 4640219533109644288.000000, 457.307709, 618.178894, 5197.625000
3392.908826, 5.700000, 6.000000, 0.000000, 0.000000, 3.700000, 2.200000, 6.300000, 5.200000, -0.010123, 0.004363, -1.008255, 0.539678, -0.649961, -0.937417, -0.018456, 0.009676, -0.011467, -0.017159, 4689499908052154368.000000, 4706124876731681792.000000, 4640219533109644288.000000, 457.307709, 618.178894, 5197.625000
3393.007893, 3.700000, 5.900000, 0.000000, 0.000000, 2.900000, 3.300000, 3.400000, 6.200000, -0.010123, 0.004363, -1.008255, 0.539678, -0.649961, -0.937417, -0.016964, 0.009172, -0.010345, -0.015773, 4689499908052154368.000000, 4706124876731681792.000000, 4640219533109644288.000000, 457.307709, 618.178894, 5197.625000
3393.106899, 3.400000, 5.600000, 0.000000, 0.000000, 2.800000, 4.200000, 4.200000, 4.800000, -0.010123, 0.004363, -1.008255, 0.539678, -0.649961, -0.937417, -0.015164, 0.008419, -0.009274, -0.014099, 4689499908052154368.000000, 4706124876731681792.000000, 4640219533109644288.000000, 457.307709, 618.178894, 5197.625000
3393.205916, 6.300000, 3.900000, 0.000000, 0.000000, 5.900000, 3.900000, 6.000000, 5.100000, -0.010123, 0.004363, -1.008255, 0.539503, -0.649961, -0.937417, -0.013213, 0.007335, -0.008102, -0.012285, 4689499908052154368.000000, 4706124876731681792.000000, 4640219533109644288.000000, 457.307709, 618.178894, 5197.625000
3393.305905, 6.000000, 4.900000, 0.000000, 0.000000, 3.800000, 4.700000, 6.300000, 7.200000, -0.010123, 0.004363, -1.008255, 0.539678, -0.649961, -0.937417, -0.011232, 0.006052, -0.006905, -0.010443, 4689499908052154368.000000, 4706124876731681792.000000, 4640219533109644288.000000, 457.307709, 618.178894, 5197.625000
3393.404919, 5.000000, 4.600000, 0.000000, 0.000000, 4.800000, 3.900000, 3.300000, 5.600000, -0.010123, 0.004363, -1.008255, 0.539678, -0.649961, -0.937417, -0.009313, 0.005042, -0.005741, -0.008658, 4689499908052154368.000000, 4706124876731681792.000000, 4640219533109644288.000000, 457.307709, 618.178894, 5197.625000
3393.503938, 5.600000, 4.900000, 0.000000, 0.000000, 4.200000, 4.600000, 3.800000, 6.900000, -0.010123, 0.004363, -1.008255, 0.539678, -0.649961, -0.937417, -0.007518, 0.004274, -0.004648, -0.006990, 4689499908052154368.000000, 4706124876731681792.000000, 4640219533109644288.000000, 457.307709, 618.178894, 5197.625000
3393.602967, 5.900000, 5.000000, 0.000000, 0.000000, 4.900000, 5.200000, 3.100000, 6.300000, -0.010123, 0.004363, -1.008255, 0.539678, -0.649961, -0.937417, -0.005889, 0.003533, -0.003653, -0.005476, 4689499908052154368.000000, 4706124876731681792.000000, 4640219533109644288.000000, 457.307709, 618.178894, 5197.625000
3393.702989, 6.600000, 5.300000, 0.000000, 0.000000, 5.300000, 3.100000, 3.500000, 3.100000, -0.010123, 0.004363, -1.008430, 0.539852, -0.649961, -0.937417, -0.004632, 0.003024, -0.002772, -0.004138, 4689499908052154368.000000, 4706124876731681792.000000, 4640219533109644288.000000, 457.307709, 618.178894, 5197.625000
3393.802961, 4.100000, 4.300000, 0.000000, 0.000000, 6.300000, 2.800000, 2.500000, 3.900000, -0.010123, 0.004363, -1.008255, 0.539852, -0.650135, -0.937417, -0.003701, 0.002889, -0.002192, -0.002985, 4689499908052154368.000000, 4706124876731681792.000000, 4640219533109644288.000000, 457.307709, 618.178894, 5197.625000
3393.901999, 7.800000, 4.200000, 0.000000, 0.000000, 3.300000, 5.900000, 3.200000, 6.700000, -0.010298, 0.004363, -1.008255, 0.539852, -0.650135, -0.937417, -0.002681, 0.002850, -0.002040, -0.002016, 4689499908052154368.000000, 4706124876731681792.000000, 4640219533109644288.000000, 457.307709, 618.178894, 5197.625000
3394.001935, 6.900000, 4.500000, 0.000000, 0.000000, 3.700000, 3.900000, 6.000000, 5.300000, -0.010298, 0.004363, -1.008255, 0.539852, -0.649961, -0.937417, -0.001641, 0.002704, -0.001843, -0.001222, 4689499908052154368.000000, 4706124876731681792.000000, 4640219533109644288.000000, 457.307709, 618.178894, 5197.625000
3394.100992, 6.000000, 6.400000, 0.000000, 0.000000, 4.300000, 4.200000, 4.400000, 5.200000, -0.010298, 0.004363, -1.008255, 0.539678, -0.650135, -0.937417, -0.000810, 0.002302, -0.001439, -0.000589, 4689499908052154368.000000, 4706124876731681792.000000, 4640219533109644288.000000, 457.307709, 618.178894, 5197.625000
3394.200978, 7.800000, 5.500000, 0.000000, 0.000000, 4.900000, 4.800000, 3.900000, 4.800000, -0.010298, 0.004363, -1.008255, 0.539678, -0.650135, -0.937417, -0.000167, 0.001548, -0.001266, -0.000101, 4689499908052154368.000000, 4706124876731681792.000000, 4640219533109644288.000000, 457.307709, 618.178894, 5197.625000
3394.301002, 4.100000, 4.200000, 0.000000, 0.000000, 4.800000, 5.200000, 4.300000, 6.000000, -0.010298, 0.004363, -1.008255, 0.539678, -0.649961, -0.937417, 0.000311, 0.000749, -0.001087, 0.000261, 4689499908052154368.000000, 4706124876731681792.000000, 4640219533109644288.000000, 457.307709, 618.178894, 5197.625000
3394.400049, 5.400000, 3.900000, 0.000000, 0.000000, 5.500000, 5.500000, 4.300000, 3.700000, -0.010298, 0.004363, -1.008255, 0.539852, -0.650135, -0.937417, 0.000648, 0.000314, -0.000727, 0.000515, 4689499908052154368.000000, 4706124876731681792.000000, 4640219533109644288.000000, 457.307709, 618.178894, 5197.625000
3394.500030, 6.200000, 6.700000, 0.000000, 0.000000, 5.300000, 4.500000, 3.000000, 4.700000, -0.010298, 0.004363, -1.008255, 0.539852, -0.649961, -0.937417, 0.000868, 0.000347, -0.000435, 0.000680, 4689499908052154368.000000, 4706124876731681792.000000, 4640219533109644288.000000, 457.307709, 618.178894, 5197.625000
3394.600032, 6.700000, 4.800000, 0.000000, 0.000000, 4.600000, 5.300000, 5.300000, 4.700000, -0.010298, 0.004363, -1.008255, 0.539678, -0.650135, -0.937417, 0.000993, 0.000356, -0.000201, 0.000773, 4689499908052154368.000000, 4706124876731681792.000000, 4640219533109644288.000000, 457.307709, 618.178894, 5197.625000
3394.699070, 4.400000, 3.500000, 0.000000, 0.000000, 5.200000, 4.700000, 3.500000, 5.600000, -0.010298, 0.004363, -1.008255, 0.539503, -0.649961, -0.937417, 0.001043, -0.000198, -0.000023, 0.000808, 4689499908052154368.000000, 4706124876731681792.000000, 4640219533109644288.000000, 457.307709, 618.178894, 5197.625000
3394.799065, 6.900000, 3.500000, 0.000000, 0.000000, 4.200000, 4.000000, 3.000000, 4.800000, -0.010298, 0.004363, -1.008255, 0.539503, -0.650135, -0.937417, 0.001036, -0.001142, 0.000110, 0.000800, 4689499908052154368.000000, 4706124876731681792.000000, 4640219533109644288.000000, 457.307709, 618.178894, 5197.625000
3394.899060, 5.500000, 4.200000, 0.000000, 0.000000, 4.300000, 5.500000, 4.000000, 7.100000, -0.010298, 0.004363, -1.008255, 0.539678, -0.650135, -0.937417, 0.000988, -0.001786, 0.000020, 0.000761, 4689499908052154368.000000, 4706124876731681792.000000, 4640219533109644288.000000, 457.307709, 618.178894, 5197.625000
3394.998092, 5.100000, 2.500000, 0.000000, 0.000000, 4.500000, 3.400000, 2.500000, 5.600000, -0.010298, 0.004363, -1.008255, 0.539678, -0.649961, -0.937417, 0.000912, -0.001818, -0.000046, 0.000701, 4689499908052154368.000000, 4706124876731681792.000000, 4640219533109644288.000000, 457.307709, 618.178894, 5197.625000
3395.098189, 2.700000, 4.400000, 0.000000, 0.000000, 5.000000, 4.000000, 5.900000, 4.800000, -0.010298, 0.004363, -1.008255, 0.539678, -0.649961, -0.937417, 0.000818, -0.001584, 0.000271, 0.000628, 4689499908052154368.000000, 4706124876731681792.000000, 4640219533109644288.000000, 457.307709, 618.178894, 5197.625000
3395.198091, 4.900000, 3.600000, 0.000000, 0.000000, 4.200000, 4.400000, 5.100000, 4.800000, -0.010298, 0.004363, -1.008255, 0.539503, -0.649961, -0.937417, 0.000715, -0.001528, 0.000673, 0.000548, 4689499908052154368.000000, 4706124876731681792.000000, 4640219533109644288.000000, 457.307709, 618.178894, 5197.625000
3395.297100, 3.500000, 3.600000, 0.000000, 0.000000, 3.500000, 4.800000, 4.200000, 4.900000, -0.010298, 0.004363, -1.008255, 0.539503, -0.649961, -0.937417, 0.000609, -0.001789, 0.000939, 0.000466, 4689499908052154368.000000, 4706124876731681792.000000, 4640219533109644288.000000, 457.307709, 618.178894, 5197.625000
3395.396148, 3.800000, 2.900000, 0.000000, 0.000000, 4.200000, 2.300000, 3.700000, 5.300000, -0.010298, 0.004363, -1.008255, 0.539678, -0.649961, -0.937417, 0.000507, -0.001905, 0.001096, 0.000387, 4689499908052154368.000000, 4706124876731681792.000000, 4640219533109644288.000000, 457.307709, 618.178894, 5197.625000
3395.495177, 6.800000, 4.200000, 0.000000, 0.000000, 2.800000, 4.000000, 4.400000, 4.400000, -0.010298, 0.004363, -1.008255, 0.539678, -0.649961, -0.937417, 0.000411, -0.001546, 0.001164, 0.000313, 4689499908052154368.000000, 4706124876731681792.000000, 4640219533109644288.000000, 457.307709, 618.178894, 5197.625000
3395.595171, 6.200000, 3.300000, 0.000000, 0.000000, 4.600000, 2.300000, 3.000000, 3.300000, -0.010298, 0.004363, -1.008080, 0.539503, -0.649786, -0.937417, 0.000505, -0.001218, 0.001348, 0.000246, 4689499908052154368.000000, 4706124876731681792.000000, 4640219533109644288.000000, 457.307709, 618.178894, 5197.625000
3395.694192, 5.100000, 3.900000, 0.000000, 0.000000, 4.700000, 3.500000, 3.500000, 4.800000, -0.010298, 0.004363, -1.008255, 0.539503, -0.649786, -0.937417, 0.000736, -0.001292, 0.001791, 0.000186, 4689499908052154368.000000, 4706124876731681792.000000, 4640219533109644288.000000, 457.307709, 618.178894, 5197.625000
3395.794188, 6.300000, 3.400000, 0.000000, 0.000000, 3.100000, 3.300000, 6.800000, 4.900000, -0.010298, 0.004363, -1.008255, 0.539503, -0.649961, -0.937417, 0.000691, -0.001474, 0.002041, 0.000135, 4689499908052154368.000000, 4706124876731681792.000000, 4640219533109644288.000000, 457.307709, 618.178894, 5197.625000
3395.893238, 5.000000, 4.400000, 0.000000, 0.000000, 3.800000, 3.300000, 3.800000, 6.700000, -0.010298, 0.004363, -1.008255, 0.539503, -0.649961, -0.937417, 0.000448, -0.001546, 0.001774, 0.000091, 4689499908052154368.000000, 4706124876731681792.000000, 4640219533109644288.000000, 457.307709, 618.178894, 5197.625000
3395.993259, 5.300000, 4.300000, 0.000000, 0.000000, 3.700000, 4.000000, 3.200000, 4.200000, -0.010298, 0.004363, -1.008255, 0.539503, -0.649961, -0.937417, 0.000251, -0.001535, 0.001323, 0.000056, 4689499908052154368.000000, 4706124876731681792.000000, 4640219533109644288.000000, 457.307709, 618.178894, 5197.625000
3396.093262, 3.000000, 6.600000, 0.000000, 0.000000, 4.900000, 4.000000, 3.200000, 3.500000, -0.010298, 0.004363, -1.008255, 0.539678, -0.649961, -0.937417, 0.000096, -0.001280, 0.000937, 0.000027, 4689499908052154368.000000, 4706124876731681792.000000, 4640219533109644288.000000, 457.307709, 618.178894, 5197.625000
3396.193251, 4.700000, 3.900000, 0.000000, 0.000000, 4.500000, 2.700000, 3.000000, 4.200000, -0.010298, 0.004363, -1.008255, 0.539678, -0.649961, -0.937417, -0.000021, -0.000676, 0.000616, 0.000006, 4689499908052154368.000000, 4706124876731681792.000000, 4640219533109644288.000000, 457.307709, 618.178894, 5197.625000
3396.293267, 3.400000, 4.800000, 0.000000, 0.000000, 4.900000, 2.300000, 2.900000, 5.500000, -0.010298, 0.004363, -1.008255, 0.539503, -0.650135, -0.937417, -0.000106, -0.000204, 0.000173, -0.000011, 4689499908052154368.000000, 4706124876731681792.000000, 4640219533109644288.000000, 457.307709, 618.178894, 5197.625000
3396.392309, 4.900000, 4.700000, 0.000000, 0.000000, 2.700000, 3.900000, 3.800000, 5.800000, -0.010298, 0.004363, -1.008255, 0.539503, -0.649961, -0.937417, -0.000164, -0.000215, -0.000341, -0.000022, 4689499908052154368.000000, 4706124876731681792.000000, 4640219533109644288.000000, 457.307709, 618.178894, 5197.625000
3396.491356, 4.000000, 5.200000, 0.000000, 0.000000, 4.400000, 5.200000, 3.600000, 5.700000, -0.010298, 0.004363, -1.008255, 0.539503, -0.649961, -0.937417, -0.000200, -0.000396, -0.000521, -0.000030, 4689499908052154368.000000, 4706124876731681792.000000, 4640219533109644288.000000, 457.307709, 618.178894, 5197.625000
3396.591348, 5.000000, 3.900000, 0.000000, 0.000000, 3.700000, 4.100000, 6.600000, 4.400000, -0.010298, 0.004363, -1.008255, 0.539503, -0.649961, -0.937417, -0.000218, -0.000512, -0.000450, -0.000034, 4689499908052154368.000000, 4706124876731681792.000000, 4640219533109644288.000000, 457.307709, 618.178894, 5197.625000
3396.690371, 5.100000, 4.100000, 0.000000, 0.000000, 4.400000, 3.200000, 5.700000, 6.500000, -0.010298, 0.004363, -1.008255, 0.539503, -0.649961, -0.937417, -0.000222, -0.000576, -0.000379, -0.000036, 4689499908052154368.000000, 4706124876731681792.000000, 4640219533109644288.000000, 457.307709, 618.178894, 5197.625000
3396.790371, 5.300000, 3.000000, 0.000000, 0.000000, 3.700000, 4.300000, 4.700000, 6.600000, -0.010298, 0.004363, -1.008255, 0.539503, -0.649961, -0.937417, -0.000215, -0.000599, -0.000311, -0.000035, 4689499908052154368.000000, 4706124876731681792.000000, 4640219533109644288.000000, 457.307709, 618.178894, 5197.625000
3396.890363, 5.000000, 4.900000, 0.000000, 0.000000, 4.400000, 3.800000, 2.900000, 6.200000, -0.010298, 0.004363, -1.008255, 0.539503, -0.649961, -0.937417, -0.000202, -0.000590, -0.000249, -0.000034, 4689499908052154368.000000, 4706124876731681792.000000, 4640219533109644288.000000, 457.307709, 618.178894, 5197.625000
3396.989374, 5.300000, 6.200000, 0.000000, 0.000000, 3.500000, 4.600000, 4.200000, 5.400000, -0.010298, 0.004363, -1.008255, 0.539678, -0.649961, -0.937417, -0.000183, -0.000378, -0.000192, -0.000031, 4689499908052154368.000000, 4706124876731681792.000000, 4640219533109644288.000000, 457.307709, 618.178894, 5197.625000
3397.088434, 7.300000, 4.100000, 0.000000, 0.000000, 3.800000, 3.900000, 5.700000, 7.800000, -0.010298, 0.004363, -1.008255, 0.539678, -0.649961, -0.937417, -0.000162, 0.000159, -0.000143, -0.000028, 4689499908052154368.000000, 4706124876731681792.000000, 4640219533109644288.000000, 457.307709, 618.178894, 5197.625000
3397.188419, 5.400000, 5.000000, 0.000000, 0.000000, 3.400000, 4.400000, 4.700000, 4.900000, -0.010298, 0.004363, -1.008255, 0.539503, -0.649786, -0.937417, -0.000140, 0.000545, 0.000081, -0.000024, 4689499908052154368.000000, 4706124876731681792.000000, 4640219533109644288.000000, 457.307709, 618.178894, 5197.625000
3397.288421, 5.700000, 4.400000, 0.000000, 0.000000, 6.100000, 4.800000, 5.700000, 5.000000, -0.010298, 0.004363, -1.008255, 0.539503, -0.649961, -0.937417, -0.000118, 0.000440, 0.000425, -0.000021, 4689499908052154368.000000, 4706124876731681792.000000, 4640219533109644288.000000, 457.307709, 618.178894, 5197.625000
3397.388398, 4.500000, 4.900000, 0.000000, 0.000000, 5.000000, 3.100000, 3.700000, 4.700000, -0.010298, 0.004363, -1.008255, 0.539503, -0.649961, -0.937417, -0.000097, 0.000164, 0.000475, -0.000017, 4689499908052154368.000000, 4706124876731681792.000000, 4640219533109644288.000000, 457.307709, 618.178894, 5197.625000
3397.488383, 4.200000, 5.400000, 0.000000, 0.000000, 5.600000, 5.000000, 2.700000, 6.500000, -0.010298, 0.004363, -1.008255, 0.539503, -0.649961, -0.937417, -0.000077, -0.000046, 0.000311, -0.000014, 4689499908052154368.000000, 4706124876731681792.000000, 4640219533109644288.000000, 457.307709, 618.178894, 5197.625000
3397.587447, 4.900000, 6.600000, 0.000000, 0.000000, 4.900000, 4.100000, 2.600000, 4.400000, -0.010123, 0.004189, -1.008255, 0.539678, -0.649961, -0.937417, -0.000060, -0.000016, 0.000178, -0.000011, 4689499908052154368.000000, 4706124876731681792.000000, 4640219533109644288.000000, 457.307709, 618.178894, 5197.625000
3397.687419, 5.700000, 5.300000, 0.000000, 0.000000, 4.100000, 2.900000, 4.700000, 6.100000, -0.010123, 0.004189, -1.008255, 0.539852, -0.649961, -0.937417, -0.000044, 0.000553, 0.000073, -0.000008, 4689499908052154368.000000, 4706124876731681792.000000, 4640219533109644288.000000, 457.307709, 618.178894, 5197.625000
3397.786482, 4.300000, 5.900000, 0.000000, 0.000000, 4.600000, 5.800000, 3.300000, 3.900000, -0.010123, 0.004189, -1.008255, 0.539678, -0.649961, -0.937417, -0.000031, 0.001311, -0.000007, -0.000006, 4689499908052154368.000000, 4706124876731681792.000000, 4640219533109644288.000000, 457.307709, 618.178894, 5197.625000
3397.886473, 6.400000, 4.700000, 0.000000, 0.000000, 5.000000, 4.300000, 3.400000, 5.400000, -0.010298, 0.004189, -1.008255, 0.539678, -0.649961, -0.937417, -0.000020, 0.001630, -0.000065, -0.000004, 4689499908052154368.000000, 4706124876731681792.000000, 4640219533109644288.000000, 457.307709, 618.178894, 5197.625000
3397.986482, 3.400000, 4.600000, 0.000000, 0.000000, 5.000000, 4.400000, 3.400000, 4.000000, -0.010298, 0.004189, -1.008255, 0.539678, -0.649961, -0.937417, -0.000012, 0.001614, -0.000106, -0.000003, 4689499908052154368.000000, 4706124876731681792.000000, 4640219533109644288.000000, 457.307709, 618.178894, 5197.625000
3398.085492, 5.200000, 3.900000, 0.000000, 0.000000, 7.500000, 4.600000, 2.900000, 5.400000, -0.010123, 0.004363, -1.008255, 0.539678, -0.649961, -0.937417, -0.000005, 0.001534, -0.000130, -0.000001, 4689499908052154368.000000, 4706124876731681792.000000, 4640219533109644288.000000, 457.307709, 618.178894, 5197.625000
3398.185498, 6.500000, 6.600000, 0.000000, 0.000000, 4.600000, 4.400000, 5.500000, 5.400000, -0.010123, 0.004363, -1.008255, 0.539678, -0.649961, -0.937417, 0.000001, 0.001413, -0.000143, -0.000000, 4689499908052154368.000000, 4706124876731681792.000000, 4640219533109644288.000000, 457.307709, 618.178894, 5197.625000
3398.284512, 5.600000, 4.000000, 0.000000, 0.000000, 4.200000, 3.900000, 3.000000, 4.700000, -0.010123, 0.004363, -1.008255, 0.539678, -0.649961, -0.937417, 0.000005, 0.001264, -0.000147, 0.000000, 4689499908052154368.000000, 4706124876731681792.000000, 4640219533109644288.000000, 457.307709, 618.178894, 5197.625000
3398.383566, 4.200000, 5.400000, 0.000000, 0.000000, 4.700000, 2.700000, 3.800000, 5.300000, -0.010123, 0.004363, -1.008430, 0.539678, -0.649961, -0.937417, -0.000174, 0.001103, -0.000143, 0.000001, 4689499908052154368.000000, 4706124876731681792.000000, 4640219533109644288.000000, 457.307709, 618.178894, 5197.625000
3398.483575, 4.600000, 3.500000, 0.000000, 0.000000, 4.400000, 4.900000, 2.400000, 5.100000, -0.010298, 0.004363, -1.008255, 0.539678, -0.650135, -0.937417, -0.000482, 0.000939, -0.000316, 0.000001, 4689499908052154368.000000, 4706124876731681792.000000, 4640219533109644288.000000, 457.307709, 618.178894, 5197.625000
3398.583583, 4.900000, 4.000000, 0.000000, 0.000000, 6.200000, 3.100000, 3.100000, 5.000000, -0.010298, 0.004363, -1.008255, 0.539678, -0.650135, -0.937417, -0.000503, 0.000779, -0.000793, 0.000001, 4689499908052154368.000000, 4706124876731681792.000000, 4640219533109644288.000000, 457.307709, 618.178894, 5197.625000
3398.682623, 3.600000, 5.500000, 0.000000, 0.000000, 5.200000, 3.500000, 4.000000, 4.300000, -0.010298, 0.004363, -1.008255, 0.539678, -0.650135, -0.937417, -0.000317, 0.000630, -0.001291, 0.000002, 4689499908052154368.000000, 4706124876731681792.000000, 4640219533109644288.000000, 457.307709, 618.178894, 5197.625000
3398.782639, 4.600000, 3.900000, 0.000000, 0.000000, 6.600000, 3.800000, 3.300000, 4.400000, -0.010298, 0.004363, -1.008255, 0.539678, -0.650135, -0.937417, -0.000167, 0.000494, -0.001601, 0.000002, 4689499908052154368.000000, 4706124876731681792.000000, 4640219533109644288.000000, 457.307709, 618.178894, 5197.625000
3398.882645, 6.100000, 4.500000, 0.000000, 0.000000, 4.400000, 4.000000, 4.400000, 5.400000, -0.010298, 0.004189, -1.008255, 0.539678, -0.650135, -0.937417, -0.000050, 0.000374, -0.001762, 0.000001, 4689499908052154368.000000, 4706124876731681792.000000, 4640219533109644288.000000, 457.307709, 618.178894, 5197.625000
3398.981666, 5.200000, 3.100000, 0.000000, 0.000000, 4.400000, 4.100000, 4.000000, 5.400000, -0.010298, 0.004363, -1.008255, 0.539678, -0.650135, -0.937417, 0.000038, 0.000271, -0.001807, 0.000001, 4689499908052154368.000000, 4706124876731681792.000000, 4640219533109644288.000000, 457.307709, 618.178894, 5197.625000
3399.080736, 3.000000, 3.100000, 0.000000, 0.000000, 3.700000, 5.200000, 5.400000, 6.000000, -0.010298, 0.004363, -1.008255, 0.539678, -0.650135, -0.937417, 0.000101, 0.000184, -0.001764, 0.000001, 4689499908052154368.000000, 4706124876731681792.000000, 4640219533109644288.000000, 457.307709, 618.178894, 5197.625000
3399.180637, 5.100000, 3.900000, 0.000000, 0.000000, 3.200000, 4.400000, 5.400000, 4.100000, -0.010298, 0.004363, -1.008255, 0.539678, -0.650135, -0.937417, 0.000142, 0.000112, -0.001659, 0.000001, 4689499908052154368.000000, 4706124876731681792.000000, 4640219533109644288.000000, 457.307709, 618.178894, 5197.625000
3399.279694, 4.400000, 6.100000, 0.000000, 0.000000, 3.200000, 1.600000, 4.300000, 3.600000, -0.010123, 0.004363, -1.008255, 0.539678, -0.650135, -0.937417, 0.000167, 0.000055, -0.001513, 0.000001, 4689499908052154368.000000, 4706124876731681792.000000, 4640219533109644288.000000, 457.307709, 618.178894, 5197.625000
3399.378717, 5.000000, 3.300000, 0.000000, 0.000000, 3.100000, 3.200000, 2.700000, 4.100000, -0.010298, 0.004363, -1.008255, 0.539678, -0.649961, -0.937417, 0.000178, 0.000011, -0.001162, 0.000001, 4689499908052154368.000000, 4706124876731681792.000000, 4640219533109644288.000000, 457.307709, 618.178894, 5197.625000
3399.478707, 6.800000, 5.400000, 0.000000, 0.000000, 4.100000, 3.800000, 5.900000, 3.500000, -0.010472, 0.004363, -1.008255, 0.539678, -0.649961, -0.937417, 0.000179, -0.000022, -0.000492, 0.000001, 4689499908052154368.000000, 4706124876731681792.000000, 4640219533109644288.000000, 457.307709, 618.178894, 5197.625000
3399.578692, 3.900000, 3.700000, 0.000000, 0.000000, 4.800000, 3.300000, 3.700000, 5.300000, -0.010298, 0.004363, -1.008255, 0.539678, -0.649961, -0.937417, 0.000172, -0.000045, 0.000200, 0.000000, 4689499908052154368.000000, 4706124876731681792.000000, 4640219533109644288.000000, 457.307709, 618.178894, 5197.625000
3399.678716, 4.700000, 3.900000, 0.000000, 0.000000, 4.100000, 2.700000, 2.900000, 3.900000, -0.010298, 0.004363, -1.008255, 0.539678, -0.649961, -0.937417, 0.000160, -0.000060, 0.000699, 0.000000, 4689499908052154368.000000, 4706124876731681792.000000, 4640219533109644288.000000, 457.307709, 618.178894, 5197.625000
3399.777765, 4.500000, 4.400000, 0.000000, 0.000000, 3.600000, 3.300000, 3.400000, 4.600000, -0.010123, 0.004363, -1.008255, 0.539678, -0.650135, -0.937417, 0.000144, -0.000069, 0.000855, 0.000000, 4689499908052154368.000000, 4706124876731681792.000000, 4640219533109644288.000000, 457.307709, 618.178894, 5197.625000
3399.877747, 5.800000, 4.800000, 0.000000, 0.000000, 4.000000, 3.700000, 7.700000, 4.500000, -0.010123, 0.004363, -1.008255, 0.539678, -0.649961, -0.937417, 0.000127, -0.000072, 0.000750, 0.000000, 4689499908052154368.000000, 4706124876731681792.000000, 4640219533109644288.000000, 457.307709, 618.178894, 5197.625000
3399.977757, 4.200000, 4.000000, 0.000000, 0.000000, 3.800000, 3.200000, 3.100000, 5.100000, -0.010123, 0.004363, -1.008255, 0.539678, -0.649961, -0.937417, 0.000108, -0.000071, 0.000825, 0.000000, 4689499908052154368.000000, 4706124876731681792.000000, 4640219533109644288.000000, 457.307709, 618.178894, 5197.625000
3400.076800, 4.300000, 3.200000, 0.000000, 0.000000, 3.600000, 3.200000, 3.800000, 6.000000, -0.010298, 0.004363, -1.008255, 0.539852, -0.649961, -0.937417, 0.000091, 0.000113, 0.001026, 0.000000, 4689499908052154368.000000, 4706124876731681792.000000, 4640219533109644288.000000, 457.307709, 618.178894, 5197.625000
3400.175823, 5.900000, 4.100000, 0.000000, 0.000000, 2.600000, 3.100000, 5.100000, 6.300000, -0.010298, 0.004363, -1.008255, 0.539678, -0.649961, -0.937417, 0.000074, 0.000426, 0.001131, 0.000000, 4689499908052154368.000000, 4706124876731681792.000000, 4640219533109644288.000000, 457.307709, 618.178894, 5197.625000
3400.275790, 5.700000, 3.900000, 0.000000, 0.000000, 4.600000, 2.200000, 3.900000, 5.200000, -0.010123, 0.004363, -1.008255, 0.539852, -0.649961, -0.937417, 0.000059, 0.000636, 0.001161, -0.000000, 4689499908052154368.000000, 4706124876731681792.000000, 4640219533109644288.000000, 457.307709, 618.178894, 5197.625000
3400.374794, 4.800000, 3.200000, 0.000000, 0.000000, 3.700000, 4.800000, 4.500000, 4.700000, -0.010123, 0.004363, -1.008255, 0.539852, -0.649961, -0.937417, 0.000045, 0.000947, 0.001134, -0.000000, 4689499908052154368.000000, 4706124876731681792.000000, 4640219533109644288.000000, 457.307709, 618.178894, 5197.625000
3400.473805, 6.600000, 5.300000, 0.000000, 0.000000, 4.100000, 3.600000, 5.000000, 5.400000, -0.010123, 0.004363, -1.008255, 0.539678, -0.649961, -0.937417, 0.000033, 0.001135, 0.001068, -0.000000, 4689499908052154368.000000, 4706124876731681792.000000, 4640219533109644288.000000, 457.307709, 618.178894, 5197.625000
3400.572835, 5.400000, 5.200000, 0.000000, 0.000000, 4.700000, 3.500000, 4.600000, 6.400000, -0.010298, 0.004363, -1.008255, 0.539678, -0.649961, -0.937417, 0.000023, 0.000861, 0.000974, -0.000000, 4689499908052154368.000000, 4706124876731681792.000000, 4640219533109644288.000000, 457.307709, 618.178894, 5197.625000
3400.672816, 6.100000, 4.700000, 0.000000, 0.000000, 4.700000, 4.600000, 3.700000, 5.100000, -0.010298, 0.004363, -1.008255, 0.539678, -0.649961, -0.937417, 0.000014, 0.000443, 0.000865, -0.000000, 4689499908052154368.000000, 4706124876731681792.000000, 4640219533109644288.000000, 457.307709, 618.178894, 5197.625000
3400.771834, 5.700000, 4.400000, 0.000000, 0.000000, 4.900000, 2.500000, 4.800000, 5.900000, -0.010123, 0.004363, -1.008255, 0.539678, -0.649961, -0.937417, 0.000008, 0.000119, 0.000749, -0.000000, 4689499908052154368.000000, 4706124876731681792.000000, 4640219533109644288.000000, 457.307709, 618.178894, 5197.625000
3400.870866, 3.600000, 3.800000, 0.000000, 0.000000, 3.300000, 4.400000, 4.800000, 5.600000, -0.010123, 0.004363, -1.008255, 0.539678, -0.649961, -0.937417, 0.000002, -0.000124, 0.000633, -0.000000, 4689499908052154368.000000, 4706124876731681792.000000, 4640219533109644288.000000, 457.307709, 618.178894, 5197.625000
3400.969897, 5.200000, 7.300000, 0.000000, 0.000000, 4.200000, 4.100000, 4.200000, 5.500000, -0.010298, 0.004363, -1.008255, 0.539852, -0.649961, -0.937417, -0.000001, -0.000115, 0.000521, -0.000000, 4689499908052154368.000000, 4706124876731681792.000000, 4640219533109644288.000000, 457.307709, 618.178894, 5197.625000
3401.069827, 5.100000, 5.200000, 0.000000, 0.000000, 5.200000, 4.400000, 4.500000, 4.800000, -0.010298, 0.004363, -1.008255, 0.539678, -0.649961, -0.937417, -0.000004, 0.000079, 0.000418, -0.000000, 4689499908052154368.000000, 4706124876731681792.000000, 4640219533109644288.000000, 457.307709, 618.178894, 5197.625000
3401.168929, 5.000000, 5.900000, 0.000000, 0.000000, 3.800000, 5.600000, 5.500000, 4.300000, -0.010298, 0.004363, -1.008255, 0.539678, -0.650135, -0.937417, -0.000006, 0.000035, 0.000143, -0.000000, 4689499908052154368.000000, 4706124876731681792.000000, 4640219533109644288.000000, 457.307709, 618.178894, 5197.625000
3401.268886, 5.200000, 7.500000, 0.000000, 0.000000, 6.300000, 4.500000, 2.300000, 5.400000, -0.010472, 0.004363, -1.008255, 0.539678, -0.649961, -0.937417, -0.000007, -0.000180, -0.000247, -0.000000, 4689499908052154368.000000, 4706124876731681792.000000, 4640219533109644288.000000, 457.307709, 618.178894, 5197.625000
3401.368868, 5.100000, 6.100000, 0.000000, 0.000000, 5.600000, 6.400000, 5.500000, 5.500000, -0.010298, 0.004363, -1.008255, 0.539678, -0.649961, -0.937417, -0.000008, -0.000330, -0.000339, -0.000000, 4689499908052154368.000000, 4706124876731681792.000000, 4640219533109644288.000000, 457.307709, 618.178894, 5197.625000
3401.467886, 5.200000, 5.000000, 0.000000, 0.000000, 6.000000, 2.900000, 4.000000, 6.000000, -0.010298, 0.004363, -1.008255, 0.539678, -0.649961, -0.937417, -0.000008, -0.000426, -0.000212, -0.000000, 4689499908052154368.000000, 4706124876731681792.000000, 4640219533109644288.000000, 457.307709, 618.178894, 5197.625000
3401.566924, 4.200000, 5.600000, 0.000000, 0.000000, 4.300000, 3.800000, 3.900000, 4.700000, -0.010298, 0.004363, -1.008255, 0.539678, -0.649961, -0.937417, -0.000008, -0.000479, -0.000109, -0.000000, 4689499908052154368.000000, 4706124876731681792.000000, 4640219533109644288.000000, 457.307709, 618.178894, 5197.625000
3401.665964, 4.600000, 3.900000, 0.000000, 0.000000, 4.600000, 3.800000, 6.000000, 5.400000, -0.010298, 0.004363, -1.008255, 0.539503, -0.649961, -0.937417, -0.000007, -0.000679, -0.000030, -0.000000, 4689499908052154368.000000, 4706124876731681792.000000, 4640219533109644288.000000, 457.307709, 618.178894, 5197.625000
3401.765891, 5.700000, 4.100000, 0.000000, 0.000000, 3.700000, 4.300000, 3.900000, 5.600000, -0.010298, 0.004363, -1.008255, 0.539503, -0.649961, -0.937417, -0.000006, -0.001163, 0.000030, -0.000000, 4689499908052154368.000000, 4706124876731681792.000000, 4640219533109644288.000000, 457.307709, 618.178894, 5197.625000
3401.864930, 5.200000, 5.700000, 0.000000, 0.000000, 5.500000, 3.700000, 4.700000, 4.700000, -0.010298, 0.004363, -1.008255, 0.539503, -0.649961, -0.937417, -0.000006, -0.001650, 0.000072, -0.000000, 4689499908052154368.000000, 4706124876731681792.000000, 4640219533109644288.000000, 457.307709, 618.178894, 5197.625000
3401.963977, 4.500000, 5.700000, 0.000000, 0.000000, 4.400000, 5.100000, 3.200000, 4.800000, -0.010298, 0.004363, -1.008255, 0.539503, -0.649961, -0.937417, -0.000005, -0.001939, 0.000100, -0.000000, 4689499908052154368.000000, 4706124876731681792.000000, 4640219533109644288.000000, 457.307709, 618.178894, 5197.625000
3402.063993, 5.300000, 4.300000, 0.000000, 0.000000, 4.000000, 2.200000, 3.800000, 5.200000, -0.010298, 0.004363, -1.008255, 0.539678, -0.649786, -0.937417, -0.000004, -0.001887, 0.000298, -0.000000, 4689499908052154368.000000, 4706124876731681792.000000, 4640219533109644288.000000, 457.307709, 618.178894, 5197.625000
3402.163986, 4.500000, 3.400000, 0.000000, 0.000000, 4.500000, 6.800000, 3.200000, 4.600000, -0.010298, 0.004363, -1.008255, 0.539503, -0.649786, -0.937417, -0.000003, -0.001588, 0.000796, -0.000000, 4689499908052154368.000000, 4706124876731681792.000000, 4640219533109644288.000000, 457.307709, 618.178894, 5197.625000
3402.263994, 5.500000, 5.700000, 0.000000, 0.000000, 4.600000, 2.900000, 2.800000, 4.300000, -0.010123, 0.004363, -1.008255, 0.539503, -0.649961, -0.937417, -0.000003, -0.001485, 0.001127, 0.000000, 4689499908052154368.000000, 4706124876731681792.000000, 4640219533109644288.000000, 457.307709, 618.178894, 5197.625000
3402.364010, 3.800000, 4.200000, 0.000000, 0.000000, 5.700000, 2.100000, 2.500000, 5.200000, -0.010123, 0.004363, -1.008255, 0.539678, -0.649961, -0.937417, -0.000002, -0.001348, 0.000958, 0.000000, 4689499908052154368.000000, 4706124876731681792.000000, 4640219533109644288.000000, 457.307709, 618.178894, 5197.625000
3402.463057, 3.400000, 3.300000, 0.000000, 0.000000, 4.900000, 4.900000, 4.000000, 5.000000, -0.010123, 0.004363, -1.008255, 0.539503, -0.649961, -0.937417, -0.000001, -0.001008, 0.000613, 0.000000, 4689499908052154368.000000, 4706124876731681792.000000, 4640219533109644288.000000, 457.307709, 618.178894, 5197.625000
3402.563071, 5.200000, 3.200000, 0.000000, 0.000000, 3.700000, 5.200000, 3.200000, 4.200000, -0.010123, 0.004363, -1.008255, 0.539678, -0.649961, -0.937417, -0.000001, -0.000719, 0.000334, 0.000000, 4689499908052154368.000000, 4706124876731681792.000000, 4640219533109644288.000000, 457.307709, 618.178894, 5197.625000
3402.663077, 6.400000, 3.100000, 0.000000, 0.000000, 3.900000, 4.700000, 2.200000, 5.000000, -0.009949, 0.004363, -1.008255, 0.539678, -0.650135, -0.937417, -0.000001, -0.000294, -0.000066, 0.000000, 4689499908052154368.000000, 4706124876731681792.000000, 4640219533109644288.000000, 457.307709, 618.178894, 5197.625000
3402.762105, 4.200000, 4.200000, 0.000000, 0.000000, 6.200000, 3.400000, 3.200000, 3.800000, -0.009949, 0.004363, -1.008255, 0.539503, -0.649961, -0.937417, -0.000000, 0.000030, -0.000538, 0.000000, 4689499908052154368.000000, 4706124876731681792.000000, 4640219533109644288.000000, 457.307709, 618.178894, 5197.625000
3402.862113, 5.700000, 4.400000, 0.000000, 0.000000, 4.600000, 7.000000, 4.600000, 4.900000, -0.009949, 0.004363, -1.008255, 0.539503, -0.649961, -0.937417, -0.000000, -0.000099, -0.000679, 0.000000, 4689499908052154368.000000, 4706124876731681792.000000, 4640219533109644288.000000, 457.307709, 618.178894, 5197.625000
3402.962096, 4.400000, 5.800000, 0.000000, 0.000000, 3.700000, 1.900000, 2.200000, 4.400000, -0.009949, 0.004363, -1.008255, 0.539678, -0.649961, -0.937417, 0.000000, -0.000189, -0.000573, 0.000000, 4689499908052154368.000000, 4706124876731681792.000000, 4640219533109644288.000000, 457.307709, 618.178894, 5197.625000
3403.061122, 5.200000, 4.900000, 0.000000, 0.000000, 4.200000, 4.800000, 5.100000, 4.100000, -0.009949, 0.004363, -1.008255, 0.539678, -0.649961, -0.937417, 0.000000, 0.000118, -0.000472, 0.000000, 4689499908052154368.000000, 4706124876731681792.000000, 4640219533109644288.000000, 457.307709, 618.178894, 5197.625000
3403.160183, 3.600000, 2.800000, 0.000000, 0.000000, 4.900000, 4.300000, 3.900000, 7.000000, -0.010123, 0.004363, -1.008255, 0.539678, -0.649961, -0.937417, 0.000000, 0.000519, -0.000377, 0.000000, 4689499908052154368.000000, 4706124876731681792.000000, 4640219533109644288.000000, 457.307709, 618.178894, 5197.625000
3403.260193, 4.300000, 3.500000, 0.000000, 0.000000, 4.000000, 3.900000, 2.500000, 4.000000, -0.010123, 0.004189, -1.008255, 0.539678, -0.649961, -0.937417, 0.000000, 0.000792, -0.000293, 0.000000, 4689499908052154368.000000, 4706124876731681792.000000, 4640219533109644288.000000, 457.307709, 618.178894, 5197.625000
3403.360201, 4.600000, 3.900000, 0.000000, 0.000000, 3.900000, 5.200000, 3.200000, 5.200000, -0.010123, 0.004363, -1.008255, 0.539678, -0.649961, -0.937417, 0.000000, 0.000959, -0.000218, 0.000000, 4689499908052154368.000000, 4706124876731681792.000000, 4640219533109644288.000000, 457.307709, 618.178894, 5197.625000
3403.460189, 3.100000, 3.100000, 0.000000, 0.000000, 3.500000, 2.800000, 3.900000, 3.600000, -0.010123, 0.004363, -1.008255, 0.539678, -0.649961, -0.937417, 0.000000, 0.001041, -0.000155, 0.000000, 4689499908052154368.000000, 4706124876731681792.000000, 4640219533109644288.000000, 457.307709, 618.178894, 5197.625000
3403.560199, 3.700000, 3.600000, 0.000000, 0.000000, 4.000000, 3.000000, 4.100000, 6.000000, -0.010123, 0.004189, -1.008255, 0.539678, -0.649961, -0.937417, 0.000000, 0.001058, -0.000102, 0.000000, 4689499908052154368.000000, 4706124876731681792.000000, 4640219533109644288.000000, 457.307709, 618.178894, 5197.625000
3403.659273, 5.100000, 3.800000, 0.000000, 0.000000, 6.900000, 4.600000, 5.700000, 6.500000, -0.010123, 0.004363, -1.008430, 0.539852, -0.650135, -0.937417, -0.000181, 0.001207, -0.000240, 0.000000, 4689499908052154368.000000, 4706124876731681792.000000, 4640219533109644288.000000, 457.307709, 618.178894, 5197.625000
3403.759241, 3.500000, 2.700000, 0.000000, 0.000000, 4.200000, 3.300000, 5.100000, 5.400000, -0.010123, 0.004363, -1.008430, 0.539852, -0.650135, -0.937417, -0.000672, 0.001630, -0.000695, 0.000000, 4689499908052154368.000000, 4706124876731681792.000000, 4640219533109644288.000000, 457.307709, 618.178894, 5197.625000
3403.859255, 5.000000, 4.600000, 0.000000, 0.000000, 5.000000, 2.900000, 4.300000, 6.000000, -0.010123, 0.004363, -1.008430, 0.539852, -0.650135, -0.937417, -0.001185, 0.002053, -0.001181, 0.000000, 4689499908052154368.000000, 4706124876731681792.000000, 4640219533109644288.000000, 457.307709, 618.178894, 5197.625000
3403.959265, 5.100000, 4.600000, 0.000000, 0.000000, 5.400000, 5.200000, 3.900000, 3.900000, -0.010123, 0.004363, -1.008430, 0.539852, -0.650135, -0.937417, -0.001511, 0.002278, -0.001487, 0.000000, 4689499908052154368.000000, 4706124876731681792.000000, 4640219533109644288.000000, 457.307709, 618.178894, 5197.625000
3404.058300, 3.700000, 3.900000, 0.000000, 0.000000, 4.100000, 4.600000, 5.000000, 5.900000, -0.010123, 0.004363, -1.008430, 0.539852, -0.650135, -0.937417, -0.001688, 0.002347, -0.001650, 0.000000, 4689499908052154368.000000, 4706124876731681792.000000, 4640219533109644288.000000, 457.307709, 618.178894, 5197.625000
3404.157360, 4.400000, 4.000000, 0.000000, 0.000000, 4.100000, 3.100000, 4.600000, 5.300000, -0.010123, 0.004363, -1.008430, 0.539852, -0.650135, -0.937417, -0.001746, 0.002300, -0.001700, 0.000000, 4689499908052154368.000000, 4706124876731681792.000000, 4640219533109644288.000000, 457.307709, 618.178894, 5197.625000
3404.257362, 6.700000, 4.700000, 0.000000, 0.000000, 5.500000, 4.400000, 6.400000, 5.300000, -0.010123, 0.004189, -1.008430, 0.539852, -0.650135, -0.937417, -0.001716, 0.002170, -0.001666, -0.000000, 4689499908052154368.000000, 4706124876731681792.000000, 4640219533109644288.000000, 457.307709, 618.178894, 5197.625000
3404.356363, 3.500000, 7.000000, 0.000000, 0.000000, 5.000000, 3.800000, 3.700000, 6.800000, -0.010123, 0.004189, -1.008255, 0.539852, -0.650135, -0.937417, -0.001441, 0.001984, -0.001572, -0.000000, 4689499908052154368.000000, 4706124876731681792.000000, 4640219533109644288.000000, 457.307709, 618.178894, 5197.625000
3404.456351, 5.200000, 5.100000, 0.000000, 0.000000, 4.800000, 5.100000, 5.100000, 5.900000, -0.010123, 0.004189, -1.008255, 0.539678, -0.650135, -0.937417, -0.000815, 0.001584, -0.001437, -0.000000, 4689499908052154368.000000, 4706124876731681792.000000, 4640219533109644288.000000, 457.307709, 618.178894, 5197.625000
3404.556361, 5.300000, 4.000000, 0.000000, 0.000000, 4.900000, 2.900000, 5.500000, 5.100000, -0.010123, 0.004189, -1.008255, 0.539852, -0.650135, -0.937417, -0.000140, 0.001042, -0.001278, -0.000000, 4689499908052154368.000000, 4706124876731681792.000000, 4640219533109644288.000000, 457.307709, 618.178894, 5197.625000
3404.656367, 5.000000, 3.600000, 0.000000, 0.000000, 5.500000, 4.500000, 3.600000, 7.700000, -0.010123, 0.004189, -1.008255, 0.539852, -0.650135, -0.937417, 0.000360, 0.000784, -0.001109, -0.000000, 4689499908052154368.000000, 4706124876731681792.000000, 4640219533109644288.000000, 457.307709, 618.178894, 5197.625000
3404.755409, 4.800000, 5.000000, 0.000000, 0.000000, 3.900000, 4.700000, 4.600000, 5.400000, -0.010123, 0.004363, -1.008255, 0.539852, -0.650135, -0.937417, 0.000712, 0.000743, -0.000938, -0.000000, 4689499908052154368.000000, 4706124876731681792.000000, 4640219533109644288.000000, 457.307709, 618.178894, 5197.625000
3404.855423, 5.600000, 6.000000, 0.000000, 0.000000, 5.200000, 5.000000, 4.600000, 6.000000, -0.010123, 0.004363, -1.008255, 0.539852, -0.650135, -0.937417, 0.000939, 0.000683, -0.000774, -0.000000, 4689499908052154368.000000, 4706124876731681792.000000, 4640219533109644288.000000, 457.307709, 618.178894, 5197.625000
3404.955434, 4.300000, 4.200000, 0.000000, 0.000000, 3.800000, 3.500000, 3.600000, 5.600000, -0.010123, 0.004363, -1.008255, 0.539678, -0.649961, -0.937417, 0.001067, 0.000429, -0.000441, -0.000000, 4689499908052154368.000000, 4706124876731681792.000000, 4640219533109644288.000000, 457.307709, 618.178894, 5197.625000
3405.055415, 4.300000, 4.600000, 0.000000, 0.000000, 4.800000, 3.900000, 3.100000, 6.800000, -0.010123, 0.004363, -1.008255, 0.539678, -0.649961, -0.937417, 0.001116, -0.000139, 0.000186, -0.000000, 4689499908052154368.000000, 4706124876731681792.000000, 4640219533109644288.000000, 457.307709, 618.178894, 5197.625000
3405.154490, 4.900000, 5.700000, 0.000000, 0.000000, 3.700000, 4.600000, 3.600000, 6.800000, -0.010123, 0.004363, -1.008255, 0.539678, -0.649961, -0.937417, 0.001106, -0.000731, 0.000819, -0.000000, 4689499908052154368.000000, 4706124876731681792.000000, 4640219533109644288.000000, 457.307709, 618.178894, 5197.625000
3405.254494, 4.800000, 3.800000, 0.000000, 0.000000, 5.700000, 5.100000, 4.500000, 6.900000, -0.010123, 0.004363, -1.008255, 0.539678, -0.649961, -0.937417, 0.001052, -0.001134, 0.001248, -0.000000, 4689499908052154368.000000, 4706124876731681792.000000, 4640219533109644288.000000, 457.307709, 618.178894, 5197.625000
3405.353505, 5.400000, 5.300000, 0.000000, 0.000000, 5.700000, 3.100000, 3.500000, 5.200000, -0.010123, 0.004363, -1.008255, 0.539678, -0.649961, -0.937417, 0.000969, -0.001382, 0.001511, -0.000000, 4689499908052154368.000000, 4706124876731681792.000000, 4640219533109644288.000000, 457.307709, 618.178894, 5197.625000
3405.452546, 4.800000, 4.400000, 0.000000, 0.000000, 4.300000, 3.600000, 4.300000, 4.300000, -0.010123, 0.004363, -1.008255, 0.539678, -0.649961, -0.937417, 0.000867, -0.001506, 0.001640, -0.000000, 4689499908052154368.000000, 4706124876731681792.000000, 4640219533109644288.000000, 457.307709, 618.178894, 5197.625000
3405.552558, 5.900000, 4.600000, 0.000000, 0.000000, 4.200000, 2.600000, 4.000000, 4.900000, -0.010123, 0.004363, -1.008255, 0.539678, -0.650135, -0.937417, 0.000757, -0.001534, 0.001485, -0.000000, 4689499908052154368.000000, 4706124876731681792.000000, 4640219533109644288.000000, 457.307709, 618.178894, 5197.625000
3405.652563, 4.600000, 3.800000, 0.000000, 0.000000, 3.500000, 4.200000, 5.800000, 5.500000, -0.010123, 0.004363, -1.008255, 0.539678, -0.649961, -0.937417, 0.000644, -0.001490, 0.001127, -0.000000, 4689499908052154368.000000, 4706124876731681792.000000, 4640219533109644288.000000, 457.307709, 618.178894, 5197.625000
3405.752554, 4.700000, 5.600000, 0.000000, 0.000000, 4.300000, 6.000000, 4.800000, 5.200000, -0.010123, 0.004363, -1.008255, 0.539678, -0.649961, -0.937417, 0.000535, -0.001396, 0.001001, -0.000000, 4689499908052154368.000000, 4706124876731681792.000000, 4640219533109644288.000000, 457.307709, 618.178894, 5197.625000
3405.852564, 4.200000, 4.100000, 0.000000, 0.000000, 6.300000, 6.000000, 3.500000, 4.600000, -0.010123, 0.004363, -1.008255, 0.539678, -0.649961, -0.937417, 0.000433, -0.001269, 0.001047, -0.000000, 4689499908052154368.000000, 4706124876731681792.000000, 4640219533109644288.000000, 457.307709, 618.178894, 5197.625000
3405.952576, 5.900000, 4.400000, 0.000000, 0.000000, 4.100000, 5.500000, 5.500000, 5.300000, -0.010123, 0.004363, -1.008255, 0.539678, -0.649961, -0.937417, 0.000339, -0.001123, 0.001038, -0.000000, 4689499908052154368.000000, 4706124876731681792.000000, 4640219533109644288.000000, 457.307709, 618.178894, 5197.625000
3406.052588, 4.300000, 5.700000, 0.000000, 0.000000, 5.900000, 4.800000, 3.600000, 5.000000, -0.010123, 0.004363, -1.008255, 0.539678, -0.649961, -0.937417, 0.000257, -0.000970, 0.000988, -0.000000, 4689499908052154368.000000, 4706124876731681792.000000, 4640219533109644288.000000, 457.307709, 618.178894, 5197.625000
3406.151600, 3.800000, 2.700000, 0.000000, 0.000000, 4.500000, 4.800000, 4.100000, 3.200000, -0.010123, 0.004189, -1.008255, 0.539678, -0.650135, -0.937417, 0.000186, -0.000816, 0.000728, -0.000000, 4689499908052154368.000000, 4706124876731681792.000000, 4640219533109644288.000000, 457.307709, 618.178894, 5197.625000
3406.250611, 4.400000, 2.900000, 0.000000, 0.000000, 3.300000, 4.400000, 4.500000, 6.000000, -0.010123, 0.004363, -1.008255, 0.539678, -0.650135, -0.937417, 0.000126, -0.000670, 0.000144, 0.000000, 4689499908052154368.000000, 4706124876731681792.000000, 4640219533109644288.000000, 457.307709, 618.178894, 5197.625000
3406.349635, 5.100000, 5.400000, 0.000000, 0.000000, 3.900000, 3.300000, 5.700000, 4.900000, -0.010123, 0.004189, -1.008255, 0.539678, -0.649961, -0.937417, 0.000077, -0.000535, -0.000290, 0.000000, 4689499908052154368.000000, 4706124876731681792.000000, 4640219533109644288.000000, 457.307709, 618.178894, 5197.625000
3406.449642, 3.000000, 4.700000, 0.000000, 0.000000, 3.300000, 3.200000, 4.300000, 5.400000, -0.010123, 0.004363, -1.008255, 0.539678, -0.649961, -0.937417, 0.000038, -0.000414, -0.000232, 0.000000, 4689499908052154368.000000, 4706124876731681792.000000, 4640219533109644288.000000, 457.307709, 618.178894, 5197.625000
3406.549652, 4.100000, 3.700000, 0.000000, 0.000000, 5.800000, 3.300000, 2.900000, 5.300000, -0.010298, 0.004189, -1.008255, 0.539678, -0.649961, -0.937417, 0.000008, -0.000308, 0.000002, 0.000000, 4689499908052154368.000000, 4706124876731681792.000000, 4640219533109644288.000000, 457.307709, 618.178894, 5197.625000
3406.648653, 4.200000, 5.100000, 0.000000, 0.000000, 6.000000, 4.900000, 2.900000, 6.000000, -0.010123, 0.004363, -1.008255, 0.539503, -0.649961, -0.937417, -0.000015, -0.000399, 0.000172, 0.000000, 4689499908052154368.000000, 4706124876731681792.000000, 4640219533109644288.000000, 457.307709, 618.178894, 5197.625000
3406.747693, 5.200000, 5.200000, 0.000000, 0.000000, 5.100000, 4.900000, 4.700000, 5.600000, -0.010123, 0.004363, -1.008255, 0.539503, -0.649961, -0.937417, -0.000031, -0.000814, 0.000290, 0.000000, 4689499908052154368.000000, 4706124876731681792.000000, 4640219533109644288.000000, 457.307709, 618.178894, 5197.625000
3406.846760, 4.400000, 2.600000, 0.000000, 0.000000, 4.600000, 4.100000, 3.000000, 4.600000, -0.010123, 0.004363, -1.008255, 0.539678, -0.649961, -0.937417, -0.000041, -0.001084, 0.000365, 0.000000, 4689499908052154368.000000, 4706124876731681792.000000, 4640219533109644288.000000, 457.307709, 618.178894, 5197.625000
3406.946760, 3.800000, 3.100000, 0.000000, 0.000000, 4.400000, 3.000000, 4.600000, 3.800000, -0.009949, 0.004537, -1.008255, 0.539503, -0.649961, -0.937417, -0.000047, -0.001054, 0.000404, 0.000000, 4689499908052154368.000000, 4706124876731681792.000000, 4640219533109644288.000000, 457.307709, 618.178894, 5197.625000
3407.046721, 3.200000, 4.900000, 0.000000, 0.000000, 3.100000, 5.200000, 3.100000, 4.900000, -0.010123, 0.004363, -1.008255, 0.539503, -0.649961, -0.937417, -0.000049, -0.001171, 0.000416, 0.000000, 4689499908052154368.000000, 4706124876731681792.000000, 4640219533109644288.000000, 457.307709, 618.178894, 5197.625000
3407.145778, 3.500000, 4.000000, 0.000000, 0.000000, 4.200000, 3.400000, 2.600000, 7.600000, -0.010123, 0.004363, -1.008255, 0.539503, -0.649786, -0.937417, -0.000049, -0.001389, 0.000589, 0.000000, 4689499908052154368.000000, 4706124876731681792.000000, 4640219533109644288.000000, 457.307709, 618.178894, 5197.625000
3407.245770, 4.300000, 5.200000, 0.000000, 0.000000, 5.800000, 4.000000, 5.800000, 5.900000, -0.010123, 0.004363, -1.008255, 0.539678, -0.649961, -0.937417, -0.000047, -0.001310, 0.000875, 0.000000, 4689499908052154368.000000, 4706124876731681792.000000, 4640219533109644288.000000, 457.307709, 618.178894, 5197.625000
3407.345787, 5.700000, 3.900000, 0.000000, 0.000000, 4.100000, 3.600000, 2.700000, 4.200000, -0.010123, 0.004363, -1.008255, 0.539678, -0.649961, -0.937417, -0.000043, -0.000832, 0.000864, 0.000000, 4689499908052154368.000000, 4706124876731681792.000000, 4640219533109644288.000000, 457.307709, 618.178894, 5197.625000
3407.444839, 3.700000, 3.100000, 0.000000, 0.000000, 4.900000, 3.500000, 4.400000, 5.600000, -0.010123, 0.004363, -1.008255, 0.539503, -0.649961, -0.937417, -0.000039, -0.000447, 0.000639, 0.000000, 4689499908052154368.000000, 4706124876731681792.000000, 4640219533109644288.000000, 457.307709, 618.178894, 5197.625000
3407.544845, 4.300000, 3.000000, 0.000000, 0.000000, 2.900000, 3.900000, 3.000000, 5.300000, -0.010123, 0.004363, -1.008255, 0.539503, -0.649961, -0.937417, -0.000034, -0.000512, 0.000447, 0.000000, 4689499908052154368.000000, 4706124876731681792.000000, 4640219533109644288.000000, 457.307709, 618.178894, 5197.625000
3407.644849, 6.300000, 4.200000, 0.000000, 0.000000, 4.300000, 3.400000, 4.200000, 5.400000, -0.010123, 0.004363, -1.008255, 0.539678, -0.649961, -0.937417, -0.000029, -0.000538, 0.000288, 0.000000, 4689499908052154368.000000, 4706124876731681792.000000, 4640219533109644288.000000, 457.307709, 618.178894, 5197.625000
3407.743888, 4.200000, 4.100000, 0.000000, 0.000000, 5.100000, 2.800000, 5.800000, 6.100000, -0.010123, 0.004363, -1.008255, 0.539503, -0.649961, -0.937417, -0.000024, -0.000351, 0.000159, 0.000000, 4689499908052154368.000000, 4706124876731681792.000000, 4640219533109644288.000000, 457.307709, 618.178894, 5197.625000
3407.843896, 3.800000, 4.600000, 0.000000, 0.000000, 3.600000, 3.800000, 3.300000, 4.800000, -0.010123, 0.004363, -1.008255, 0.539503, -0.649961, -0.937417, -0.000019, -0.000383, 0.000058, 0.000000, 4689499908052154368.000000, 4706124876731681792.000000, 4640219533109644288.000000, 457.307709, 618.178894, 5197.625000
3407.943898, 5.400000, 3.500000, 0.000000, 0.000000, 4.500000, 3.000000, 4.500000, 5.300000, -0.010123, 0.004363, -1.008255, 0.539503, -0.649961, -0.937417, -0.000015, -0.000572, -0.000018, 0.000000, 4689499908052154368.000000, 4706124876731681792.000000, 4640219533109644288.000000, 457.307709, 618.178894, 5197.625000
3408.043916, 5.100000, 5.700000, 0.000000, 0.000000, 3.300000, 4.700000, 4.200000, 4.600000, -0.010123, 0.004363, -1.008255, 0.539503, -0.649961, -0.937417, -0.000012, -0.000686, -0.000073, 0.000000, 4689499908052154368.000000, 4706124876731681792.000000, 4640219533109644288.000000, 457.307709, 618.178894, 5197.625000
3408.143970, 5.200000, 3.800000, 0.000000, 0.000000, 6.400000, 3.800000, 3.100000, 7.400000, -0.010123, 0.004363, -1.008255, 0.539503, -0.649961, -0.937417, -0.000008, -0.000742, -0.000111, 0.000000, 4689499908052154368.000000, 4706124876731681792.000000, 4640219533109644288.000000, 457.307709, 618.178894, 5197.625000
3408.243938, 5.100000, 4.800000, 0.000000, 0.000000, 4.300000, 3.400000, 3.800000, 5.000000, -0.010123, 0.004363, -1.008255, 0.539678, -0.649961, -0.937417, -0.000006, -0.000570, -0.000134, -0.000000, 4689499908052154368.000000, 4706124876731681792.000000, 4640219533109644288.000000, 457.307709, 618.178894, 5197.625000
3408.343952, 6.000000, 6.300000, 0.000000, 0.000000, 6.300000, 3.700000, 5.300000, 8.500000, -0.010123, 0.004363, -1.008255, 0.539503, -0.649961, -0.937417, -0.000004, -0.000237, -0.000145, -0.000000, 4689499908052154368.000000, 4706124876731681792.000000, 4640219533109644288.000000, 457.307709, 618.178894, 5197.625000
3408.542986, 7.400000, 3.900000, 0.000000, 0.000000, 3.800000, 4.000000, 4.200000, 5.700000, -0.010123, 0.004363, -1.008255, 0.539678, -0.650135, -0.937417, -0.000002, 0.000016, -0.000328, -0.000000, 4689499908052154368.000000, 4706124876731681792.000000, 4640219533109644288.000000, 457.307709, 618.178894, 5197.625000
3408.642913, 4.600000, 4.600000, 0.000000, 0.000000, 4.200000, 4.100000, 4.700000, 6.700000, -0.010123, 0.004363, -1.008255, 0.539503, -0.650135, -0.937417, -0.000000, 0.000202, -0.000812, -0.000000, 4689499908052154368.000000, 4706124876731681792.000000, 4640219533109644288.000000, 457.307709, 618.178894, 5197.625000
3408.741952, 5.200000, 5.500000, 0.000000, 0.000000, 4.300000, 4.600000, 4.500000, 5.400000, -0.010123, 0.004363, -1.008255, 0.539678, -0.650135, -0.937417, 0.000001, 0.000328, -0.001315, -0.000000, 4689499908052154368.000000, 4706124876731681792.000000, 4640219533109644288.000000, 457.307709, 618.178894, 5197.625000
3408.840998, 5.800000, 3.600000, 0.000000, 0.000000, 5.300000, 5.100000, 6.900000, 4.900000, -0.010123, 0.004363, -1.008255, 0.539678, -0.650135, -0.937417, 0.000001, 0.000590, -0.001628, -0.000000, 4689499908052154368.000000, 4706124876731681792.000000, 4640219533109644288.000000, 457.307709, 618.178894, 5197.625000
3408.940992, 5.700000, 6.400000, 0.000000, 0.000000, 5.400000, 6.100000, 4.200000, 6.600000, -0.010123, 0.004363, -1.008255, 0.539678, -0.649961, -0.937417, 0.000002, 0.000939, -0.001608, -0.000000, 4689499908052154368.000000, 4706124876731681792.000000, 4640219533109644288.000000, 457.307709, 618.178894, 5197.625000
3409.040026, 4.800000, 4.500000, 0.000000, 0.000000, 5.700000, 3.100000, 3.400000, 3.900000, -0.010123, 0.004363, -1.008255, 0.539678, -0.649961, -0.937417, 0.000002, 0.001156, -0.001163, -0.000000, 4689499908052154368.000000, 4706124876731681792.000000, 4640219533109644288.000000, 457.307709, 618.178894, 5197.625000
3409.140013, 6.200000, 5.000000, 0.000000, 0.000000, 5.000000, 3.800000, 4.600000, 5.300000, -0.010123, 0.004363, -1.008255, 0.539852, -0.649961, -0.937417, 0.000002, 0.001447, -0.000607, -0.000000, 4689499908052154368.000000, 4706124876731681792.000000, 4640219533109644288.000000, 457.307709, 618.178894, 5197.625000
3409.239069, 6.600000, 3.900000, 0.000000, 0.000000, 4.100000, 5.200000, 5.900000, 4.600000, -0.010298, 0.004363, -1.008255, 0.539678, -0.649961, -0.937417, 0.000002, 0.001784, -0.000174, -0.000000, 4689499908052154368.000000, 4706124876731681792.000000, 4640219533109644288.000000, 457.307709, 618.178894, 5197.625000
3409.339007, 4.100000, 6.200000, 0.000000, 0.000000, 3.900000, 3.800000, 3.400000, 6.400000, -0.010298, 0.004363, -1.008255, 0.539678, -0.649961, -0.937417, 0.000002, 0.001773, 0.000150, -0.000000, 4689499908052154368.000000, 4706124876731681792.000000, 4640219533109644288.000000, 457.307709, 618.178894, 5197.625000
3409.438052, 5.100000, 6.200000, 0.000000, 0.000000, 6.500000, 3.200000, 2.300000, 4.900000, -0.010298, 0.004189, -1.008255, 0.539678, -0.649961, -0.937417, 0.000002, 0.001510, 0.000381, -0.000000, 4689499908052154368.000000, 4706124876731681792.000000, 4640219533109644288.000000, 457.307709, 618.178894, 5197.625000
3409.537097, 5.100000, 2.500000, 0.000000, 0.000000, 6.600000, 5.900000, 4.300000, 3.400000, -0.009949, 0.004014, -1.008255, 0.539678, -0.649961, -0.937417, 0.000002, 0.001254, 0.000535, -0.000000, 4689499908052154368.000000, 4706124876731681792.000000, 4640219533109644288.000000, 457.307709, 618.178894, 5197.625000
3409.637091, 5.000000, 5.100000, 0.000000, 0.000000, 4.300000, 4.100000, 2.800000, 4.600000, -0.010123, 0.004014, -1.008255, 0.539503, -0.649961, -0.937417, 0.000002, 0.000833, 0.000625, -0.000000, 4689499908052154368.000000, 4706124876731681792.000000, 4640219533109644288.000000, 457.307709, 618.178894, 5197.625000
3409.736118, 3.900000, 3.300000, 0.000000, 0.000000, 3.700000, 3.700000, 4.800000, 3.900000, -0.010123, 0.004189, -1.008255, 0.539503, -0.649961, -0.937417, 0.000001, 0.000124, 0.000665, -0.000000, 4689499908052154368.000000, 4706124876731681792.000000, 4640219533109644288.000000, 457.307709, 618.178894, 5197.625000
3409.836110, 3.800000, 3.400000, 0.000000, 0.000000, 4.600000, 5.000000, 3.100000, 5.000000, -0.010123, 0.004189, -1.008255, 0.539503, -0.649961, -0.937417, 0.000001, -0.000582, 0.000667, -0.000000, 4689499908052154368.000000, 4706124876731681792.000000, 4640219533109644288.000000, 457.307709, 618.178894, 5197.625000
3409.935157, 5.200000, 3.800000, 0.000000, 0.000000, 4.200000, 4.100000, 3.500000, 5.500000, -0.010123, 0.004189, -1.008255, 0.539503, -0.649961, -0.937417, 0.000001, -0.001075, 0.000640, -0.000000, 4689499908052154368.000000, 4706124876731681792.000000, 4640219533109644288.000000, 457.307709, 618.178894, 5197.625000
3410.035101, 4.900000, 6.000000, 0.000000, 0.000000, 5.500000, 2.100000, 4.100000, 4.900000, -0.010123, 0.004189, -1.008255, 0.539678, -0.650135, -0.937417, 0.000001, -0.001210, 0.000413, -0.000000, 4689499908052154368.000000, 4706124876731681792.000000, 4640219533109644288.000000, 457.307709, 618.178894, 5197.625000
3410.134166, 4.200000, 4.600000, 0.000000, 0.000000, 2.600000, 2.300000, 4.000000, 4.700000, -0.010123, 0.004363, -1.008255, 0.539678, -0.650135, -0.937417, 0.000001, -0.000893, -0.000135, -0.000000, 4689499908052154368.000000, 4706124876731681792.000000, 4640219533109644288.000000, 457.307709, 618.178894, 5197.625000
3410.234247, 3.200000, 3.600000, 0.000000, 0.000000, 3.300000, 4.100000, 3.800000, 6.200000, -0.010123, 0.004363, -1.008255, 0.539678, -0.650135, -0.937417, 0.000000, -0.000442, -0.000712, -0.000000, 4689499908052154368.000000, 4706124876731681792.000000, 4640219533109644288.000000, 457.307709, 618.178894, 5197.625000
3410.334186, 4.200000, 3.600000, 0.000000, 0.000000, 5.400000, 3.700000, 3.700000, 5.000000, -0.010123, 0.004363, -1.008255, 0.539678, -0.650135, -0.937417, 0.000000, -0.000093, -0.001105, 0.000000, 4689499908052154368.000000, 4706124876731681792.000000, 4640219533109644288.000000, 457.307709, 618.178894, 5197.625000
3410.433242, 4.700000, 3.900000, 0.000000, 0.000000, 4.900000, 3.000000, 3.500000, 7.500000, -0.010123, 0.004363, -1.008255, 0.539678, -0.649961, -0.937417, 0.000000, 0.000167, -0.001166, 0.000000, 4689499908052154368.000000, 4706124876731681792.000000, 4640219533109644288.000000, 457.307709, 618.178894, 5197.625000
3410.532297, 5.700000, 3.300000, 0.000000, 0.000000, 3.200000, 4.300000, 3.400000, 5.100000, -0.010123, 0.004363, -1.008255, 0.539678, -0.650135, -0.937417, 0.000000, 0.000350, -0.000979, 0.000000, 4689499908052154368.000000, 4706124876731681792.000000, 4640219533109644288.000000, 457.307709, 618.178894, 5197.625000
3410.632225, 5.400000, 3.400000, 0.000000, 0.000000, 4.900000, 3.700000, 3.500000, 3.700000, -0.009949, 0.004189, -1.008255, 0.539678, -0.649961, -0.937417, 0.000000, 0.000470, -0.000803, 0.000000, 4689499908052154368.000000, 4706124876731681792.000000, 4640219533109644288.000000, 457.307709, 618.178894, 5197.625000
3410.731251, 4.300000, 5.000000, 0.000000, 0.000000, 4.800000, 5.000000, 4.700000, 4.700000, -0.009949, 0.004189, -1.008430, 0.539678, -0.649961, -0.937417, -0.000182, 0.000538, -0.000457, 0.000000, 4689499908052154368.000000, 4706124876731681792.000000, 4640219533109644288.000000, 457.307709, 618.178894, 5197.625000
3410.830313, 4.500000, 2.700000, 0.000000, 0.000000, 3.000000, 4.400000, 3.100000, 5.400000, -0.010123, 0.004363, -1.008255, 0.539678, -0.649961, -0.937417, -0.000491, 0.000565, -0.000004, 0.000000, 4689499908052154368.000000, 4706124876731681792.000000, 4640219533109644288.000000, 457.307709, 618.178894, 5197.625000
3410.930314, 4.400000, 4.500000, 0.000000, 0.000000, 4.300000, 2.700000, 5.300000, 7.100000, -0.010123, 0.004189, -1.008255, 0.539678, -0.649961, -0.937417, -0.000513, 0.000562, 0.000328, 0.000000, 4689499908052154368.000000, 4706124876731681792.000000, 4640219533109644288.000000, 457.307709, 618.178894, 5197.625000
3411.029321, 2.900000, 6.400000, 0.000000, 0.000000, 4.400000, 3.000000, 4.000000, 7.900000, -0.010123, 0.004363, -1.008430, 0.539678, -0.649961, -0.937417, -0.000508, 0.000536, 0.000558, 0.000000, 4689499908052154368.000000, 4706124876731681792.000000, 4640219533109644288.000000, 457.307709, 618.178894, 5197.625000
3411.128368, 3.100000, 4.800000, 0.000000, 0.000000, 4.400000, 1.700000, 4.300000, 4.200000, -0.010123, 0.004363, -1.008430, 0.539678, -0.649961, -0.937417, -0.000848, 0.000494, 0.000703, 0.000000, 4689499908052154368.000000, 4706124876731681792.000000, 4640219533109644288.000000, 457.307709, 618.178894, 5197.625000
3411.228383, 4.500000, 6.300000, 0.000000, 0.000000, 5.500000, 4.500000, 2.400000, 4.900000, -0.009949, 0.004363, -1.008430, 0.539678, -0.649961, -0.937417, -0.001244, 0.000443, 0.000780, 0.000000, 4689499908052154368.000000, 4706124876731681792.000000, 4640219533109644288.000000, 457.307709, 618.178894, 5197.625000
3411.328390, 5.600000, 3.300000, 0.000000, 0.000000, 3.600000, 4.000000, 6.300000, 6.300000, -0.009949, 0.004363, -1.008430, 0.539503, -0.649961, -0.937417, -0.001482, 0.000206, 0.000804, 0.000000, 4689499908052154368.000000, 4706124876731681792.000000, 4640219533109644288.000000, 457.307709, 618.178894, 5197.625000
3411.428355, 4.600000, 5.500000, 0.000000, 0.000000, 5.300000, 5.600000, 3.600000, 7.300000, -0.009949, 0.004363, -1.008430, 0.539678, -0.650135, -0.937417, -0.001594, -0.000160, 0.000607, 0.000000, 4689499908052154368.000000, 4706124876731681792.000000, 4640219533109644288.000000, 457.307709, 618.178894, 5197.625000
3411.527428, 5.200000, 7.300000, 0.000000, 0.000000, 4.400000, 3.100000, 2.900000, 6.700000, -0.009949, 0.004363, -1.008430, 0.539678, -0.650135, -0.937417, -0.001610, -0.000238, 0.000073, 0.000000, 4689499908052154368.000000, 4706124876731681792.000000, 4640219533109644288.000000, 457.307709, 618.178894, 5197.625000
3411.627432, 5.600000, 4.100000, 0.000000, 0.000000, 3.200000, 3.600000, 5.100000, 5.000000, -0.010123, 0.004363, -1.008430, 0.539678, -0.650135, -0.937417, -0.001555, -0.000104, -0.000502, 0.000000, 4689499908052154368.000000, 4706124876731681792.000000, 4640219533109644288.000000, 457.307709, 618.178894, 5197.625000
3411.726443, 3.900000, 5.900000, 0.000000, 0.000000, 4.300000, 2.800000, 4.500000, 6.100000, -0.010123, 0.004189, -1.008430, 0.539678, -0.649961, -0.937417, -0.001449, -0.000001, -0.000722, 0.000000, 4689499908052154368.000000, 4706124876731681792.000000, 4640219533109644288.000000, 457.307709, 618.178894, 5197.625000
3411.825500, 6.200000, 4.100000, 0.000000, 0.000000, 3.800000, 3.000000, 4.100000, 5.300000, -0.010123, 0.004189, -1.008430, 0.539678, -0.649961, -0.937417, -0.001312, 0.000074, -0.000488, 0.000000, 4689499908052154368.000000, 4706124876731681792.000000, 4640219533109644288.000000, 457.307709, 618.178894, 5197.625000
3411.925434, 4.100000, 6.400000, 0.000000, 0.000000, 4.800000, 3.300000, 2.900000, 6.200000, -0.010123, 0.004189, -1.008430, 0.539503, -0.649961, -0.937417, -0.001156, -0.000055, -0.000116, 0.000000, 4689499908052154368.000000, 4706124876731681792.000000, 4640219533109644288.000000, 457.307709, 618.178894, 5197.625000
3412.024511, 6.400000, 5.600000, 0.000000, 0.000000, 3.500000, 5.400000, 4.600000, 4.900000, -0.010123, 0.004189, -1.008255, 0.539503, -0.649961, -0.937417, -0.000812, -0.000513, 0.000162, 0.000000, 4689499908052154368.000000, 4706124876731681792.000000, 4640219533109644288.000000, 457.307709, 618.178894, 5197.625000
3412.124477, 6.100000, 4.600000, 0.000000, 0.000000, 3.700000, 1.800000, 6.100000, 6.500000, -0.010123, 0.004189, -1.008255, 0.539678, -0.649961, -0.937417, -0.000161, -0.000827, 0.000359, 0.000000, 4689499908052154368.000000, 4706124876731681792.000000, 4640219533109644288.000000, 457.307709, 618.178894, 5197.625000
3412.223549, 6.600000, 3.200000, 0.000000, 0.000000, 3.800000, 3.600000, 4.000000, 6.700000, -0.010123, 0.004189, -1.008255, 0.539503, -0.649786, -0.937417, 0.000504, -0.000839, 0.000669, 0.000000, 4689499908052154368.000000, 4706124876731681792.000000, 4640219533109644288.000000, 457.307709, 618.178894, 5197.625000
3412.323552, 6.000000, 4.000000, 0.000000, 0.000000, 3.500000, 6.500000, 4.700000, 4.400000, -0.010123, 0.004189, -1.008255, 0.539678, -0.649961, -0.937417, 0.000970, -0.000815, 0.001053, -0.000000, 4689499908052154368.000000, 4706124876731681792.000000, 4640219533109644288.000000, 457.307709, 618.178894, 5197.625000
3412.422564, 4.900000, 5.300000, 0.000000, 0.000000, 5.100000, 3.200000, 3.700000, 3.200000, -0.010123, 0.004363, -1.008255, 0.539678, -0.649961, -0.937417, 0.001271, -0.000580, 0.001106, -0.000000, 4689499908052154368.000000, 4706124876731681792.000000, 4640219533109644288.000000, 457.307709, 618.178894, 5197.625000
3412.522556, 5.600000, 4.700000, 0.000000, 0.000000, 4.100000, 2.700000, 5.200000, 7.200000, -0.010123, 0.004363, -1.008255, 0.539678, -0.649961, -0.937417, 0.001439, -0.000201, 0.000918, -0.000000, 4689499908052154368.000000, 4706124876731681792.000000, 4640219533109644288.000000, 457.307709, 618.178894, 5197.625000
3412.621623, 5.900000, 4.000000, 0.000000, 0.000000, 4.700000, 4.100000, 3.800000, 5.800000, -0.010298, 0.004363, -1.008255, 0.539678, -0.649961, -0.937417, 0.001502, 0.000084, 0.000741, -0.000000, 4689499908052154368.000000, 4706124876731681792.000000, 4640219533109644288.000000, 457.307709, 618.178894, 5197.625000
3412.721550, 3.000000, 6.000000, 0.000000, 0.000000, 6.400000, 3.800000, 3.100000, 6.600000, -0.010472, 0.004363, -1.008255, 0.539678, -0.649961, -0.937417, 0.001485, 0.000290, 0.000581, -0.000000, 4689499908052154368.000000, 4706124876731681792.000000, 4640219533109644288.000000, 457.307709, 618.178894, 5197.625000
3412.820598, 5.500000, 5.100000, 0.000000, 0.000000, 6.400000, 3.900000, 2.900000, 5.500000, -0.010298, 0.004363, -1.008255, 0.539678, -0.649786, -0.937417, 0.001411, 0.000429, 0.000621, -0.000000, 4689499908052154368.000000, 4706124876731681792.000000, 4640219533109644288.000000, 457.307709, 618.178894, 5197.625000
3412.920613, 6.300000, 5.200000, 0.000000, 0.000000, 5.100000, 3.200000, 5.100000, 5.300000, -0.010298, 0.004363, -1.008255, 0.539678, -0.649961, -0.937417, 0.001298, 0.000512, 0.000808, -0.000000, 4689499908052154368.000000, 4706124876731681792.000000, 4640219533109644288.000000, 457.307709, 618.178894, 5197.625000
3413.019670, 5.100000, 4.600000, 0.000000, 0.000000, 5.400000, 6.000000, 4.300000, 4.200000, -0.010298, 0.004363, -1.008255, 0.539678, -0.649786, -0.937417, 0.001161, 0.000552, 0.000909, -0.000000, 4689499908052154368.000000, 4706124876731681792.000000, 4640219533109644288.000000, 457.307709, 618.178894, 5197.625000
3413.118679, 5.000000, 3.000000, 0.000000, 0.000000, 5.300000, 2.100000, 3.800000, 5.400000, -0.010298, 0.004363, -1.008255, 0.539678, -0.649961, -0.937417, 0.001012, 0.000558, 0.000948, -0.000000, 4689499908052154368.000000, 4706124876731681792.000000, 4640219533109644288.000000, 457.307709, 618.178894, 5197.625000
3413.218662, 6.900000, 4.300000, 0.000000, 0.000000, 5.600000, 4.800000, 4.000000, 4.700000, -0.010298, 0.004363, -1.008255, 0.539678, -0.649961, -0.937417, 0.000861, 0.000540, 0.000753, -0.000000, 4689499908052154368.000000, 4706124876731681792.000000, 4640219533109644288.000000, 457.307709, 618.178894, 5197.625000
3413.317715, 4.400000, 6.200000, 0.000000, 0.000000, 4.200000, 5.300000, 4.100000, 6.400000, -0.010298, 0.004189, -1.008255, 0.539678, -0.649961, -0.937417, 0.000714, 0.000504, 0.000397, -0.000000, 4689499908052154368.000000, 4706124876731681792.000000, 4640219533109644288.000000, 457.307709, 618.178894, 5197.625000
3413.417703, 4.100000, 7.100000, 0.000000, 0.000000, 5.500000, 4.200000, 3.200000, 4.900000, -0.010298, 0.004189, -1.008255, 0.539678, -0.649961, -0.937417, 0.000577, 0.000456, 0.000119, -0.000000, 4689499908052154368.000000, 4706124876731681792.000000, 4640219533109644288.000000, 457.307709, 618.178894, 5197.625000
3413.517751, 5.000000, 5.800000, 0.000000, 0.000000, 4.300000, 4.400000, 2.600000, 4.000000, -0.010298, 0.004189, -1.008255, 0.539678, -0.649961, -0.937417, 0.000452, 0.000402, -0.000089, -0.000000, 4689499908052154368.000000, 4706124876731681792.000000, 4640219533109644288.000000, 457.307709, 618.178894, 5197.625000
3413.617739, 5.900000, 4.000000, 0.000000, 0.000000, 6.400000, 3.000000, 3.100000, 4.600000, -0.010298, 0.004189, -1.008255, 0.539678, -0.649961, -0.937417, 0.000342, 0.000346, -0.000238, -0.000000, 4689499908052154368.000000, 4706124876731681792.000000, 4640219533109644288.000000, 457.307709, 618.178894, 5197.625000
3413.717724, 3.900000, 3.700000, 0.000000, 0.000000, 8.100000, 3.300000, 5.800000, 3.900000, -0.010298, 0.004363, -1.008255, 0.539678, -0.650135, -0.937417, 0.000247, 0.000290, -0.000518, -0.000000, 4689499908052154368.000000, 4706124876731681792.000000, 4640219533109644288.000000, 457.307709, 618.178894, 5197.625000
3413.817688, 7.300000, 3.100000, 0.000000, 0.000000, 3.400000, 5.400000, 4.200000, 5.100000, -0.010298, 0.004363, -1.008255, 0.539852, -0.650135, -0.937417, 0.000167, 0.000419, -0.001066, -0.000000, 4689499908052154368.000000, 4706124876731681792.000000, 4640219533109644288.000000, 457.307709, 618.178894, 5197.625000
3413.916740, 3.700000, 5.700000, 0.000000, 0.000000, 4.900000, 3.400000, 2.400000, 5.900000, -0.010123, 0.004363, -1.008255, 0.539852, -0.650135, -0.937417, 0.000102, 0.000859, -0.001604, -0.000000, 4689499908052154368.000000, 4706124876731681792.000000, 4640219533109644288.000000, 457.307709, 618.178894, 5197.625000
3414.016730, 3.200000, 4.400000, 0.000000, 0.000000, 3.200000, 3.700000, 4.100000, 4.800000, -0.010298, 0.004363, -1.008255, 0.539678, -0.650135, -0.937417, 0.000049, 0.001146, -0.001931, -0.000000, 4689499908052154368.000000, 4706124876731681792.000000, 4640219533109644288.000000, 457.307709, 618.178894, 5197.625000
3414.214797, 4.000000, 3.100000, 0.000000, 0.000000, 3.600000, 3.500000, 3.500000, 5.600000, -0.010298, 0.004189, -1.008255, 0.539678, -0.650135, -0.937417, 0.000009, 0.000945, -0.002090, -0.000000, 4689499908052154368.000000, 4706124876731681792.000000, 4640219533109644288.000000, 457.307709, 618.178894, 5197.625000
3414.413866, 5.900000, 3.500000, 0.000000, 0.000000, 5.000000, 4.500000, 2.600000, 6.200000, -0.010123, 0.004014, -1.008255, 0.539678, -0.650135, -0.937417, -0.000021, 0.000576, -0.002120, -0.000000, 4689499908052154368.000000, 4706124876731681792.000000, 4640219533109644288.000000, 457.307709, 618.178894, 5197.625000
3414.513848, 3.700000, 4.300000, 0.000000, 0.000000, 3.500000, 3.600000, 5.200000, 5.800000, -0.010123, 0.004014, -1.008255, 0.539678, -0.650135, -0.937417, -0.000042, 0.000283, -0.002053, 0.000000, 4689499908052154368.000000, 4706124876731681792.000000, 4640219533109644288.000000, 457.307709, 618.178894, 5197.625000
3414.613855, 4.600000, 4.500000, 0.000000, 0.000000, 4.000000, 4.000000, 2.500000, 7.000000, -0.010298, 0.004014, -1.008255, 0.539678, -0.650135, -0.937417, -0.000056, 0.000055, -0.001919, 0.000000, 4689499908052154368.000000, 4706124876731681792.000000, 4640219533109644288.000000, 457.307709, 618.178894, 5197.625000
3414.713859, 5.000000, 3.000000, 0.000000, 0.000000, 3.700000, 3.200000, 5.800000, 5.400000, -0.010298, 0.004014, -1.008255, 0.539678, -0.650135, -0.937417, -0.000063, -0.000113, -0.001740, 0.000000, 4689499908052154368.000000, 4706124876731681792.000000, 4640219533109644288.000000, 457.307709, 618.178894, 5197.625000
3414.813840, 2.600000, 5.400000, 0.000000, 0.000000, 3.100000, 4.600000, 4.600000, 3.900000, -0.010298, 0.004014, -1.008255, 0.539678, -0.650135, -0.937417, -0.000066, -0.000232, -0.001537, 0.000000, 4689499908052154368.000000, 4706124876731681792.000000, 4640219533109644288.000000, 457.307709, 618.178894, 5197.625000
3414.913928, 4.900000, 4.500000, 0.000000, 0.000000, 5.000000, 5.700000, 4.500000, 5.800000, -0.010123, 0.004189, -1.008255, 0.539678, -0.649961, -0.937417, -0.000066, -0.000309, -0.001142, 0.000000, 4689499908052154368.000000, 4706124876731681792.000000, 4640219533109644288.000000, 457.307709, 618.178894, 5197.625000
3415.013936, 4.200000, 4.400000, 0.000000, 0.000000, 3.300000, 3.900000, 3.900000, 5.900000, -0.010298, 0.004189, -1.008255, 0.539503, -0.649961, -0.937417, -0.000063, -0.000535, -0.000442, 0.000000, 4689499908052154368.000000, 4706124876731681792.000000, 4640219533109644288.000000, 457.307709, 618.178894, 5197.625000
3415.114005, 4.700000, 6.800000, 0.000000, 0.000000, 3.900000, 4.100000, 5.100000, 5.500000, -0.010123, 0.004189, -1.008255, 0.539503, -0.649961, -0.937417, -0.000058, -0.001043, 0.000271, 0.000000, 4689499908052154368.000000, 4706124876731681792.000000, 4640219533109644288.000000, 457.307709, 618.178894, 5197.625000
3415.214018, 5.200000, 4.400000, 0.000000, 0.000000, 3.600000, 2.900000, 4.500000, 5.900000, -0.010123, 0.004189, -1.008255, 0.539503, -0.649961, -0.937417, -0.000052, -0.001553, 0.000782, 0.000000, 4689499908052154368.000000, 4706124876731681792.000000, 4640219533109644288.000000, 457.307709, 618.178894, 5197.625000
3415.313945, 5.900000, 3.900000, 0.000000, 0.000000, 3.400000, 4.500000, 5.700000, 5.800000, -0.010123, 0.004189, -1.008255, 0.539503, -0.649961, -0.937417, -0.000045, -0.001863, 0.001124, 0.000000, 4689499908052154368.000000, 4706124876731681792.000000, 4640219533109644288.000000, 457.307709, 618.178894, 5197.625000
3415.412996, 6.100000, 5.400000, 0.000000, 0.000000, 4.600000, 3.800000, 4.700000, 6.700000, -0.010123, 0.004189, -1.008255, 0.539503, -0.649786, -0.937417, -0.000038, -0.002012, 0.001509, 0.000000, 4689499908052154368.000000, 4706124876731681792.000000, 4640219533109644288.000000, 457.307709, 618.178894, 5197.625000
3415.511998, 5.400000, 3.600000, 0.000000, 0.000000, 3.500000, 3.500000, 5.100000, 5.100000, -0.010123, 0.004363, -1.008255, 0.539503, -0.649786, -0.937417, -0.000032, -0.002037, 0.002093, 0.000000, 4689499908052154368.000000, 4706124876731681792.000000, 4640219533109644288.000000, 457.307709, 618.178894, 5197.625000
3415.611944, 5.100000, 4.100000, 0.000000, 0.000000, 4.400000, 3.500000, 4.900000, 3.900000, -0.010123, 0.004363, -1.008255, 0.539503, -0.649786, -0.937417, -0.000026, -0.001970, 0.002616, 0.000000, 4689499908052154368.000000, 4706124876731681792.000000, 4640219533109644288.000000, 457.307709, 618.178894, 5197.625000
3415.710978, 5.900000, 4.800000, 0.000000, 0.000000, 4.100000, 3.600000, 4.700000, 5.700000, -0.010123, 0.004363, -1.008255, 0.539503, -0.649786, -0.937417, -0.000020, -0.001839, 0.002890, 0.000000, 4689499908052154368.000000, 4706124876731681792.000000, 4640219533109644288.000000, 457.307709, 618.178894, 5197.625000
3415.810988, 6.300000, 6.500000, 0.000000, 0.000000, 6.000000, 4.400000, 3.600000, 4.200000, -0.010298, 0.004189, -1.008255, 0.539503, -0.649961, -0.937417, -0.000015, -0.001667, 0.002788, 0.000000, 4689499908052154368.000000, 4706124876731681792.000000, 4640219533109644288.000000, 457.307709, 618.178894, 5197.625000
3415.909991, 5.100000, 5.900000, 0.000000, 0.000000, 5.900000, 4.400000, 4.600000, 6.400000, -0.010298, 0.004363, -1.008255, 0.539503, -0.649786, -0.937417, -0.000011, -0.001471, 0.002414, 0.000000, 4689499908052154368.000000, 4706124876731681792.000000, 4640219533109644288.000000, 457.307709, 618.178894, 5197.625000
3416.009006, 7.200000, 5.400000, 0.000000, 0.000000, 6.300000, 3.900000, 5.000000, 4.500000, -0.010123, 0.004189, -1.008255, 0.539503, -0.649786, -0.937417, -0.000008, -0.001266, 0.002223, 0.000000, 4689499908052154368.000000, 4706124876731681792.000000, 4640219533109644288.000000, 457.307709, 618.178894, 5197.625000
3416.108030, 4.600000, 6.200000, 0.000000, 0.000000, 4.000000, 3.800000, 4.400000, 6.600000, -0.010298, 0.004189, -1.008255, 0.539503, -0.649961, -0.937417, -0.000005, -0.001063, 0.001990, 0.000000, 4689499908052154368.000000, 4706124876731681792.000000, 4640219533109644288.000000, 457.307709, 618.178894, 5197.625000
3416.207091, 4.600000, 5.100000, 0.000000, 0.000000, 6.000000, 3.300000, 5.000000, 6.000000, -0.010123, 0.004363, -1.008255, 0.539503, -0.649961, -0.937417, -0.000002, -0.000870, 0.001371, 0.000000, 4689499908052154368.000000, 4706124876731681792.000000, 4640219533109644288.000000, 457.307709, 618.178894, 5197.625000
3416.307094, 6.300000, 4.600000, 0.000000, 0.000000, 3.700000, 3.200000, 3.700000, 4.700000, -0.010123, 0.004363, -1.008255, 0.539678, -0.649961, -0.937417, -0.000000, -0.000511, 0.000679, 0.000000, 4689499908052154368.000000, 4706124876731681792.000000, 4640219533109644288.000000, 457.307709, 618.178894, 5197.625000
3416.407113, 4.400000, 5.500000, 0.000000, 0.000000, 4.900000, 4.800000, 4.400000, 4.700000, -0.010123, 0.004363, -1.008255, 0.539678, -0.649961, -0.937417, 0.000001, 0.000139, 0.000144, 0.000000, 4689499908052154368.000000, 4706124876731681792.000000, 4640219533109644288.000000, 457.307709, 618.178894, 5197.625000
3416.507105, 3.600000, 5.000000, 0.000000, 0.000000, 4.200000, 4.000000, 3.300000, 6.000000, -0.010123, 0.004363, -1.008255, 0.539678, -0.649961, -0.937417, 0.000002, 0.000791, -0.000255, -0.000000, 4689499908052154368.000000, 4706124876731681792.000000, 4640219533109644288.000000, 457.307709, 618.178894, 5197.625000
3416.606171, 5.000000, 6.900000, 0.000000, 0.000000, 4.200000, 4.500000, 5.200000, 4.600000, -0.010123, 0.004189, -1.008255, 0.539678, -0.649961, -0.937417, 0.000002, 0.001236, -0.000536, -0.000000, 4689499908052154368.000000, 4706124876731681792.000000, 4640219533109644288.000000, 457.307709, 618.178894, 5197.625000
3416.706179, 4.500000, 5.000000, 0.000000, 0.000000, 4.500000, 3.200000, 5.300000, 4.700000, -0.010298, 0.004363, -1.008255, 0.539678, -0.649961, -0.937417, 0.000003, 0.001510, -0.000720, -0.000000, 4689499908052154368.000000, 4706124876731681792.000000, 4640219533109644288.000000, 457.307709, 618.178894, 5197.625000
3416.806161, 5.200000, 3.900000, 0.000000, 0.000000, 5.900000, 6.500000, 4.700000, 4.900000, -0.010298, 0.004363, -1.008255, 0.539503, -0.649961, -0.937417, 0.000003, 0.001466, -0.000824, -0.000000, 4689499908052154368.000000, 4706124876731681792.000000, 4640219533109644288.000000, 457.307709, 618.178894, 5197.625000
3416.906172, 7.600000, 4.000000, 0.000000, 0.000000, 4.300000, 3.900000, 2.600000, 4.500000, -0.010298, 0.004363, -1.008255, 0.539678, -0.649961, -0.937417, 0.000003, 0.001190, -0.000867, -0.000000, 4689499908052154368.000000, 4706124876731681792.000000, 4640219533109644288.000000, 457.307709, 618.178894, 5197.625000
3417.006187, 4.500000, 3.400000, 0.000000, 0.000000, 4.900000, 3.500000, 5.000000, 6.200000, -0.010298, 0.004363, -1.008255, 0.539678, -0.649961, -0.937417, 0.000003, 0.001121, -0.000861, -0.000000, 4689499908052154368.000000, 4706124876731681792.000000, 4640219533109644288.000000, 457.307709, 618.178894, 5197.625000
3417.105233, 3.500000, 5.600000, 0.000000, 0.000000, 6.400000, 4.500000, 4.300000, 5.000000, -0.010298, 0.004363, -1.008255, 0.539852, -0.650135, -0.937417, 0.000003, 0.001387, -0.001003, -0.000000, 4689499908052154368.000000, 4706124876731681792.000000, 4640219533109644288.000000, 457.307709, 618.178894, 5197.625000
3417.205247, 6.100000, 3.200000, 0.000000, 0.000000, 5.700000, 3.800000, 3.000000, 5.000000, -0.010298, 0.004363, -1.008255, 0.539852, -0.650135, -0.937417, 0.000002, 0.001887, -0.001429, -0.000000, 4689499908052154368.000000, 4706124876731681792.000000, 4640219533109644288.000000, 457.307709, 618.178894, 5197.625000
3417.305252, 5.700000, 4.200000, 0.000000, 0.000000, 6.100000, 4.200000, 3.200000, 5.500000, -0.010298, 0.004363, -1.008255, 0.539852, -0.650135, -0.937417, 0.000002, 0.002357, -0.001862, -0.000000, 4689499908052154368.000000, 4706124876731681792.000000, 4640219533109644288.000000, 457.307709, 618.178894, 5197.625000
3417.404278, 3.900000, 4.500000, 0.000000, 0.000000, 4.200000, 4.100000, 2.100000, 4.400000, -0.010298, 0.004363, -1.008255, 0.539678, -0.649961, -0.937417, 0.000002, 0.002421, -0.001921, -0.000000, 4689499908052154368.000000, 4706124876731681792.000000, 4640219533109644288.000000, 457.307709, 618.178894, 5197.625000
3417.503338, 4.200000, 4.800000, 0.000000, 0.000000, 5.200000, 4.200000, 3.900000, 3.500000, -0.010298, 0.004363, -1.008255, 0.539852, -0.650135, -0.937417, 0.000001, 0.002185, -0.001701, -0.000000, 4689499908052154368.000000, 4706124876731681792.000000, 4640219533109644288.000000, 457.307709, 618.178894, 5197.625000
3417.603255, 4.400000, 4.900000, 0.000000, 0.000000, 5.300000, 3.500000, 6.600000, 5.800000, -0.010298, 0.004363, -1.008255, 0.539852, -0.650135, -0.937417, 0.000001, 0.002103, -0.001652, -0.000000, 4689499908052154368.000000, 4706124876731681792.000000, 4640219533109644288.000000, 457.307709, 618.178894, 5197.625000
3417.703275, 4.000000, 3.800000, 0.000000, 0.000000, 4.000000, 5.100000, 3.700000, 5.800000, -0.010123, 0.004363, -1.008430, 0.539852, -0.649961, -0.937417, -0.000181, 0.002137, -0.001547, -0.000000, 4689499908052154368.000000, 4706124876731681792.000000, 4640219533109644288.000000, 457.307709, 618.178894, 5197.625000
3417.802334, 4.100000, 3.400000, 0.000000, 0.000000, 4.500000, 3.000000, 3.500000, 5.500000, -0.010298, 0.004363, -1.008255, 0.539678, -0.649961, -0.937417, -0.000490, 0.001891, -0.001042, -0.000000, 4689499908052154368.000000, 4706124876731681792.000000, 4640219533109644288.000000, 457.307709, 618.178894, 5197.625000
3417.902347, 3.300000, 3.900000, 0.000000, 0.000000, 4.500000, 3.100000, 3.500000, 3.800000, -0.010123, 0.004189, -1.008255, 0.539678, -0.650135, -0.937417, -0.000512, 0.001268, -0.000628, -0.000000, 4689499908052154368.000000, 4706124876731681792.000000, 4640219533109644288.000000, 457.307709, 618.178894, 5197.625000
3418.002336, 4.100000, 5.900000, 0.000000, 0.000000, 5.200000, 2.200000, 2.600000, 4.800000, -0.010123, 0.004189, -1.008430, 0.539678, -0.650135, -0.937417, -0.000508, 0.000578, -0.000663, -0.000000, 4689499908052154368.000000, 4706124876731681792.000000, 4640219533109644288.000000, 457.307709, 618.178894, 5197.625000
3418.101398, 4.900000, 4.200000, 0.000000, 0.000000, 3.800000, 2.400000, 4.100000, 5.500000, -0.010123, 0.004189, -1.008255, 0.539678, -0.649961, -0.937417, -0.000666, 0.000048, -0.000660, -0.000000, 4689499908052154368.000000, 4706124876731681792.000000, 4640219533109644288.000000, 457.307709, 618.178894, 5197.625000
3418.200409, 5.800000, 4.000000, 0.000000, 0.000000, 4.600000, 3.500000, 3.400000, 5.800000, -0.010123, 0.004189, -1.008255, 0.539678, -0.649961, -0.937417, -0.000572, -0.000342, -0.000267, -0.000000, 4689499908052154368.000000, 4706124876731681792.000000, 4640219533109644288.000000, 457.307709, 618.178894, 5197.625000
3418.299417, 4.100000, 4.800000, 0.000000, 0.000000, 3.600000, 2.700000, 3.900000, 4.900000, -0.010123, 0.004189, -1.008255, 0.539678, -0.650135, -0.937417, -0.000297, -0.000614, 0.000032, -0.000000, 4689499908052154368.000000, 4706124876731681792.000000, 4640219533109644288.000000, 457.307709, 618.178894, 5197.625000
3418.399373, 4.100000, 4.900000, 0.000000, 0.000000, 3.400000, 3.400000, 3.500000, 6.100000, -0.010298, 0.004189, -1.008255, 0.539678, -0.649961, -0.937417, -0.000083, -0.000787, 0.000067, -0.000000, 4689499908052154368.000000, 4706124876731681792.000000, 4640219533109644288.000000, 457.307709, 618.178894, 5197.625000
3418.498449, 5.500000, 3.600000, 0.000000, 0.000000, 4.300000, 2.600000, 5.200000, 4.800000, -0.010298, 0.004189, -1.008255, 0.539678, -0.649961, -0.937417, 0.000077, -0.000882, 0.000273, 0.000000, 4689499908052154368.000000, 4706124876731681792.000000, 4640219533109644288.000000, 457.307709, 618.178894, 5197.625000
3418.598401, 4.600000, 4.600000, 0.000000, 0.000000, 4.000000, 2.800000, 4.300000, 5.000000, -0.010123, 0.004189, -1.008255, 0.539678, -0.649961, -0.937417, 0.000191, -0.000914, 0.000593, 0.000000, 4689499908052154368.000000, 4706124876731681792.000000, 4640219533109644288.000000, 457.307709, 618.178894, 5197.625000
3418.697415, 4.200000, 6.400000, 0.000000, 0.000000, 3.300000, 3.400000, 2.600000, 5.800000, -0.010298, 0.004189, -1.008255, 0.539678, -0.649961, -0.937417, 0.000267, -0.000899, 0.000803, 0.000000, 4689499908052154368.000000, 4706124876731681792.000000, 4640219533109644288.000000, 457.307709, 618.178894, 5197.625000
3418.796460, 5.900000, 4.800000, 0.000000, 0.000000, 3.400000, 3.300000, 4.300000, 6.200000, -0.010298, 0.004189, -1.008255, 0.539678, -0.649961, -0.937417, 0.000311, -0.000851, 0.000924, 0.000000, 4689499908052154368.000000, 4706124876731681792.000000, 4640219533109644288.000000, 457.307709, 618.178894, 5197.625000
3418.896479, 2.700000, 5.100000, 0.000000, 0.000000, 4.800000, 3.100000, 4.500000, 5.000000, -0.010298, 0.004363, -1.008255, 0.539503, -0.649961, -0.937417, 0.000331, -0.000962, 0.000974, 0.000000, 4689499908052154368.000000, 4706124876731681792.000000, 4640219533109644288.000000, 457.307709, 618.178894, 5197.625000
3418.995488, 6.100000, 5.200000, 0.000000, 0.000000, 3.100000, 2.400000, 5.600000, 6.600000, -0.010298, 0.004189, -1.008255, 0.539678, -0.649961, -0.937417, 0.000331, -0.001187, 0.000969, 0.000000, 4689499908052154368.000000, 4706124876731681792.000000, 4640219533109644288.000000, 457.307709, 618.178894, 5197.625000
3419.095469, 6.600000, 4.100000, 0.000000, 0.000000, 4.900000, 2.400000, 5.300000, 6.300000, -0.010298, 0.004189, -1.008255, 0.539678, -0.649961, -0.937417, 0.000318, -0.001119, 0.000926, 0.000000, 4689499908052154368.000000, 4706124876731681792.000000, 4640219533109644288.000000, 457.307709, 618.178894, 5197.625000
3419.194547, 5.800000, 5.100000, 0.000000, 0.000000, 5.800000, 2.500000, 4.100000, 6.000000, -0.010123, 0.004363, -1.008255, 0.539678, -0.649961, -0.937417, 0.000295, -0.000840, 0.000855, 0.000000, 4689499908052154368.000000, 4706124876731681792.000000, 4640219533109644288.000000, 457.307709, 618.178894, 5197.625000
3419.294497, 5.400000, 6.700000, 0.000000, 0.000000, 5.200000, 4.600000, 6.000000, 5.900000, -0.010123, 0.004189, -1.008255, 0.539678, -0.649961, -0.937417, 0.000265, -0.000601, 0.000768, 0.000000, 4689499908052154368.000000, 4706124876731681792.000000, 4640219533109644288.000000, 457.307709, 618.178894, 5197.625000
3419.393506, 3.800000, 3.800000, 0.000000, 0.000000, 3.800000, 4.400000, 5.000000, 6.000000, -0.010123, 0.004189, -1.008255, 0.539852, -0.650135, -0.937417, 0.000233, -0.000220, 0.000491, 0.000000, 4689499908052154368.000000, 4706124876731681792.000000, 4640219533109644288.000000, 457.307709, 618.178894, 5197.625000
