JunhaAgu/can_excavator_plot/from_excavator.txt
time [ms], ACyl_LC [bar], ACyl_SC [bar], Swing_L [bar], Swing_R [bar], BCyl_LC [bar], BCyl_SC [bar], KCyl_LC [bar], KCyl_SC [bar], Body_Pitch_Angle [rad], Body_Roll_Angle [rad], Boom_Joint_Angle [rad], Arm_Joint_Angle [rad], Bkt_Joint_Angle [rad], Swing_Angle [rad], Boom_Joint_Rate [rad/s], Arm_Joint_Rate [rad/s], Bkt_Joint_Rate [rad/s], Swing_Rate [rad/s], GPS_Easting [m], GPS_Northing [m], GPS_Elevation [m], GPS_Latitude [deg], GPS_Longitude [deg], GPS_Sea_Level [m]
2248.320856, 24.100000, 111.500000, 0.000000, 0.000000, 145.500000, 12.400000, 40.500000, 84.000000, 0.014835, 0.003141, -0.713818, 1.745526, 1.056005, -0.441330, -0.742371, 1.815347, 1.098245, -0.458983, 12297829748976910336.000000, 13527612613923438592.000000, 14757395478869966848.000000, 238.633118, 238.633118, 3592.250000
2248.420664, 24.100000, 111.500000, 0.000000, 0.000000, 145.500000, 12.400000, 40.500000, 84.000000, 0.014835, 0.003141, -0.713818, 1.745526, 1.056005, -0.441330, -2.747229, 6.717900, 4.064182, -1.698520, 12297829748976910336.000000, 13527612613923438592.000000, 14757395478869966848.000000, 238.633118, 238.633118, 3592.250000
2248.521389, 24.100000, 111.500000, 0.000000, 0.000000, 145.500000, 12.400000, 40.500000, 84.000000, 0.014835, 0.003141, -0.713818, 1.745526, 1.056005, -0.441330, -4.844001, 11.845212, 7.166092, -2.994884, 12297829748976910336.000000, 13527612613923438592.000000, 14757395478869966848.000000, 238.633118, 238.633118, 3592.250000
2248.621898, 24.100000, 111.500000, 0.000000, 0.000000, 145.500000, 12.400000, 40.500000, 84.000000, 0.014835, 0.003141, -0.713818, 1.745526, 1.056005, -0.441330, -6.178310, 15.108047, 9.140037, -3.819843, 12297829748976910336.000000, 13527612613923438592.000000, 14757395478869966848.000000, 238.633118, 238.633118, 3592.250000
2248.722738, 24.100000, 111.500000, 0.000000, 0.000000, 145.500000, 12.400000, 40.500000, 84.000000, 0.014835, 0.003141, -0.713818, 1.745526, 1.056005, -0.441330, -6.898324, 16.868721, 10.205206, -4.265003, 12297829748976910336.000000, 13527612613923438592.000000, 14757395478869966848.000000, 238.633118, 238.633118, 3592.250000
2248.822590, 24.100000, 111.500000, 0.000000, 0.000000, 145.500000, 12.400000, 40.500000, 84.000000, 0.014835, 0.003141, -0.713818, 1.745526, 1.056005, -0.441330, -7.138217, 17.455341, 10.560099, -4.413321, 12297829748976910336.000000, 13527612613923438592.000000, 14757395478869966848.000000, 238.633118, 238.633118, 3592.250000
2248.923565, 24.100000, 111.500000, 0.000000, 0.000000, 145.500000, 12.400000, 40.500000, 84.000000, 0.014835, 0.003141, -0.713818, 1.745526, 1.056005, -0.441330, -7.016323, 17.157270, 10.379772, -4.337958, 12297829748976910336.000000, 13527612613923438592.000000, 14757395478869966848.000000, 238.633118, 238.633118, 3592.250000
2249.024463, 24.100000, 111.500000, 0.000000, 0.000000, 145.500000, 12.400000, 40.500000, 84.000000, 0.014835, 0.003141, -0.713818, 1.745526, 1.056005, -0.441330, -6.634431, 16.223415, 9.814811, -4.101847, 12297829748976910336.000000, 13527612613923438592.000000, 14757395478869966848.000000, 238.633118, 238.633118, 3592.250000
2249.125428, 24.100000, 111.500000, 0.000000, 0.000000, 145.500000, 12.400000, 40.500000, 84.000000, 0.014835, 0.003141, -0.713818, 1.745526, 1.056005, -0.441330, -6.077963, 14.862663, 8.991586, -3.757802, 12297829748976910336.000000, 13527612613923438592.000000, 14757395478869966848.000000, 238.633118, 238.633118, 3592.250000
2249.226179, 24.100000, 111.500000, 0.000000, 0.000000, 145.500000, 12.400000, 40.500000, 84.000000, 0.014835, 0.003141, -0.713818, 1.745526, 1.056005, -0.441330, -5.416788, 13.245867, 8.013459, -3.349019, 12297829748976910336.000000, 13527612613923438592.000000, 14757395478869966848.000000, 238.633118, 238.633118, 3592.250000
2249.327112, 24.100000, 111.500000, 0.000000, 0.000000, 145.500000, 12.400000, 40.500000, 84.000000, 0.014835, 0.003141, -0.713818, 1.745526, 1.056005, -0.441330, -4.706464, 11.508887, 6.962625, -2.909850, 12297829748976910336.000000, 13527612613923438592.000000, 14757395478869966848.000000, 238.633118, 238.633118, 3592.250000
2249.427817, 24.100000, 111.500000, 0.000000, 0.000000, 145.500000, 12.400000, 40.500000, 84.000000, 0.014835, 0.003141, -0.713818, 1.745526, 1.056005, -0.441330, -3.989751, 9.756282, 5.902337, -2.466730, 12297829748976910336.000000, 13527612613923438592.000000, 14757395478869966848.000000, 238.633118, 238.633118, 3592.250000
2249.527860, 24.100000, 111.500000, 0.000000, 0.000000, 145.500000, 12.400000, 40.500000, 84.000000, 0.014835, 0.003141, -0.713818, 1.745526, 1.056005, -0.441330, -3.298242, 8.065310, 4.879336, -2.039194, 12297829748976910336.000000, 13527612613923438592.000000, 14757395478869966848.000000, 238.633118, 238.633118, 3592.250000
2249.628961, 24.100000, 111.500000, 0.000000, 0.000000, 145.500000, 12.400000, 40.500000, 84.000000, 0.014835, 0.003141, -0.713818, 1.745526, 1.056005, -0.441330, -2.654037, 6.490012, 3.926316, -1.640903, 12297829748976910336.000000, 13527612613923438592.000000, 14757395478869966848.000000, 238.633118, 238.633118, 3592.250000
2249.730067, 24.100000, 111.500000, 0.000000, 0.000000, 145.500000, 12.400000, 40.500000, 84.000000, 0.014835, 0.003141, -0.713818, 1.745526, 1.056005, -0.441330, -2.071355, 5.065157, 3.064310, -1.280650, 12297829748976910336.000000, 13527612613923438592.000000, 14757395478869966848.000000, 238.633118, 238.633118, 3592.250000
2249.831290, 24.100000, 111.500000, 0.000000, 0.000000, 145.500000, 12.400000, 40.500000, 84.000000, 0.014835, 0.003141, -0.713818, 1.745526, 1.056005, -0.441330, -1.558048, 3.809949, 2.304937, -0.963290, 12297829748976910336.000000, 13527612613923438592.000000, 14757395478869966848.000000, 238.633118, 238.633118, 3592.250000
2249.932067, 24.100000, 111.500000, 0.000000, 0.000000, 145.500000, 12.400000, 40.500000, 84.000000, 0.014835, 0.003141, -0.713818, 1.745526, 1.056005, -0.441330, -1.116977, 2.731383, 1.652429, -0.690591, 12297829748976910336.000000, 13527612613923438592.000000, 14757395478869966848.000000, 238.633118, 238.633118, 3592.250000
2250.032946, 24.100000, 111.500000, 0.000000, 0.000000, 145.500000, 12.400000, 40.500000, 84.000000, 0.014835, 0.003141, -0.713818, 1.745526, 1.056005, -0.441330, -0.747227, 1.827219, 1.105429, -0.461986, 12297829748976910336.000000, 13527612613923438592.000000, 14757395478869966848.000000, 238.633118, 238.633118, 3592.250000
2250.133972, 24.100000, 111.500000, 0.000000, 0.000000, 145.500000, 12.400000, 40.500000, 84.000000, 0.014835, 0.003141, -0.713818, 1.745526, 1.056005, -0.441330, -0.445152, 1.088543, 0.658546, -0.275223, 12297829748976910336.000000, 13527612613923438592.000000, 14757395478869966848.000000, 238.633118, 238.633118, 3592.250000
2250.235028, 24.100000, 111.500000, 0.000000, 0.000000, 145.500000, 12.400000, 40.500000, 84.000000, 0.014835, 0.003141, -0.713818, 1.745526, 1.056005, -0.441330, -0.205258, 0.501923, 0.303654, -0.126905, 12297829748976910336.000000, 13527612613923438592.000000, 14757395478869966848.000000, 238.633118, 238.633118, 3592.250000
2250.335980, 24.100000, 111.500000, 0.000000, 0.000000, 145.500000, 12.400000, 40.500000, 84.000000, 0.014835, 0.003141, -0.713818, 1.745526, 1.056005, -0.441330, -0.020929, 0.051176, 0.030962, -0.012940, 12297829748976910336.000000, 13527612613923438592.000000, 14757395478869966848.000000, 238.633118, 238.633118, 3592.250000
2250.437017, 24.100000, 111.500000, 0.000000, 0.000000, 145.500000, 12.400000, 40.500000, 84.000000, 0.014835, 0.003141, -0.713818, 1.745526, 1.056005, -0.441330, 0.115002, -0.281220, -0.170131, 0.071102, 12297829748976910336.000000, 13527612613923438592.000000, 14757395478869966848.000000, 238.633118, 238.633118, 3592.250000
2250.537926, 24.100000, 111.500000, 0.000000, 0.000000, 145.500000, 12.400000, 40.500000, 84.000000, 0.014835, 0.003141, -0.713818, 1.745526, 1.056005, -0.441330, 0.209803, -0.513040, -0.310377, 0.129714, 12297829748976910336.000000, 13527612613923438592.000000, 14757395478869966848.000000, 238.633118, 238.633118, 3592.250000
2250.638954, 24.100000, 111.500000, 0.000000, 0.000000, 145.500000, 12.400000, 40.500000, 84.000000, 0.014835, 0.003141, -0.713818, 1.745526, 1.056005, -0.441330, 0.270515, -0.661501, -0.400192, 0.167250, 12297829748976910336.000000, 13527612613923438592.000000, 14757395478869966848.000000, 238.633118, 238.633118, 3592.250000
2250.738784, 24.100000, 111.500000, 0.000000, 0.000000, 145.500000, 12.400000, 40.500000, 84.000000, 0.014835, 0.003141, -0.713818, 1.745526, 1.056005, -0.441330, 0.303718, -0.742693, -0.449312, 0.187778, 12297829748976910336.000000, 13527612613923438592.000000, 14757395478869966848.000000, 238.633118, 238.633118, 3592.250000
2250.838826, 24.100000, 111.500000, 0.000000, 0.000000, 145.500000, 12.400000, 40.500000, 84.000000, 0.014835, 0.003141, -0.713818, 1.745526, 1.056005, -0.441330, 0.315381, -0.771213, -0.466566, 0.194989, 12297829748976910336.000000, 13527612613923438592.000000, 14757395478869966848.000000, 238.633118, 238.633118, 3592.250000
2250.938768, 24.100000, 111.500000, 0.000000, 0.000000, 145.500000, 12.400000, 40.500000, 84.000000, 0.014835, 0.003141, -0.713818, 1.745526, 1.056005, -0.441330, 0.310775, -0.759949, -0.459752, 0.192142, 12297829748976910336.000000, 13527612613923438592.000000, 14757395478869966848.000000, 238.633118, 238.633118, 3592.250000
2251.038732, 24.100000, 111.500000, 0.000000, 0.000000, 145.500000, 12.400000, 40.500000, 84.000000, 0.014835, 0.003141, -0.713818, 1.745526, 1.056005, -0.441330, 0.294441, -0.720007, -0.435588, 0.182043, 12297829748976910336.000000, 13527612613923438592.000000, 14757395478869966848.000000, 238.633118, 238.633118, 3592.250000
2251.138673, 24.100000, 111.500000, 0.000000, 0.000000, 145.500000, 12.400000, 40.500000, 84.000000, 0.014835, 0.003141, -0.713818, 1.745526, 1.056005, -0.441330, 0.270194, -0.660717, -0.399719, 0.167052, 12297829748976910336.000000, 13527612613923438592.000000, 14757395478869966848.000000, 238.633118, 238.633118, 3592.250000
2251.239390, 24.100000, 111.500000, 0.000000, 0.000000, 145.500000, 12.400000, 40.500000, 84.000000, 0.014835, 0.003141, -0.713818, 1.745526, 1.056005, -0.441330, 0.241162, -0.589723, -0.356769, 0.149103, 12297829748976910336.000000, 13527612613923438592.000000, 14757395478869966848.000000, 238.633118, 238.633118, 3592.250000
2251.339994, 24.100000, 111.500000, 0.000000, 0.000000, 145.500000, 12.400000, 40.500000, 84.000000, 0.014835, 0.003141, -0.713818, 1.745526, 1.056005, -0.441330, 0.209834, -0.513114, -0.310423, 0.129733, 12297829748976910336.000000, 13527612613923438592.000000, 14757395478869966848.000000, 238.633118, 238.633118, 3592.250000
2251.440795, 24.100000, 111.500000, 0.000000, 0.000000, 145.500000, 12.400000, 40.500000, 84.000000, 0.014835, 0.003141, -0.713818, 1.745526, 1.056005, -0.441330, 0.178129, -0.435586, -0.263520, 0.110131, 12297829748976910336.000000, 13527612613923438592.000000, 14757395478869966848.000000, 238.633118, 238.633118, 3592.250000
2251.540574, 24.100000, 111.500000, 0.000000, 0.000000, 145.500000, 12.400000, 40.500000, 84.000000, 0.014835, 0.003141, -0.713818, 1.745526, 1.056005, -0.441330, 0.147471, -0.360618, -0.218166, 0.091177, 12297829748976910336.000000, 13527612613923438592.000000, 14757395478869966848.000000, 238.633118, 238.633118, 3592.250000
2251.641218, 24.100000, 111.500000, 0.000000, 0.000000, 145.500000, 12.400000, 40.500000, 84.000000, 0.014835, 0.003141, -0.713818, 1.745526, 1.056005, -0.441330, 0.118859, -0.290650, -0.175837, 0.073487, 12297829748976910336.000000, 13527612613923438592.000000, 14757395478869966848.000000, 238.633118, 238.633118, 3592.250000
2251.741921, 24.100000, 111.500000, 0.000000, 0.000000, 145.500000, 12.400000, 40.500000, 84.000000, 0.014835, 0.003141, -0.713818, 1.745526, 1.056005, -0.441330, 0.092938, -0.227265, -0.137490, 0.057461, 12297829748976910336.000000, 13527612613923438592.000000, 14757395478869966848.000000, 238.633118, 238.633118, 3592.250000
2251.842697, 24.100000, 111.500000, 0.000000, 0.000000, 145.500000, 12.400000, 40.500000, 84.000000, 0.014835, 0.003141, -0.713818, 1.745526, 1.056005, -0.441330, 0.070070, -0.171346, -0.103660, 0.043322, 12297829748976910336.000000, 13527612613923438592.000000, 14757395478869966848.000000, 238.633118, 238.633118, 3592.250000
2251.943658, 24.100000, 111.500000, 0.000000, 0.000000, 145.500000, 12.400000, 40.500000, 84.000000, 0.014835, 0.003141, -0.713818, 1.745526, 1.056005, -0.441330, 0.050393, -0.123229, -0.074551, 0.031157, 12297829748976910336.000000, 13527612613923438592.000000, 14757395478869966848.000000, 238.633118, 238.633118, 3592.250000
2252.044461, 24.100000, 111.500000, 0.000000, 0.000000, 145.500000, 12.400000, 40.500000, 84.000000, 0.014835, 0.003141, -0.713818, 1.745526, 1.056005, -0.441330, 0.033874, -0.082835, -0.050113, 0.020944, 12297829748976910336.000000, 13527612613923438592.000000, 14757395478869966848.000000, 238.633118, 238.633118, 3592.250000
2252.145404, 24.100000, 111.500000, 0.000000, 0.000000, 145.500000, 12.400000, 40.500000, 84.000000, 0.014835, 0.003141, -0.713818, 1.745526, 1.056005, -0.441330, 0.020359, -0.049784, -0.030118, 0.012587, 12297829748976910336.000000, 13527612613923438592.000000, 14757395478869966848.000000, 238.633118, 238.633118, 3592.250000
2252.246061, 24.100000, 111.500000, 0.000000, 0.000000, 145.500000, 12.400000, 40.500000, 84.000000, 0.014835, 0.003141, -0.713818, 1.745526, 1.056005, -0.441330, 0.009607, -0.023491, -0.014212, 0.005939, 12297829748976910336.000000, 13527612613923438592.000000, 14757395478869966848.000000, 238.633118, 238.633118, 3592.250000
2252.346784, 24.100000, 111.500000, 0.000000, 0.000000, 145.500000, 12.400000, 40.500000, 84.000000, 0.014835, 0.003141, -0.713818, 1.745526, 1.056005, -0.441330, 0.001328, -0.003247, -0.001965, 0.000821, 12297829748976910336.000000, 13527612613923438592.000000, 14757395478869966848.000000, 238.633118, 238.633118, 3592.250000
2252.446556, 24.100000, 111.500000, 0.000000, 0.000000, 145.500000, 12.400000, 40.500000, 84.000000, 0.014835, 0.003141, -0.713818, 1.745526, 1.056005, -0.441330, -0.004793, 0.011721, 0.007091, -0.002963, 12297829748976910336.000000, 13527612613923438592.000000, 14757395478869966848.000000, 238.633118, 238.633118, 3592.250000
2252.547428, 24.100000, 111.500000, 0.000000, 0.000000, 145.500000, 12.400000, 40.500000, 84.000000, 0.014835, 0.003141, -0.713818, 1.745526, 1.056005, -0.441330, -0.009078, 0.022199, 0.013430, -0.005613, 12297829748976910336.000000, 13527612613923438592.000000, 14757395478869966848.000000, 238.633118, 238.633118, 3592.250000
2252.648282, 24.100000, 111.500000, 0.000000, 0.000000, 145.500000, 12.400000, 40.500000, 84.000000, 0.014835, 0.003141, -0.713818, 1.745526, 1.056005, -0.441330, -0.011839, 0.028951, 0.017515, -0.007320, 12297829748976910336.000000, 13527612613923438592.000000, 14757395478869966848.000000, 238.633118, 238.633118, 3592.250000
2252.749403, 24.100000, 111.500000, 0.000000, 0.000000, 145.500000, 12.400000, 40.500000, 84.000000, 0.014835, 0.003141, -0.713818, 1.745526, 1.056005, -0.441330, -0.013369, 0.032691, 0.019777, -0.008265, 12297829748976910336.000000, 13527612613923438592.000000, 14757395478869966848.000000, 238.633118, 238.633118, 3592.250000
2252.850311, 24.100000, 111.500000, 0.000000, 0.000000, 145.500000, 12.400000, 40.500000, 84.000000, 0.014835, 0.003141, -0.713818, 1.745526, 1.056005, -0.441330, -0.013932, 0.034068, 0.020610, -0.008614, 12297829748976910336.000000, 13527612613923438592.000000, 14757395478869966848.000000, 238.633118, 238.633118, 3592.250000
2252.951261, 24.100000, 111.500000, 0.000000, 0.000000, 145.500000, 12.400000, 40.500000, 84.000000, 0.014835, 0.003141, -0.713818, 1.745526, 1.056005, -0.441330, -0.013763, 0.033656, 0.020361, -0.008509, 12297829748976910336.000000, 13527612613923438592.000000, 14757395478869966848.000000, 238.633118, 238.633118, 3592.250000
2253.052166, 24.100000, 111.500000, 0.000000, 0.000000, 145.500000, 12.400000, 40.500000, 84.000000, 0.014835, 0.003141, -0.713818, 1.745526, 1.056005, -0.441330, -0.013066, 0.031951, 0.019330, -0.008078, 12297829748976910336.000000, 13527612613923438592.000000, 14757395478869966848.000000, 238.633118, 238.633118, 3592.250000
2253.153172, 24.100000, 111.500000, 0.000000, 0.000000, 145.500000, 12.400000, 40.500000, 84.000000, 0.014835, 0.003141, -0.713818, 1.745526, 1.056005, -0.441330, -0.012010, 0.029369, 0.017768, -0.007426, 12297829748976910336.000000, 13527612613923438592.000000, 14757395478869966848.000000, 238.633118, 238.633118, 3592.250000
2253.254159, 24.100000, 111.500000, 0.000000, 0.000000, 145.500000, 12.400000, 40.500000, 84.000000, 0.014835, 0.003141, -0.713818, 1.745526, 1.056005, -0.441330, -0.010736, 0.026253, 0.015882, -0.006638, 12297829748976910336.000000, 13527612613923438592.000000, 14757395478869966848.000000, 238.633118, 238.633118, 3592.250000
2253.355063, 24.100000, 111.500000, 0.000000, 0.000000, 145.500000, 12.400000, 40.500000, 84.000000, 0.014835, 0.003141, -0.713818, 1.745526, 1.056005, -0.441330, -0.009355, 0.022875, 0.013839, -0.005784, 12297829748976910336.000000, 13527612613923438592.000000, 14757395478869966848.000000, 238.633118, 238.633118, 3592.250000
2253.456047, 24.100000, 111.500000, 0.000000, 0.000000, 145.500000, 12.400000, 40.500000, 84.000000, 0.014835, 0.003141, -0.713818, 1.745526, 1.056005, -0.441330, -0.007952, 0.019446, 0.011764, -0.004917, 12297829748976910336.000000, 13527612613923438592.000000, 14757395478869966848.000000, 238.633118, 238.633118, 3592.250000
2253.557067, 24.100000, 111.500000, 0.000000, 0.000000, 145.500000, 12.400000, 40.500000, 84.000000, 0.014835, 0.003141, -0.713818, 1.745526, 1.056005, -0.441330, -0.006593, 0.016123, 0.009754, -0.004076, 12297829748976910336.000000, 13527612613923438592.000000, 14757395478869966848.000000, 238.633118, 238.633118, 3592.250000
2253.657874, 24.100000, 111.500000, 0.000000, 0.000000, 145.500000, 12.400000, 40.500000, 84.000000, 0.014835, 0.003141, -0.713818, 1.745526, 1.056005, -0.441330, -0.005322, 0.013015, 0.007874, -0.003291, 12297829748976910336.000000, 13527612613923438592.000000, 14757395478869966848.000000, 238.633118, 238.633118, 3592.250000
2253.757774, 24.100000, 111.500000, 0.000000, 0.000000, 145.500000, 12.400000, 40.500000, 84.000000, 0.014835, 0.003141, -0.713818, 1.745526, 1.056005, -0.441330, -0.004169, 0.010196, 0.006168, -0.002578, 12297829748976910336.000000, 13527612613923438592.000000, 14757395478869966848.000000, 238.633118, 238.633118, 3592.250000
2253.858571, 24.100000, 111.500000, 0.000000, 0.000000, 145.500000, 12.400000, 40.500000, 84.000000, 0.014835, 0.003141, -0.713818, 1.745526, 1.056005, -0.441330, -0.003151, 0.007705, 0.004661, -0.001948, 12297829748976910336.000000, 13527612613923438592.000000, 14757395478869966848.000000, 238.633118, 238.633118, 3592.250000
2253.959497, 24.100000, 111.500000, 0.000000, 0.000000, 145.500000, 12.400000, 40.500000, 84.000000, 0.014835, 0.003141, -0.713818, 1.745526, 1.056005, -0.441330, -0.002273, 0.005558, 0.003363, -0.001405, 12297829748976910336.000000, 13527612613923438592.000000, 14757395478869966848.000000, 238.633118, 238.633118, 3592.250000
2254.060180, 24.100000, 111.500000, 0.000000, 0.000000, 145.500000, 12.400000, 40.500000, 84.000000, 0.014835, 0.003141, -0.713818, 1.745526, 1.056005, -0.441330, -0.001535, 0.003754, 0.002271, -0.000949, 12297829748976910336.000000, 13527612613923438592.000000, 14757395478869966848.000000, 238.633118, 238.633118, 3592.250000
2254.160853, 24.100000, 111.500000, 0.000000, 0.000000, 145.500000, 12.400000, 40.500000, 84.000000, 0.014835, 0.003141, -0.713818, 1.745526, 1.056005, -0.441330, -0.000930, 0.002275, 0.001376, -0.000575, 12297829748976910336.000000, 13527612613923438592.000000, 14757395478869966848.000000, 238.633118, 238.633118, 3592.250000
2254.260463, 24.100000, 111.500000, 0.000000, 0.000000, 145.500000, 12.400000, 40.500000, 84.000000, 0.014835, 0.003141, -0.713818, 1.745526, 1.056005, -0.441330, -0.000449, 0.001097, 0.000664, -0.000277, 12297829748976910336.000000, 13527612613923438592.000000, 14757395478869966848.000000, 238.633118, 238.633118, 3592.250000
2254.361301, 24.100000, 111.500000, 0.000000, 0.000000, 145.500000, 12.400000, 40.500000, 84.000000, 0.014835, 0.003141, -0.713818, 1.745526, 1.056005, -0.441330, -0.000077, 0.000188, 0.000114, -0.000047, 12297829748976910336.000000, 13527612613923438592.000000, 14757395478869966848.000000, 238.633118, 238.633118, 3592.250000
2254.461995, 24.100000, 111.500000, 0.000000, 0.000000, 145.500000, 12.400000, 40.500000, 84.000000, 0.014835, 0.003141, -0.713818, 1.745526, 1.056005, -0.441330, 0.000199, -0.000486, -0.000294, 0.000123, 12297829748976910336.000000, 13527612613923438592.000000, 14757395478869966848.000000, 238.633118, 238.633118, 3592.250000
2254.562707, 24.100000, 111.500000, 0.000000, 0.000000, 145.500000, 12.400000, 40.500000, 84.000000, 0.014835, 0.003141, -0.713818, 1.745526, 1.056005, -0.441330, 0.000392, -0.000960, -0.000581, 0.000243, 12297829748976910336.000000, 13527612613923438592.000000, 14757395478869966848.000000, 238.633118, 238.633118, 3592.250000
2254.662399, 24.100000, 111.500000, 0.000000, 0.000000, 145.500000, 12.400000, 40.500000, 84.000000, 0.014835, 0.003141, -0.713818, 1.745526, 1.056005, -0.441330, 0.000518, -0.001267, -0.000766, 0.000320, 12297829748976910336.000000, 13527612613923438592.000000, 14757395478869966848.000000, 238.633118, 238.633118, 3592.250000
2254.763445, 24.100000, 111.500000, 0.000000, 0.000000, 145.500000, 12.400000, 40.500000, 84.000000, 0.014835, 0.003141, -0.713818, 1.745526, 1.056005, -0.441330, 0.000588, -0.001439, -0.000870, 0.000364, 12297829748976910336.000000, 13527612613923438592.000000, 14757395478869966848.000000, 238.633118, 238.633118, 3592.250000
2254.864349, 24.100000, 111.500000, 0.000000, 0.000000, 145.500000, 12.400000, 40.500000, 84.000000, 0.014835, 0.003141, -0.713818, 1.745526, 1.056005, -0.441330, 0.000615, -0.001505, -0.000910, 0.000380, 12297829748976910336.000000, 13527612613923438592.000000, 14757395478869966848.000000, 238.633118, 238.633118, 3592.250000
2254.965103, 24.100000, 111.500000, 0.000000, 0.000000, 145.500000, 12.400000, 40.500000, 84.000000, 0.014835, 0.003141, -0.713818, 1.745526, 1.056005, -0.441330, 0.000609, -0.001490, -0.000902, 0.000377, 12297829748976910336.000000, 13527612613923438592.000000, 14757395478869966848.000000, 238.633118, 238.633118, 3592.250000
2255.065839, 24.100000, 111.500000, 0.000000, 0.000000, 145.500000, 12.400000, 40.500000, 84.000000, 0.014835, 0.003141, -0.713818, 1.745526, 1.056005, -0.441330, 0.000580, -0.001418, -0.000858, 0.000358, 12297829748976910336.000000, 13527612613923438592.000000, 14757395478869966848.000000, 238.633118, 238.633118, 3592.250000
2255.165911, 24.100000, 111.500000, 0.000000, 0.000000, 145.500000, 12.400000, 40.500000, 84.000000, 0.014835, 0.003141, -0.713818, 1.745526, 1.056005, -0.441330, 0.000534, -0.001305, -0.000790, 0.000330, 12297829748976910336.000000, 13527612613923438592.000000, 14757395478869966848.000000, 238.633118, 238.633118, 3592.250000
2255.265911, 24.100000, 111.500000, 0.000000, 0.000000, 145.500000, 12.400000, 40.500000, 84.000000, 0.014835, 0.003141, -0.713818, 1.745526, 1.056005, -0.441330, 0.000478, -0.001169, -0.000707, 0.000295, 12297829748976910336.000000, 13527612613923438592.000000, 14757395478869966848.000000, 238.633118, 238.633118, 3592.250000
2255.365657, 24.100000, 111.500000, 0.000000, 0.000000, 145.500000, 12.400000, 40.500000, 84.000000, 0.014835, 0.003141, -0.713818, 1.745526, 1.056005, -0.441330, 0.000417, -0.001020, -0.000617, 0.000258, 12297829748976910336.000000, 13527612613923438592.000000, 14757395478869966848.000000, 238.633118, 238.633118, 3592.250000
2255.466654, 24.100000, 111.500000, 0.000000, 0.000000, 145.500000, 12.400000, 40.500000, 84.000000, 0.014835, 0.003141, -0.713818, 1.745526, 1.056005, -0.441330, 0.000355, -0.000868, -0.000525, 0.000219, 12297829748976910336.000000, 13527612613923438592.000000, 14757395478869966848.000000, 238.633118, 238.633118, 3592.250000
2255.567708, 24.100000, 111.500000, 0.000000, 0.000000, 145.500000, 12.400000, 40.500000, 84.000000, 0.014835, 0.003141, -0.713818, 1.745526, 1.056005, -0.441330, 0.000295, -0.000721, -0.000436, 0.000182, 12297829748976910336.000000, 13527612613923438592.000000, 14757395478869966848.000000, 238.633118, 238.633118, 3592.250000
2255.668487, 24.100000, 111.500000, 0.000000, 0.000000, 145.500000, 12.400000, 40.500000, 84.000000, 0.014835, 0.003141, -0.713818, 1.745526, 1.056005, -0.441330, 0.000238, -0.000583, -0.000353, 0.000147, 12297829748976910336.000000, 13527612613923438592.000000, 14757395478869966848.000000, 238.633118, 238.633118, 3592.250000
2255.769465, 24.100000, 111.500000, 0.000000, 0.000000, 145.500000, 12.400000, 40.500000, 84.000000, 0.014835, 0.003141, -0.713818, 1.745526, 1.056005, -0.441330, 0.000187, -0.000457, -0.000277, 0.000116, 12297829748976910336.000000, 13527612613923438592.000000, 14757395478869966848.000000, 238.633118, 238.633118, 3592.250000
2255.870450, 24.100000, 111.500000, 0.000000, 0.000000, 145.500000, 12.400000, 40.500000, 84.000000, 0.014835, 0.003141, -0.713818, 1.745526, 1.056005, -0.441330, 0.000142, -0.000346, -0.000210, 0.000088, 12297829748976910336.000000, 13527612613923438592.000000, 14757395478869966848.000000, 238.633118, 238.633118, 3592.250000
2255.971381, 24.100000, 111.500000, 0.000000, 0.000000, 145.500000, 12.400000, 40.500000, 84.000000, 0.014835, 0.003141, -0.713818, 1.745526, 1.056005, -0.441330, 0.000103, -0.000251, -0.000152, 0.000063, 12297829748976910336.000000, 13527612613923438592.000000, 14757395478869966848.000000, 238.633118, 238.633118, 3592.250000
2256.072444, 24.100000, 111.500000, 0.000000, 0.000000, 145.500000, 12.400000, 40.500000, 84.000000, 0.014835, 0.003141, -0.713818, 1.745526, 1.056005, -0.441330, 0.000070, -0.000170, -0.000103, 0.000043, 12297829748976910336.000000, 13527612613923438592.000000, 14757395478869966848.000000, 238.633118, 238.633118, 3592.250000
2256.173455, 24.100000, 111.500000, 0.000000, 0.000000, 145.500000, 12.400000, 40.500000, 84.000000, 0.014835, 0.003141, -0.713818, 1.745526, 1.056005, -0.441330, 0.000042, -0.000104, -0.000063, 0.000026, 12297829748976910336.000000, 13527612613923438592.000000, 14757395478869966848.000000, 238.633118, 238.633118, 3592.250000
2256.274489, 24.100000, 111.500000, 0.000000, 0.000000, 145.500000, 12.400000, 40.500000, 84.000000, 0.014835, 0.003141, -0.713818, 1.745526, 1.056005, -0.441330, 0.000021, -0.000051, -0.000031, 0.000013, 12297829748976910336.000000, 13527612613923438592.000000, 14757395478869966848.000000, 238.633118, 238.633118, 3592.250000
2256.375599, 24.100000, 111.500000, 0.000000, 0.000000, 145.500000, 12.400000, 40.500000, 84.000000, 0.014835, 0.003141, -0.713818, 1.745526, 1.056005, -0.441330, 0.000004, -0.000010, -0.000006, 0.000003, 12297829748976910336.000000, 13527612613923438592.000000, 14757395478869966848.000000, 238.633118, 238.633118, 3592.250000
2256.476701, 24.100000, 111.500000, 0.000000, 0.000000, 145.500000, 12.400000, 40.500000, 84.000000, 0.014835, 0.003141, -0.713818, 1.745526, 1.056005, -0.441330, -0.000008, 0.000020, 0.000012, -0.000005, 12297829748976910336.000000, 13527612613923438592.000000, 14757395478869966848.000000, 238.633118, 238.633118, 3592.250000
2256.576886, 24.100000, 111.500000, 0.000000, 0.000000, 145.500000, 12.400000, 40.500000, 84.000000, 0.014835, 0.003141, -0.713818, 1.745526, 1.056005, -0.441330, -0.000017, 0.000041, 0.000025, -0.000010, 12297829748976910336.000000, 13527612613923438592.000000, 14757395478869966848.000000, 238.633118, 238.633118, 3592.250000
2256.676637, 24.100000, 111.500000, 0.000000, 0.000000, 145.500000, 12.400000, 40.500000, 84.000000, 0.014835, 0.003141, -0.713818, 1.745526, 1.056005, -0.441330, -0.000023, 0.000055, 0.000034, -0.000014, 12297829748976910336.000000, 13527612613923438592.000000, 14757395478869966848.000000, 238.633118, 238.633118, 3592.250000
2256.777597, 24.100000, 111.500000, 0.000000, 0.000000, 145.500000, 12.400000, 40.500000, 84.000000, 0.014835, 0.003141, -0.713818, 1.745526, 1.056005, -0.441330, -0.000026, 0.000063, 0.000038, -0.000016, 12297829748976910336.000000, 13527612613923438592.000000, 14757395478869966848.000000, 238.633118, 238.633118, 3592.250000
2256.878443, 24.100000, 111.500000, 0.000000, 0.000000, 145.500000, 12.400000, 40.500000, 84.000000, 0.014835, 0.003141, -0.713818, 1.745526, 1.056005, -0.441330, -0.000027, 0.000066, 0.000040, -0.000017, 12297829748976910336.000000, 13527612613923438592.000000, 14757395478869966848.000000, 238.633118, 238.633118, 3592.250000
2256.979456, 24.100000, 111.500000, 0.000000, 0.000000, 145.500000, 12.400000, 40.500000, 84.000000, 0.014835, 0.003141, -0.713818, 1.745526, 1.056005, -0.441330, -0.000027, 0.000066, 0.000040, -0.000017, 12297829748976910336.000000, 13527612613923438592.000000, 14757395478869966848.000000, 238.633118, 238.633118, 3592.250000
2257.080458, 24.100000, 111.500000, 0.000000, 0.000000, 145.500000, 12.400000, 40.500000, 84.000000, 0.014835, 0.003141, -0.713818, 1.745526, 1.056005, -0.441330, -0.000026, 0.000063, 0.000038, -0.000016, 12297829748976910336.000000, 13527612613923438592.000000, 14757395478869966848.000000, 238.633118, 238.633118, 3592.250000
2257.181469, 24.100000, 111.500000, 0.000000, 0.000000, 145.500000, 12.400000, 40.500000, 84.000000, 0.014835, 0.003141, -0.713818, 1.745526, 1.056005, -0.441330, -0.000024, 0.000058, 0.000035, -0.000015, 12297829748976910336.000000, 13527612613923438592.000000, 14757395478869966848.000000, 238.633118, 238.633118, 3592.250000
2257.282479, 24.100000, 111.500000, 0.000000, 0.000000, 145.500000, 12.400000, 40.500000, 84.000000, 0.014835, 0.003141, -0.713818, 1.745526, 1.056005, -0.441330, -0.000021, 0.000052, 0.000031, -0.000013, 12297829748976910336.000000, 13527612613923438592.000000, 14757395478869966848.000000, 238.633118, 238.633118, 3592.250000
2257.383385, 24.100000, 111.500000, 0.000000, 0.000000, 145.500000, 12.400000, 40.500000, 84.000000, 0.014835, 0.003141, -0.713818, 1.745526, 1.056005, -0.441330, -0.000019, 0.000045, 0.000027, -0.000011, 12297829748976910336.000000, 13527612613923438592.000000, 14757395478869966848.000000, 238.633118, 238.633118, 3592.250000
2257.484312, 24.100000, 111.500000, 0.000000, 0.000000, 145.500000, 12.400000, 40.500000, 84.000000, 0.014835, 0.003141, -0.713818, 1.745526, 1.056005, -0.441330, -0.000016, 0.000039, 0.000023, -0.000010, 12297829748976910336.000000, 13527612613923438592.000000, 14757395478869966848.000000, 238.633118, 238.633118, 3592.250000
2257.585292, 24.100000, 111.500000, 0.000000, 0.000000, 145.500000, 12.400000, 40.500000, 84.000000, 0.014835, 0.003141, -0.713818, 1.745526, 1.056005, -0.441330, -0.000013, 0.000032, 0.000019, -0.000008, 12297829748976910336.000000, 13527612613923438592.000000, 14757395478869966848.000000, 238.633118, 238.633118, 3592.250000
2257.686242, 24.100000, 111.500000, 0.000000, 0.000000, 145.500000, 12.400000, 40.500000, 84.000000, 0.014835, 0.003141, -0.713818, 1.745526, 1.056005, -0.441330, -0.000011, 0.000026, 0.000016, -0.000007, 12297829748976910336.000000, 13527612613923438592.000000, 14757395478869966848.000000, 238.633118, 238.633118, 3592.250000
2257.787259, 24.100000, 111.500000, 0.000000, 0.000000, 145.500000, 12.400000, 40.500000, 84.000000, 0.014835, 0.003141, -0.713818, 1.745526, 1.056005, -0.441330, -0.000008, 0.000021, 0.000012, -0.000005, 12297829748976910336.000000, 13527612613923438592.000000, 14757395478869966848.000000, 238.633118, 238.633118, 3592.250000
2257.888454, 24.100000, 111.500000, 0.000000, 0.000000, 145.500000, 12.400000, 40.500000, 84.000000, 0.014835, 0.003141, -0.713818, 1.745526, 1.056005, -0.441330, -0.000006, 0.000016, 0.000009, -0.000004, 12297829748976910336.000000, 13527612613923438592.000000, 14757395478869966848.000000, 238.633118, 238.633118, 3592.250000
2257.989353, 24.100000, 111.500000, 0.000000, 0.000000, 145.500000, 12.400000, 40.500000, 84.000000, 0.014835, 0.003141, -0.713818, 1.745526, 1.056005, -0.441330, -0.000005, 0.000011, 0.000007, -0.000003, 12297829748976910336.000000, 13527612613923438592.000000, 14757395478869966848.000000, 238.633118, 238.633118, 3592.250000
2258.090273, 24.100000, 111.500000, 0.000000, 0.000000, 145.500000, 12.400000, 40.500000, 84.000000, 0.014835, 0.003141, -0.713818, 1.745526, 1.056005, -0.441330, -0.000003, 0.000008, 0.000005, -0.000002, 12297829748976910336.000000, 13527612613923438592.000000, 14757395478869966848.000000, 238.633118, 238.633118, 3592.250000
2258.191187, 24.100000, 111.500000, 0.000000, 0.000000, 145.500000, 12.400000, 40.500000, 84.000000, 0.014835, 0.003141, -0.713818, 1.745526, 1.056005, -0.441330, -0.000002, 0.000005, 0.000003, -0.000001, 12297829748976910336.000000, 13527612613923438592.000000, 14757395478869966848.000000, 238.633118, 238.633118, 3592.250000
2258.292117, 24.100000, 111.500000, 0.000000, 0.000000, 145.500000, 12.400000, 40.500000, 84.000000, 0.014835, 0.003141, -0.713818, 1.745526, 1.056005, -0.441330, -0.000001, 0.000002, 0.000001, -0.000001, 12297829748976910336.000000, 13527612613923438592.000000, 14757395478869966848.000000, 238.633118, 238.633118, 3592.250000
2258.392972, 24.100000, 111.500000, 0.000000, 0.000000, 145.500000, 12.400000, 40.500000, 84.000000, 0.014835, 0.003141, -0.713818, 1.745526, 1.056005, -0.441330, -0.000000, 0.000001, 0.000000, -0.000000, 12297829748976910336.000000, 13527612613923438592.000000, 14757395478869966848.000000, 238.633118, 238.633118, 3592.250000
2258.493700, 24.100000, 111.500000, 0.000000, 0.000000, 145.500000, 12.400000, 40.500000, 84.000000, 0.014835, 0.003141, -0.713818, 1.745526, 1.056005, -0.441330, 0.000000, -0.000001, -0.000000, 0.000000, 12297829748976910336.000000, 13527612613923438592.000000, 14757395478869966848.000000, 238.633118, 238.633118, 3592.250000
2258.594294, 24.100000, 111.500000, 0.000000, 0.000000, 145.500000, 12.400000, 40.500000, 84.000000, 0.014835, 0.003141, -0.713818, 1.745526, 1.056005, -0.441330, 0.000001, -0.000002, -0.000001, 0.000000, 12297829748976910336.000000, 13527612613923438592.000000, 14757395478869966848.000000, 238.633118, 238.633118, 3592.250000
2258.694974, 24.100000, 111.500000, 0.000000, 0.000000, 145.500000, 12.400000, 40.500000, 84.000000, 0.014835, 0.003141, -0.713818, 1.745526, 1.056005, -0.441330, 0.000001, -0.000002, -0.000001, 0.000001, 12297829748976910336.000000, 13527612613923438592.000000, 14757395478869966848.000000, 238.633118, 238.633118, 3592.250000
2258.795631, 24.100000, 111.500000, 0.000000, 0.000000, 145.500000, 12.400000, 40.500000, 84.000000, 0.014835, 0.003141, -0.713818, 1.745526, 1.056005, -0.441330, 0.000001, -0.000003, -0.000002, 0.000001, 12297829748976910336.000000, 13527612613923438592.000000, 14757395478869966848.000000, 238.633118, 238.633118, 3592.250000
2258.896249, 24.100000, 111.500000, 0.000000, 0.000000, 145.500000, 12.400000, 40.500000, 84.000000, 0.014835, 0.003141, -0.713818, 1.745526, 1.056005, -0.441330, 0.000001, -0.000003, -0.000002, 0.000001, 12297829748976910336.000000, 13527612613923438592.000000, 14757395478869966848.000000, 238.633118, 238.633118, 3592.250000
2258.996971, 24.100000, 111.500000, 0.000000, 0.000000, 145.500000, 12.400000, 40.500000, 84.000000, 0.014835, 0.003141, -0.713818, 1.745526, 1.056005, -0.441330, 0.000001, -0.000003, -0.000002, 0.000001, 12297829748976910336.000000, 13527612613923438592.000000, 14757395478869966848.000000, 238.633118, 238.633118, 3592.250000
2259.097634, 24.100000, 111.500000, 0.000000, 0.000000, 145.500000, 12.400000, 40.500000, 84.000000, 0.014835, 0.003141, -0.713818, 1.745526, 1.056005, -0.441330, 0.000001, -0.000003, -0.000002, 0.000001, 12297829748976910336.000000, 13527612613923438592.000000, 14757395478869966848.000000, 238.633118, 238.633118, 3592.250000
2259.198435, 24.100000, 111.500000, 0.000000, 0.000000, 145.500000, 12.400000, 40.500000, 84.000000, 0.014835, 0.003141, -0.713818, 1.745526, 1.056005, -0.441330, 0.000001, -0.000003, -0.000002, 0.000001, 12297829748976910336.000000, 13527612613923438592.000000, 14757395478869966848.000000, 238.633118, 238.633118, 3592.250000
2259.299069, 24.100000, 111.500000, 0.000000, 0.000000, 145.500000, 12.400000, 40.500000, 84.000000, 0.014835, 0.003141, -0.713818, 1.745526, 1.056005, -0.441330, 0.000001, -0.000002, -0.000001, 0.000001, 12297829748976910336.000000, 13527612613923438592.000000, 14757395478869966848.000000, 238.633118, 238.633118, 3592.250000
2259.399887, 24.100000, 111.500000, 0.000000, 0.000000, 145.500000, 12.400000, 40.500000, 84.000000, 0.014835, 0.003141, -0.713818, 1.745526, 1.056005, -0.441330, 0.000001, -0.000002, -0.000001, 0.000001, 12297829748976910336.000000, 13527612613923438592.000000, 14757395478869966848.000000, 238.633118, 238.633118, 3592.250000
2259.499784, 24.100000, 111.500000, 0.000000, 0.000000, 145.500000, 12.400000, 40.500000, 84.000000, 0.014835, 0.003141, -0.713818, 1.745526, 1.056005, -0.441330, 0.000001, -0.000002, -0.000001, 0.000000, 12297829748976910336.000000, 13527612613923438592.000000, 14757395478869966848.000000, 238.633118, 238.633118, 3592.250000
2259.599720, 24.100000, 111.500000, 0.000000, 0.000000, 145.500000, 12.400000, 40.500000, 84.000000, 0.014835, 0.003141, -0.713818, 1.745526, 1.056005, -0.441330, 0.000001, -0.000001, -0.000001, 0.000000, 12297829748976910336.000000, 13527612613923438592.000000, 14757395478869966848.000000, 238.633118, 238.633118, 3592.250000
2259.699697, 24.100000, 111.500000, 0.000000, 0.000000, 145.500000, 12.400000, 40.500000, 84.000000, 0.014835, 0.003141, -0.713818, 1.745526, 1.056005, -0.441330, 0.000000, -0.000001, -0.000001, 0.000000, 12297829748976910336.000000, 13527612613923438592.000000, 14757395478869966848.000000, 238.633118, 238.633118, 3592.250000
2259.800718, 24.100000, 111.500000, 0.000000, 0.000000, 145.500000, 12.400000, 40.500000, 84.000000, 0.014835, 0.003141, -0.713818, 1.745526, 1.056005, -0.441330, 0.000000, -0.000001, -0.000001, 0.000000, 12297829748976910336.000000, 13527612613923438592.000000, 14757395478869966848.000000, 238.633118, 238.633118, 3592.250000
2259.900880, 24.100000, 111.500000, 0.000000, 0.000000, 145.500000, 12.400000, 40.500000, 84.000000, 0.014835, 0.003141, -0.713818, 1.745526, 1.056005, -0.441330, 0.000000, -0.000001, -0.000000, 0.000000, 12297829748976910336.000000, 13527612613923438592.000000, 14757395478869966848.000000, 238.633118, 238.633118, 3592.250000
2260.000534, 24.100000, 111.500000, 0.000000, 0.000000, 145.500000, 12.400000, 40.500000, 84.000000, 0.014835, 0.003141, -0.713818, 1.745526, 1.056005, -0.441330, 0.000000, -0.000001, -0.000000, 0.000000, 12297829748976910336.000000, 13527612613923438592.000000, 14757395478869966848.000000, 238.633118, 238.633118, 3592.250000
2260.101520, 24.100000, 111.500000, 0.000000, 0.000000, 145.500000, 12.400000, 40.500000, 84.000000, 0.014835, 0.003141, -0.713818, 1.745526, 1.056005, -0.441330, 0.000000, -0.000000, -0.000000, 0.000000, 12297829748976910336.000000, 13527612613923438592.000000, 14757395478869966848.000000, 238.633118, 238.633118, 3592.250000
2260.202603, 24.100000, 111.500000, 0.000000, 0.000000, 145.500000, 12.400000, 40.500000, 84.000000, 0.014835, 0.003141, -0.713818, 1.745526, 1.056005, -0.441330, 0.000000, -0.000000, -0.000000, 0.000000, 12297829748976910336.000000, 13527612613923438592.000000, 14757395478869966848.000000, 238.633118, 238.633118, 3592.250000
2260.303565, 24.100000, 111.500000, 0.000000, 0.000000, 145.500000, 12.400000, 40.500000, 84.000000, 0.014835, 0.003141, -0.713818, 1.745526, 1.056005, -0.441330, 0.000000, -0.000000, -0.000000, 0.000000, 12297829748976910336.000000, 13527612613923438592.000000, 14757395478869966848.000000, 238.633118, 238.633118, 3592.250000
2260.404492, 24.100000, 111.500000, 0.000000, 0.000000, 145.500000, 12.400000, 40.500000, 84.000000, 0.014835, 0.003141, -0.713818, 1.745526, 1.056005, -0.441330, 0.000000, -0.000000, -0.000000, 0.000000, 12297829748976910336.000000, 13527612613923438592.000000, 14757395478869966848.000000, 238.633118, 238.633118, 3592.250000
2260.505657, 24.100000, 111.500000, 0.000000, 0.000000, 145.500000, 12.400000, 40.500000, 84.000000, 0.014835, 0.003141, -0.713818, 1.745526, 1.056005, -0.441330, -0.000000, 0.000000, 0.000000, -0.000000, 12297829748976910336.000000, 13527612613923438592.000000, 14757395478869966848.000000, 238.633118, 238.633118, 3592.250000
2260.606617, 24.100000, 111.500000, 0.000000, 0.000000, 145.500000, 12.400000, 40.500000, 84.000000, 0.014835, 0.003141, -0.713818, 1.745526, 1.056005, -0.441330, -0.000000, 0.000000, 0.000000, -0.000000, 12297829748976910336.000000, 13527612613923438592.000000, 14757395478869966848.000000, 238.633118, 238.633118, 3592.250000
2260.707505, 24.100000, 111.500000, 0.000000, 0.000000, 145.500000, 12.400000, 40.500000, 84.000000, 0.014835, 0.003141, -0.713818, 1.745526, 1.056005, -0.441330, -0.000000, 0.000000, 0.000000, -0.000000, 12297829748976910336.000000, 13527612613923438592.000000, 14757395478869966848.000000, 238.633118, 238.633118, 3592.250000
2260.808424, 24.100000, 111.500000, 0.000000, 0.000000, 145.500000, 12.400000, 40.500000, 84.000000, 0.014835, 0.003141, -0.713818, 1.745526, 1.056005, -0.441330, -0.000000, 0.000000, 0.000000, -0.000000, 12297829748976910336.000000, 13527612613923438592.000000, 14757395478869966848.000000, 238.633118, 238.633118, 3592.250000
2260.909515, 24.100000, 111.500000, 0.000000, 0.000000, 145.500000, 12.400000, 40.500000, 84.000000, 0.014835, 0.003141, -0.713818, 1.745526, 1.056005, -0.441330, -0.000000, 0.000000, 0.000000, -0.000000, 12297829748976910336.000000, 13527612613923438592.000000, 14757395478869966848.000000, 238.633118, 238.633118, 3592.250000
2261.010576, 24.100000, 111.500000, 0.000000, 0.000000, 145.500000, 12.400000, 40.500000, 84.000000, 0.014835, 0.003141, -0.713818, 1.745526, 1.056005, -0.441330, -0.000000, 0.000000, 0.000000, -0.000000, 12297829748976910336.000000, 13527612613923438592.000000, 14757395478869966848.000000, 238.633118, 238.633118, 3592.250000
2261.111677, 24.100000, 111.500000, 0.000000, 0.000000, 145.500000, 12.400000, 40.500000, 84.000000, 0.014835, 0.003141, -0.713818, 1.745526, 1.056005, -0.441330, -0.000000, 0.000000, 0.000000, -0.000000, 12297829748976910336.000000, 13527612613923438592.000000, 14757395478869966848.000000, 238.633118, 238.633118, 3592.250000
2261.211728, 24.100000, 111.500000, 0.000000, 0.000000, 145.500000, 12.400000, 40.500000, 84.000000, 0.014835, 0.003141, -0.713818, 1.745526, 1.056005, -0.441330, -0.000000, 0.000000, 0.000000, -0.000000, 12297829748976910336.000000, 13527612613923438592.000000, 14757395478869966848.000000, 238.633118, 238.633118, 3592.250000
2261.312607, 24.100000, 111.500000, 0.000000, 0.000000, 145.500000, 12.400000, 40.500000, 84.000000, 0.014835, 0.003141, -0.713818, 1.745526, 1.056005, -0.441330, -0.000000, 0.000000, 0.000000, -0.000000, 12297829748976910336.000000, 13527612613923438592.000000, 14757395478869966848.000000, 238.633118, 238.633118, 3592.250000
2261.413462, 24.100000, 111.500000, 0.000000, 0.000000, 145.500000, 12.400000, 40.500000, 84.000000, 0.014835, 0.003141, -0.713818, 1.745526, 1.056005, -0.441330, -0.000000, 0.000000, 0.000000, -0.000000, 12297829748976910336.000000, 13527612613923438592.000000, 14757395478869966848.000000, 238.633118, 238.633118, 3592.250000
2261.514354, 24.100000, 111.500000, 0.000000, 0.000000, 145.500000, 12.400000, 40.500000, 84.000000, 0.014835, 0.003141, -0.713818, 1.745526, 1.056005, -0.441330, -0.000000, 0.000000, 0.000000, -0.000000, 12297829748976910336.000000, 13527612613923438592.000000, 14757395478869966848.000000, 238.633118, 238.633118, 3592.250000
2261.615240, 24.100000, 111.500000, 0.000000, 0.000000, 145.500000, 12.400000, 40.500000, 84.000000, 0.014835, 0.003141, -0.713818, 1.745526, 1.056005, -0.441330, -0.000000, 0.000000, 0.000000, -0.000000, 12297829748976910336.000000, 13527612613923438592.000000, 14757395478869966848.000000, 238.633118, 238.633118, 3592.250000
2261.716147, 24.100000, 111.500000, 0.000000, 0.000000, 145.500000, 12.400000, 40.500000, 84.000000, 0.014835, 0.003141, -0.713818, 1.745526, 1.056005, -0.441330, -0.000000, 0.000000, 0.000000, -0.000000, 12297829748976910336.000000, 13527612613923438592.000000, 14757395478869966848.000000, 238.633118, 238.633118, 3592.250000
2261.817256, 24.100000, 111.500000, 0.000000, 0.000000, 145.500000, 12.400000, 40.500000, 84.000000, 0.014835, 0.003141, -0.713818, 1.745526, 1.056005, -0.441330, -0.000000, 0.000000, 0.000000, -0.000000, 12297829748976910336.000000, 13527612613923438592.000000, 14757395478869966848.000000, 238.633118, 238.633118, 3592.250000
2261.918167, 24.100000, 111.500000, 0.000000, 0.000000, 145.500000, 12.400000, 40.500000, 84.000000, 0.014835, 0.003141, -0.713818, 1.745526, 1.056005, -0.441330, -0.000000, 0.000000, 0.000000, -0.000000, 12297829748976910336.000000, 13527612613923438592.000000, 14757395478869966848.000000, 238.633118, 238.633118, 3592.250000
2262.018942, 24.100000, 111.500000, 0.000000, 0.000000, 145.500000, 12.400000, 40.500000, 84.000000, 0.014835, 0.003141, -0.713818, 1.745526, 1.056005, -0.441330, -0.000000, 0.000000, 0.000000, -0.000000, 12297829748976910336.000000, 13527612613923438592.000000, 14757395478869966848.000000, 238.633118, 238.633118, 3592.250000
2262.119851, 24.100000, 111.500000, 0.000000, 0.000000, 145.500000, 12.400000, 40.500000, 84.000000, 0.014835, 0.003141, -0.713818, 1.745526, 1.056005, -0.441330, -0.000000, 0.000000, 0.000000, -0.000000, 12297829748976910336.000000, 13527612613923438592.000000, 14757395478869966848.000000, 238.633118, 238.633118, 3592.250000
2262.220796, 24.100000, 111.500000, 0.000000, 0.000000, 145.500000, 12.400000, 40.500000, 84.000000, 0.014835, 0.003141, -0.713818, 1.745526, 1.056005, -0.441330, -0.000000, 0.000000, 0.000000, -0.000000, 12297829748976910336.000000, 13527612613923438592.000000, 14757395478869966848.000000, 238.633118, 238.633118, 3592.250000
2262.320591, 24.100000, 111.500000, 0.000000, 0.000000, 145.500000, 12.400000, 40.500000, 84.000000, 0.014835, 0.003141, -0.713818, 1.745526, 1.056005, -0.441330, -0.000000, 0.000000, 0.000000, -0.000000, 12297829748976910336.000000, 13527612613923438592.000000, 14757395478869966848.000000, 238.633118, 238.633118, 3592.250000
2262.421319, 24.100000, 111.500000, 0.000000, 0.000000, 145.500000, 12.400000, 40.500000, 84.000000, 0.014835, 0.003141, -0.713818, 1.745526, 1.056005, -0.441330, -0.000000, 0.000000, 0.000000, -0.000000, 12297829748976910336.000000, 13527612613923438592.000000, 14757395478869966848.000000, 238.633118, 238.633118, 3592.250000
2262.521988, 24.100000, 111.500000, 0.000000, 0.000000, 145.500000, 12.400000, 40.500000, 84.000000, 0.014835, 0.003141, -0.713818, 1.745526, 1.056005, -0.441330, 0.000000, -0.000000, -0.000000, 0.000000, 12297829748976910336.000000, 13527612613923438592.000000, 14757395478869966848.000000, 238.633118, 238.633118, 3592.250000
2262.622570, 24.100000, 111.500000, 0.000000, 0.000000, 145.500000, 12.400000, 40.500000, 84.000000, 0.014835, 0.003141, -0.713818, 1.745526, 1.056005, -0.441330, 0.000000, -0.000000, -0.000000, 0.000000, 12297829748976910336.000000, 13527612613923438592.000000, 14757395478869966848.000000, 238.633118, 238.633118, 3592.250000
2262.723143, 24.100000, 111.500000, 0.000000, 0.000000, 145.500000, 12.400000, 40.500000, 84.000000, 0.014835, 0.003141, -0.713818, 1.745526, 1.056005, -0.441330, 0.000000, -0.000000, -0.000000, 0.000000, 12297829748976910336.000000, 13527612613923438592.000000, 14757395478869966848.000000, 238.633118, 238.633118, 3592.250000
2262.823795, 24.100000, 111.500000, 0.000000, 0.000000, 145.500000, 12.400000, 40.500000, 84.000000, 0.014835, 0.003141, -0.713818, 1.745526, 1.056005, -0.441330, 0.000000, -0.000000, -0.000000, 0.000000, 12297829748976910336.000000, 13527612613923438592.000000, 14757395478869966848.000000, 238.633118, 238.633118, 3592.250000
2262.924558, 24.100000, 111.500000, 0.000000, 0.000000, 145.500000, 12.400000, 40.500000, 84.000000, 0.014835, 0.003141, -0.713818, 1.745526, 1.056005, -0.441330, 0.000000, -0.000000, -0.000000, 0.000000, 12297829748976910336.000000, 13527612613923438592.000000, 14757395478869966848.000000, 238.633118, 238.633118, 3592.250000
2263.025525, 24.100000, 111.500000, 0.000000, 0.000000, 145.500000, 12.400000, 40.500000, 84.000000, 0.014835, 0.003141, -0.713818, 1.745526, 1.056005, -0.441330, 0.000000, -0.000000, -0.000000, 0.000000, 12297829748976910336.000000, 13527612613923438592.000000, 14757395478869966848.000000, 238.633118, 238.633118, 3592.250000
2263.126405, 24.100000, 111.500000, 0.000000, 0.000000, 145.500000, 12.400000, 40.500000, 84.000000, 0.014835, 0.003141, -0.713818, 1.745526, 1.056005, -0.441330, 0.000000, -0.000000, -0.000000, 0.000000, 12297829748976910336.000000, 13527612613923438592.000000, 14757395478869966848.000000, 238.633118, 238.633118, 3592.250000
2263.227208, 24.100000, 111.500000, 0.000000, 0.000000, 145.500000, 12.400000, 40.500000, 84.000000, 0.014835, 0.003141, -0.713818, 1.745526, 1.056005, -0.441330, 0.000000, -0.000000, -0.000000, 0.000000, 12297829748976910336.000000, 13527612613923438592.000000, 14757395478869966848.000000, 238.633118, 238.633118, 3592.250000
2263.327858, 24.100000, 111.500000, 0.000000, 0.000000, 145.500000, 12.400000, 40.500000, 84.000000, 0.014835, 0.003141, -0.713818, 1.745526, 1.056005, -0.441330, 0.000000, -0.000000, -0.000000, 0.000000, 12297829748976910336.000000, 13527612613923438592.000000, 14757395478869966848.000000, 238.633118, 238.633118, 3592.250000
2263.428786, 24.100000, 111.500000, 0.000000, 0.000000, 145.500000, 12.400000, 40.500000, 84.000000, 0.014835, 0.003141, -0.713818, 1.745526, 1.056005, -0.441330, 0.000000, -0.000000, -0.000000, 0.000000, 12297829748976910336.000000, 13527612613923438592.000000, 14757395478869966848.000000, 238.633118, 238.633118, 3592.250000
2263.528484, 24.100000, 111.500000, 0.000000, 0.000000, 145.500000, 12.400000, 40.500000, 84.000000, 0.014835, 0.003141, -0.713818, 1.745526, 1.056005, -0.441330, 0.000000, -0.000000, -0.000000, 0.000000, 12297829748976910336.000000, 13527612613923438592.000000, 14757395478869966848.000000, 238.633118, 238.633118, 3592.250000
2263.629515, 24.100000, 111.500000, 0.000000, 0.000000, 145.500000, 12.400000, 40.500000, 84.000000, 0.014835, 0.003141, -0.713818, 1.745526, 1.056005, -0.441330, 0.000000, -0.000000, -0.000000, 0.000000, 12297829748976910336.000000, 13527612613923438592.000000, 14757395478869966848.000000, 238.633118, 238.633118, 3592.250000
2263.730572, 24.100000, 111.500000, 0.000000, 0.000000, 145.500000, 12.400000, 40.500000, 84.000000, 0.014835, 0.003141, -0.713818, 1.745526, 1.056005, -0.441330, 0.000000, -0.000000, -0.000000, 0.000000, 12297829748976910336.000000, 13527612613923438592.000000, 14757395478869966848.000000, 238.633118, 238.633118, 3592.250000
2263.831461, 24.100000, 111.500000, 0.000000, 0.000000, 145.500000, 12.400000, 40.500000, 84.000000, 0.014835, 0.003141, -0.713818, 1.745526, 1.056005, -0.441330, 0.000000, -0.000000, -0.000000, 0.000000, 12297829748976910336.000000, 13527612613923438592.000000, 14757395478869966848.000000, 238.633118, 238.633118, 3592.250000
2263.932488, 24.100000, 111.500000, 0.000000, 0.000000, 145.500000, 12.400000, 40.500000, 84.000000, 0.014835, 0.003141, -0.713818, 1.745526, 1.056005, -0.441330, 0.000000, -0.000000, -0.000000, 0.000000, 12297829748976910336.000000, 13527612613923438592.000000, 14757395478869966848.000000, 238.633118, 238.633118, 3592.250000
2264.033576, 24.100000, 111.500000, 0.000000, 0.000000, 145.500000, 12.400000, 40.500000, 84.000000, 0.014835, 0.003141, -0.713818, 1.745526, 1.056005, -0.441330, 0.000000, -0.000000, -0.000000, 0.000000, 12297829748976910336.000000, 13527612613923438592.000000, 14757395478869966848.000000, 238.633118, 238.633118, 3592.250000
2264.134572, 24.100000, 111.500000, 0.000000, 0.000000, 145.500000, 12.400000, 40.500000, 84.000000, 0.014835, 0.003141, -0.713818, 1.745526, 1.056005, -0.441330, 0.000000, -0.000000, -0.000000, 0.000000, 12297829748976910336.000000, 13527612613923438592.000000, 14757395478869966848.000000, 238.633118, 238.633118, 3592.250000
2264.235515, 24.100000, 111.500000, 0.000000, 0.000000, 145.500000, 12.400000, 40.500000, 84.000000, 0.014835, 0.003141, -0.713818, 1.745526, 1.056005, -0.441330, 0.000000, -0.000000, -0.000000, 0.000000, 12297829748976910336.000000, 13527612613923438592.000000, 14757395478869966848.000000, 238.633118, 238.633118, 3592.250000
2264.336274, 24.100000, 111.500000, 0.000000, 0.000000, 145.500000, 12.400000, 40.500000, 84.000000, 0.014835, 0.003141, -0.713818, 1.745526, 1.056005, -0.441330, 0.000000, -0.000000, -0.000000, 0.000000, 12297829748976910336.000000, 13527612613923438592.000000, 14757395478869966848.000000, 238.633118, 238.633118, 3592.250000
2264.437359, 24.100000, 111.500000, 0.000000, 0.000000, 145.500000, 12.400000, 40.500000, 84.000000, 0.014835, 0.003141, -0.713818, 1.745526, 1.056005, -0.441330, 0.000000, -0.000000, -0.000000, 0.000000, 12297829748976910336.000000, 13527612613923438592.000000, 14757395478869966848.000000, 238.633118, 238.633118, 3592.250000
2264.538361, 24.100000, 111.500000, 0.000000, 0.000000, 145.500000, 12.400000, 40.500000, 84.000000, 0.014835, 0.003141, -0.713818, 1.745526, 1.056005, -0.441330, -0.000000, 0.000000, 0.000000, -0.000000, 12297829748976910336.000000, 13527612613923438592.000000, 14757395478869966848.000000, 238.633118, 238.633118, 3592.250000
2264.639381, 24.100000, 111.500000, 0.000000, 0.000000, 145.500000, 12.400000, 40.500000, 84.000000, 0.014835, 0.003141, -0.713818, 1.745526, 1.056005, -0.441330, -0.000000, 0.000000, 0.000000, -0.000000, 12297829748976910336.000000, 13527612613923438592.000000, 14757395478869966848.000000, 238.633118, 238.633118, 3592.250000
2264.740322, 24.100000, 111.500000, 0.000000, 0.000000, 145.500000, 12.400000, 40.500000, 84.000000, 0.014835, 0.003141, -0.713818, 1.745526, 1.056005, -0.441330, -0.000000, 0.000000, 0.000000, -0.000000, 12297829748976910336.000000, 13527612613923438592.000000, 14757395478869966848.000000, 238.633118, 238.633118, 3592.250000
2264.841217, 24.100000, 111.500000, 0.000000, 0.000000, 145.500000, 12.400000, 40.500000, 84.000000, 0.014835, 0.003141, -0.713818, 1.745526, 1.056005, -0.441330, -0.000000, 0.000000, 0.000000, -0.000000, 12297829748976910336.000000, 13527612613923438592.000000, 14757395478869966848.000000, 238.633118, 238.633118, 3592.250000
2264.942207, 24.100000, 111.500000, 0.000000, 0.000000, 145.500000, 12.400000, 40.500000, 84.000000, 0.014835, 0.003141, -0.713818, 1.745526, 1.056005, -0.441330, -0.000000, 0.000000, 0.000000, -0.000000, 12297829748976910336.000000, 13527612613923438592.000000, 14757395478869966848.000000, 238.633118, 238.633118, 3592.250000
2265.043174, 24.100000, 111.500000, 0.000000, 0.000000, 145.500000, 12.400000, 40.500000, 84.000000, 0.014835, 0.003141, -0.713818, 1.745526, 1.056005, -0.441330, -0.000000, 0.000000, 0.000000, -0.000000, 12297829748976910336.000000, 13527612613923438592.000000, 14757395478869966848.000000, 238.633118, 238.633118, 3592.250000
2265.143979, 24.100000, 111.500000, 0.000000, 0.000000, 145.500000, 12.400000, 40.500000, 84.000000, 0.014835, 0.003141, -0.713818, 1.745526, 1.056005, -0.441330, -0.000000, 0.000000, 0.000000, -0.000000, 12297829748976910336.000000, 13527612613923438592.000000, 14757395478869966848.000000, 238.633118, 238.633118, 3592.250000
2265.244914, 24.100000, 111.500000, 0.000000, 0.000000, 145.500000, 12.400000, 40.500000, 84.000000, 0.014835, 0.003141, -0.713818, 1.745526, 1.056005, -0.441330, -0.000000, 0.000000, 0.000000, -0.000000, 12297829748976910336.000000, 13527612613923438592.000000, 14757395478869966848.000000, 238.633118, 238.633118, 3592.250000
2265.344961, 24.100000, 111.500000, 0.000000, 0.000000, 145.500000, 12.400000, 40.500000, 84.000000, 0.014835, 0.003141, -0.713818, 1.745526, 1.056005, -0.441330, -0.000000, 0.000000, 0.000000, -0.000000, 12297829748976910336.000000, 13527612613923438592.000000, 14757395478869966848.000000, 238.633118, 238.633118, 3592.250000
2265.445792, 24.100000, 111.500000, 0.000000, 0.000000, 145.500000, 12.400000, 40.500000, 84.000000, 0.014835, 0.003141, -0.713818, 1.745526, 1.056005, -0.441330, -0.000000, 0.000000, 0.000000, -0.000000, 12297829748976910336.000000, 13527612613923438592.000000, 14757395478869966848.000000, 238.633118, 238.633118, 3592.250000
2265.545710, 24.100000, 111.500000, 0.000000, 0.000000, 145.500000, 12.400000, 40.500000, 84.000000, 0.014835, 0.003141, -0.713818, 1.745526, 1.056005, -0.441330, -0.000000, 0.000000, 0.000000, -0.000000, 12297829748976910336.000000, 13527612613923438592.000000, 14757395478869966848.000000, 238.633118, 238.633118, 3592.250000
2265.645556, 24.100000, 111.500000, 0.000000, 0.000000, 145.500000, 12.400000, 40.500000, 84.000000, 0.014835, 0.003141, -0.713818, 1.745526, 1.056005, -0.441330, -0.000000, 0.000000, 0.000000, -0.000000, 12297829748976910336.000000, 13527612613923438592.000000, 14757395478869966848.000000, 238.633118, 238.633118, 3592.250000
2265.746410, 24.100000, 111.500000, 0.000000, 0.000000, 145.500000, 12.400000, 40.500000, 84.000000, 0.014835, 0.003141, -0.713818, 1.745526, 1.056005, -0.441330, -0.000000, 0.000000, 0.000000, -0.000000, 12297829748976910336.000000, 13527612613923438592.000000, 14757395478869966848.000000, 238.633118, 238.633118, 3592.250000
2265.847028, 24.100000, 111.500000, 0.000000, 0.000000, 145.500000, 12.400000, 40.500000, 84.000000, 0.014835, 0.003141, -0.713818, 1.745526, 1.056005, -0.441330, -0.000000, 0.000000, 0.000000, -0.000000, 12297829748976910336.000000, 13527612613923438592.000000, 14757395478869966848.000000, 238.633118, 238.633118, 3592.250000
2265.947913, 24.100000, 111.500000, 0.000000, 0.000000, 145.500000, 12.400000, 40.500000, 84.000000, 0.014835, 0.003141, -0.713818, 1.745526, 1.056005, -0.441330, -0.000000, 0.000000, 0.000000, -0.000000, 12297829748976910336.000000, 13527612613923438592.000000, 14757395478869966848.000000, 238.633118, 238.633118, 3592.250000
2266.048664, 24.100000, 111.500000, 0.000000, 0.000000, 145.500000, 12.400000, 40.500000, 84.000000, 0.014835, 0.003141, -0.713818, 1.745526, 1.056005, -0.441330, -0.000000, 0.000000, 0.000000, -0.000000, 12297829748976910336.000000, 13527612613923438592.000000, 14757395478869966848.000000, 238.633118, 238.633118, 3592.250000
2266.149608, 24.100000, 111.500000, 0.000000, 0.000000, 145.500000, 12.400000, 40.500000, 84.000000, 0.014835, 0.003141, -0.713818, 1.745526, 1.056005, -0.441330, -0.000000, 0.000000, 0.000000, -0.000000, 12297829748976910336.000000, 13527612613923438592.000000, 14757395478869966848.000000, 238.633118, 238.633118, 3592.250000
2266.250523, 24.100000, 111.500000, 0.000000, 0.000000, 145.500000, 12.400000, 40.500000, 84.000000, 0.014835, 0.003141, -0.713818, 1.745526, 1.056005, -0.441330, -0.000000, 0.000000, 0.000000, -0.000000, 12297829748976910336.000000, 13527612613923438592.000000, 14757395478869966848.000000, 238.633118, 238.633118, 3592.250000
2266.351397, 24.100000, 111.500000, 0.000000, 0.000000, 145.500000, 12.400000, 40.500000, 84.000000, 0.014835, 0.003141, -0.713818, 1.745526, 1.056005, -0.441330, -0.000000, 0.000000, 0.000000, -0.000000, 12297829748976910336.000000, 13527612613923438592.000000, 14757395478869966848.000000, 238.633118, 238.633118, 3592.250000
2266.452256, 24.100000, 111.500000, 0.000000, 0.000000, 145.500000, 12.400000, 40.500000, 84.000000, 0.014835, 0.003141, -0.713818, 1.745526, 1.056005, -0.441330, -0.000000, 0.000000, 0.000000, -0.000000, 12297829748976910336.000000, 13527612613923438592.000000, 14757395478869966848.000000, 238.633118, 238.633118, 3592.250000
2266.553068, 24.100000, 111.500000, 0.000000, 0.000000, 145.500000, 12.400000, 40.500000, 84.000000, 0.014835, 0.003141, -0.713818, 1.745526, 1.056005, -0.441330, 0.000000, -0.000000, -0.000000, 0.000000, 12297829748976910336.000000, 13527612613923438592.000000, 14757395478869966848.000000, 238.633118, 238.633118, 3592.250000
2266.653769, 24.100000, 111.500000, 0.000000, 0.000000, 145.500000, 12.400000, 40.500000, 84.000000, 0.014835, 0.003141, -0.713818, 1.745526, 1.056005, -0.441330, 0.000000, -0.000000, -0.000000, 0.000000, 12297829748976910336.000000, 13527612613923438592.000000, 14757395478869966848.000000, 238.633118, 238.633118, 3592.250000
2266.753311, 24.100000, 111.500000, 0.000000, 0.000000, 145.500000, 12.400000, 40.500000, 84.000000, 0.014835, 0.003141, -0.713818, 1.745526, 1.056005, -0.441330, 0.000000, -0.000000, -0.000000, 0.000000, 12297829748976910336.000000, 13527612613923438592.000000, 14757395478869966848.000000, 238.633118, 238.633118, 3592.250000
2266.853947, 24.100000, 111.500000, 0.000000, 0.000000, 145.500000, 12.400000, 40.500000, 84.000000, 0.014835, 0.003141, -0.713818, 1.745526, 1.056005, -0.441330, 0.000000, -0.000000, -0.000000, 0.000000, 12297829748976910336.000000, 13527612613923438592.000000, 14757395478869966848.000000, 238.633118, 238.633118, 3592.250000
2266.954637, 24.100000, 111.500000, 0.000000, 0.000000, 145.500000, 12.400000, 40.500000, 84.000000, 0.014835, 0.003141, -0.713818, 1.745526, 1.056005, -0.441330, 0.000000, -0.000000, -0.000000, 0.000000, 12297829748976910336.000000, 13527612613923438592.000000, 14757395478869966848.000000, 238.633118, 238.633118, 3592.250000
2267.055171, 24.100000, 111.500000, 0.000000, 0.000000, 145.500000, 12.400000, 40.500000, 84.000000, 0.014835, 0.003141, -0.713818, 1.745526, 1.056005, -0.441330, 0.000000, -0.000000, -0.000000, 0.000000, 12297829748976910336.000000, 13527612613923438592.000000, 14757395478869966848.000000, 238.633118, 238.633118, 3592.250000
2267.156077, 24.100000, 111.500000, 0.000000, 0.000000, 145.500000, 12.400000, 40.500000, 84.000000, 0.014835, 0.003141, -0.713818, 1.745526, 1.056005, -0.441330, 0.000000, -0.000000, -0.000000, 0.000000, 12297829748976910336.000000, 13527612613923438592.000000, 14757395478869966848.000000, 238.633118, 238.633118, 3592.250000
2267.256944, 24.100000, 111.500000, 0.000000, 0.000000, 145.500000, 12.400000, 40.500000, 84.000000, 0.014835, 0.003141, -0.713818, 1.745526, 1.056005, -0.441330, 0.000000, -0.000000, -0.000000, 0.000000, 12297829748976910336.000000, 13527612613923438592.000000, 14757395478869966848.000000, 238.633118, 238.633118, 3592.250000
2267.357910, 24.100000, 111.500000, 0.000000, 0.000000, 145.500000, 12.400000, 40.500000, 84.000000, 0.014835, 0.003141, -0.713818, 1.745526, 1.056005, -0.441330, 0.000000, -0.000000, -0.000000, 0.000000, 12297829748976910336.000000, 13527612613923438592.000000, 14757395478869966848.000000, 238.633118, 238.633118, 3592.250000
2267.457883, 24.100000, 111.500000, 0.000000, 0.000000, 145.500000, 12.400000, 40.500000, 84.000000, 0.014835, 0.003141, -0.713818, 1.745526, 1.056005, -0.441330, 0.000000, -0.000000, -0.000000, 0.000000, 12297829748976910336.000000, 13527612613923438592.000000, 14757395478869966848.000000, 238.633118, 238.633118, 3592.250000
2267.557634, 24.100000, 111.500000, 0.000000, 0.000000, 145.500000, 12.400000, 40.500000, 84.000000, 0.014835, 0.003141, -0.713818, 1.745526, 1.056005, -0.441330, 0.000000, -0.000000, -0.000000, 0.000000, 12297829748976910336.000000, 13527612613923438592.000000, 14757395478869966848.000000, 238.633118, 238.633118, 3592.250000
2267.658281, 24.100000, 111.500000, 0.000000, 0.000000, 145.500000, 12.400000, 40.500000, 84.000000, 0.014835, 0.003141, -0.713818, 1.745526, 1.056005, -0.441330, 0.000000, -0.000000, -0.000000, 0.000000, 12297829748976910336.000000, 13527612613923438592.000000, 14757395478869966848.000000, 238.633118, 238.633118, 3592.250000
2267.759213, 24.100000, 111.500000, 0.000000, 0.000000, 145.500000, 12.400000, 40.500000, 84.000000, 0.014835, 0.003141, -0.713818, 1.745526, 1.056005, -0.441330, 0.000000, -0.000000, -0.000000, 0.000000, 12297829748976910336.000000, 13527612613923438592.000000, 14757395478869966848.000000, 238.633118, 238.633118, 3592.250000
2267.860237, 24.100000, 111.500000, 0.000000, 0.000000, 145.500000, 12.400000, 40.500000, 84.000000, 0.014835, 0.003141, -0.713818, 1.745526, 1.056005, -0.441330, 0.000000, -0.000000, -0.000000, 0.000000, 12297829748976910336.000000, 13527612613923438592.000000, 14757395478869966848.000000, 238.633118, 238.633118, 3592.250000
2267.961125, 24.100000, 111.500000, 0.000000, 0.000000, 145.500000, 12.400000, 40.500000, 84.000000, 0.014835, 0.003141, -0.713818, 1.745526, 1.056005, -0.441330, 0.000000, -0.000000, -0.000000, 0.000000, 12297829748976910336.000000, 13527612613923438592.000000, 14757395478869966848.000000, 238.633118, 238.633118, 3592.250000
2268.062069, 24.100000, 111.500000, 0.000000, 0.000000, 145.500000, 12.400000, 40.500000, 84.000000, 0.014835, 0.003141, -0.713818, 1.745526, 1.056005, -0.441330, 0.000000, -0.000000, -0.000000, 0.000000, 12297829748976910336.000000, 13527612613923438592.000000, 14757395478869966848.000000, 238.633118, 238.633118, 3592.250000
2268.162921, 24.100000, 111.500000, 0.000000, 0.000000, 145.500000, 12.400000, 40.500000, 84.000000, 0.014835, 0.003141, -0.713818, 1.745526, 1.056005, -0.441330, 0.000000, -0.000000, -0.000000, 0.000000, 12297829748976910336.000000, 13527612613923438592.000000, 14757395478869966848.000000, 238.633118, 238.633118, 3592.250000
2268.263850, 24.100000, 111.500000, 0.000000, 0.000000, 145.500000, 12.400000, 40.500000, 84.000000, 0.014835, 0.003141, -0.713818, 1.745526, 1.056005, -0.441330, 0.000000, -0.000000, -0.000000, 0.000000, 12297829748976910336.000000, 13527612613923438592.000000, 14757395478869966848.000000, 238.633118, 238.633118, 3592.250000
2268.363870, 24.100000, 111.500000, 0.000000, 0.000000, 145.500000, 12.400000, 40.500000, 84.000000, 0.014835, 0.003141, -0.713818, 1.745526, 1.056005, -0.441330, 0.000000, -0.000000, -0.000000, 0.000000, 12297829748976910336.000000, 13527612613923438592.000000, 14757395478869966848.000000, 238.633118, 238.633118, 3592.250000
2268.463839, 24.100000, 111.500000, 0.000000, 0.000000, 145.500000, 12.400000, 40.500000, 84.000000, 0.014835, 0.003141, -0.713818, 1.745526, 1.056005, -0.441330, 0.000000, -0.000000, -0.000000, 0.000000, 12297829748976910336.000000, 13527612613923438592.000000, 14757395478869966848.000000, 238.633118, 238.633118, 3592.250000
2268.563725, 24.100000, 111.500000, 0.000000, 0.000000, 145.500000, 12.400000, 40.500000, 84.000000, 0.014835, 0.003141, -0.713818, 1.745526, 1.056005, -0.441330, -0.000000, 0.000000, 0.000000, -0.000000, 12297829748976910336.000000, 13527612613923438592.000000, 14757395478869966848.000000, 238.633118, 238.633118, 3592.250000
2268.663918, 24.100000, 111.500000, 0.000000, 0.000000, 145.500000, 12.400000, 40.500000, 84.000000, 0.014835, 0.003141, -0.713818, 1.745526, 1.056005, -0.441330, -0.000000, 0.000000, 0.000000, -0.000000, 12297829748976910336.000000, 13527612613923438592.000000, 14757395478869966848.000000, 238.633118, 238.633118, 3592.250000
2268.763810, 24.100000, 111.500000, 0.000000, 0.000000, 145.500000, 12.400000, 40.500000, 84.000000, 0.014835, 0.003141, -0.713818, 1.745526, 1.056005, -0.441330, -0.000000, 0.000000, 0.000000, -0.000000, 12297829748976910336.000000, 13527612613923438592.000000, 14757395478869966848.000000, 238.633118, 238.633118, 3592.250000
2268.863740, 24.100000, 111.500000, 0.000000, 0.000000, 145.500000, 12.400000, 40.500000, 84.000000, 0.014835, 0.003141, -0.713818, 1.745526, 1.056005, -0.441330, -0.000000, 0.000000, 0.000000, -0.000000, 12297829748976910336.000000, 13527612613923438592.000000, 14757395478869966848.000000, 238.633118, 238.633118, 3592.250000
2268.963806, 24.100000, 111.500000, 0.000000, 0.000000, 145.500000, 12.400000, 40.500000, 84.000000, 0.014835, 0.003141, -0.713818, 1.745526, 1.056005, -0.441330, -0.000000, 0.000000, 0.000000, -0.000000, 12297829748976910336.000000, 13527612613923438592.000000, 14757395478869966848.000000, 238.633118, 238.633118, 3592.250000
2269.063887, 24.100000, 111.500000, 0.000000, 0.000000, 145.500000, 12.400000, 40.500000, 84.000000, 0.014835, 0.003141, -0.713818, 1.745526, 1.056005, -0.441330, -0.000000, 0.000000, 0.000000, -0.000000, 12297829748976910336.000000, 13527612613923438592.000000, 14757395478869966848.000000, 238.633118, 238.633118, 3592.250000
2269.163737, 24.100000, 111.500000, 0.000000, 0.000000, 145.500000, 12.400000, 40.500000, 84.000000, 0.014835, 0.003141, -0.713818, 1.745526, 1.056005, -0.441330, -0.000000, 0.000000, 0.000000, -0.000000, 12297829748976910336.000000, 13527612613923438592.000000, 14757395478869966848.000000, 238.633118, 238.633118, 3592.250000
2269.263581, 24.100000, 111.500000, 0.000000, 0.000000, 145.500000, 12.400000, 40.500000, 84.000000, 0.014835, 0.003141, -0.713818, 1.745526, 1.056005, -0.441330, -0.000000, 0.000000, 0.000000, -0.000000, 12297829748976910336.000000, 13527612613923438592.000000, 14757395478869966848.000000, 238.633118, 238.633118, 3592.250000
2269.364431, 24.100000, 111.500000, 0.000000, 0.000000, 145.500000, 12.400000, 40.500000, 84.000000, 0.014835, 0.003141, -0.713818, 1.745526, 1.056005, -0.441330, -0.000000, 0.000000, 0.000000, -0.000000, 12297829748976910336.000000, 13527612613923438592.000000, 14757395478869966848.000000, 238.633118, 238.633118, 3592.250000
2269.465416, 24.100000, 111.500000, 0.000000, 0.000000, 145.500000, 12.400000, 40.500000, 84.000000, 0.014835, 0.003141, -0.713818, 1.745526, 1.056005, -0.441330, -0.000000, 0.000000, 0.000000, -0.000000, 12297829748976910336.000000, 13527612613923438592.000000, 14757395478869966848.000000, 238.633118, 238.633118, 3592.250000
2269.566395, 24.100000, 111.500000, 0.000000, 0.000000, 145.500000, 12.400000, 40.500000, 84.000000, 0.014835, 0.003141, -0.713818, 1.745526, 1.056005, -0.441330, -0.000000, 0.000000, 0.000000, -0.000000, 12297829748976910336.000000, 13527612613923438592.000000, 14757395478869966848.000000, 238.633118, 238.633118, 3592.250000
2269.667233, 24.100000, 111.500000, 0.000000, 0.000000, 145.500000, 12.400000, 40.500000, 84.000000, 0.014835, 0.003141, -0.713818, 1.745526, 1.056005, -0.441330, -0.000000, 0.000000, 0.000000, -0.000000, 12297829748976910336.000000, 13527612613923438592.000000, 14757395478869966848.000000, 238.633118, 238.633118, 3592.250000
2269.768089, 24.100000, 111.500000, 0.000000, 0.000000, 145.500000, 12.400000, 40.500000, 84.000000, 0.014835, 0.003141, -0.713818, 1.745526, 1.056005, -0.441330, -0.000000, 0.000000, 0.000000, -0.000000, 12297829748976910336.000000, 13527612613923438592.000000, 14757395478869966848.000000, 238.633118, 238.633118, 3592.250000
2269.868913, 24.100000, 111.500000, 0.000000, 0.000000, 145.500000, 12.400000, 40.500000, 84.000000, 0.014835, 0.003141, -0.713818, 1.745526, 1.056005, -0.441330, -0.000000, 0.000000, 0.000000, -0.000000, 12297829748976910336.000000, 13527612613923438592.000000, 14757395478869966848.000000, 238.633118, 238.633118, 3592.250000
2269.969565, 24.100000, 111.500000, 0.000000, 0.000000, 145.500000, 12.400000, 40.500000, 84.000000, 0.014835, 0.003141, -0.713818, 1.745526, 1.056005, -0.441330, -0.000000, 0.000000, 0.000000, -0.000000, 12297829748976910336.000000, 13527612613923438592.000000, 14757395478869966848.000000, 238.633118, 238.633118, 3592.250000
2270.070255, 24.100000, 111.500000, 0.000000, 0.000000, 145.500000, 12.400000, 40.500000, 84.000000, 0.014835, 0.003141, -0.713818, 1.745526, 1.056005, -0.441330, -0.000000, 0.000000, 0.000000, -0.000000, 12297829748976910336.000000, 13527612613923438592.000000, 14757395478869966848.000000, 238.633118, 238.633118, 3592.250000
2270.170864, 24.100000, 111.500000, 0.000000, 0.000000, 145.500000, 12.400000, 40.500000, 84.000000, 0.014835, 0.003141, -0.713818, 1.745526, 1.056005, -0.441330, -0.000000, 0.000000, 0.000000, -0.000000, 12297829748976910336.000000, 13527612613923438592.000000, 14757395478869966848.000000, 238.633118, 238.633118, 3592.250000
2270.270819, 24.100000, 111.500000, 0.000000, 0.000000, 145.500000, 12.400000, 40.500000, 84.000000, 0.014835, 0.003141, -0.713818, 1.745526, 1.056005, -0.441330, -0.000000, 0.000000, 0.000000, -0.000000, 12297829748976910336.000000, 13527612613923438592.000000, 14757395478869966848.000000, 238.633118, 238.633118, 3592.250000
2270.371504, 24.100000, 111.500000, 0.000000, 0.000000, 145.500000, 12.400000, 40.500000, 84.000000, 0.014835, 0.003141, -0.713818, 1.745526, 1.056005, -0.441330, -0.000000, 0.000000, 0.000000, -0.000000, 12297829748976910336.000000, 13527612613923438592.000000, 14757395478869966848.000000, 238.633118, 238.633118, 3592.250000
2270.472127, 24.100000, 111.500000, 0.000000, 0.000000, 145.500000, 12.400000, 40.500000, 84.000000, 0.014835, 0.003141, -0.713818, 1.745526, 1.056005, -0.441330, -0.000000, 0.000000, 0.000000, -0.000000, 12297829748976910336.000000, 13527612613923438592.000000, 14757395478869966848.000000, 238.633118, 238.633118, 3592.250000
2270.572993, 24.100000, 111.500000, 0.000000, 0.000000, 145.500000, 12.400000, 40.500000, 84.000000, 0.014835, 0.003141, -0.713818, 1.745526, 1.056005, -0.441330, 0.000000, -0.000000, -0.000000, 0.000000, 12297829748976910336.000000, 13527612613923438592.000000, 14757395478869966848.000000, 238.633118, 238.633118, 3592.250000
2270.673779, 24.100000, 111.500000, 0.000000, 0.000000, 145.500000, 12.400000, 40.500000, 84.000000, 0.014835, 0.003141, -0.713818, 1.745526, 1.056005, -0.441330, 0.000000, -0.000000, -0.000000, 0.000000, 12297829748976910336.000000, 13527612613923438592.000000, 14757395478869966848.000000, 238.633118, 238.633118, 3592.250000
2270.773402, 24.100000, 111.500000, 0.000000, 0.000000, 145.500000, 12.400000, 40.500000, 84.000000, 0.014835, 0.003141, -0.713818, 1.745526, 1.056005, -0.441330, 0.000000, -0.000000, -0.000000, 0.000000, 12297829748976910336.000000, 13527612613923438592.000000, 14757395478869966848.000000, 238.633118, 238.633118, 3592.250000
2270.874188, 24.100000, 111.500000, 0.000000, 0.000000, 145.500000, 12.400000, 40.500000, 84.000000, 0.014835, 0.003141, -0.713818, 1.745526, 1.056005, -0.441330, 0.000000, -0.000000, -0.000000, 0.000000, 12297829748976910336.000000, 13527612613923438592.000000, 14757395478869966848.000000, 238.633118, 238.633118, 3592.250000
2270.975049, 24.100000, 111.500000, 0.000000, 0.000000, 145.500000, 12.400000, 40.500000, 84.000000, 0.014835, 0.003141, -0.713818, 1.745526, 1.056005, -0.441330, 0.000000, -0.000000, -0.000000, 0.000000, 12297829748976910336.000000, 13527612613923438592.000000, 14757395478869966848.000000, 238.633118, 238.633118, 3592.250000
2271.076066, 24.100000, 111.500000, 0.000000, 0.000000, 145.500000, 12.400000, 40.500000, 84.000000, 0.014835, 0.003141, -0.713818, 1.745526, 1.056005, -0.441330, 0.000000, -0.000000, -0.000000, 0.000000, 12297829748976910336.000000, 13527612613923438592.000000, 14757395478869966848.000000, 238.633118, 238.633118, 3592.250000
2271.177072, 24.100000, 111.500000, 0.000000, 0.000000, 145.500000, 12.400000, 40.500000, 84.000000, 0.014835, 0.003141, -0.713818, 1.745526, 1.056005, -0.441330, 0.000000, -0.000000, -0.000000, 0.000000, 12297829748976910336.000000, 13527612613923438592.000000, 14757395478869966848.000000, 238.633118, 238.633118, 3592.250000
2271.277845, 24.100000, 111.500000, 0.000000, 0.000000, 145.500000, 12.400000, 40.500000, 84.000000, 0.014835, 0.003141, -0.713818, 1.745526, 1.056005, -0.441330, 0.000000, -0.000000, -0.000000, 0.000000, 12297829748976910336.000000, 13527612613923438592.000000, 14757395478869966848.000000, 238.633118, 238.633118, 3592.250000
2271.377780, 24.100000, 111.500000, 0.000000, 0.000000, 145.500000, 12.400000, 40.500000, 84.000000, 0.014835, 0.003141, -0.713818, 1.745526, 1.056005, -0.441330, 0.000000, -0.000000, -0.000000, 0.000000, 12297829748976910336.000000, 13527612613923438592.000000, 14757395478869966848.000000, 238.633118, 238.633118, 3592.250000
2271.478790, 24.100000, 111.500000, 0.000000, 0.000000, 145.500000, 12.400000, 40.500000, 84.000000, 0.014835, 0.003141, -0.713818, 1.745526, 1.056005, -0.441330, 0.000000, -0.000000, -0.000000, 0.000000, 12297829748976910336.000000, 13527612613923438592.000000, 14757395478869966848.000000, 238.633118, 238.633118, 3592.250000
2271.578524, 24.100000, 111.500000, 0.000000, 0.000000, 145.500000, 12.400000, 40.500000, 84.000000, 0.014835, 0.003141, -0.713818, 1.745526, 1.056005, -0.441330, 0.000000, -0.000000, -0.000000, 0.000000, 12297829748976910336.000000, 13527612613923438592.000000, 14757395478869966848.000000, 238.633118, 238.633118, 3592.250000
2271.679353, 24.100000, 111.500000, 0.000000, 0.000000, 145.500000, 12.400000, 40.500000, 84.000000, 0.014835, 0.003141, -0.713818, 1.745526, 1.056005, -0.441330, 0.000000, -0.000000, -0.000000, 0.000000, 12297829748976910336.000000, 13527612613923438592.000000, 14757395478869966848.000000, 238.633118, 238.633118, 3592.250000
2271.780269, 24.100000, 111.500000, 0.000000, 0.000000, 145.500000, 12.400000, 40.500000, 84.000000, 0.014835, 0.003141, -0.713818, 1.745526, 1.056005, -0.441330, 0.000000, -0.000000, -0.000000, 0.000000, 12297829748976910336.000000, 13527612613923438592.000000, 14757395478869966848.000000, 238.633118, 238.633118, 3592.250000
2271.881029, 24.100000, 111.500000, 0.000000, 0.000000, 145.500000, 12.400000, 40.500000, 84.000000, 0.014835, 0.003141, -0.713818, 1.745526, 1.056005, -0.441330, 0.000000, -0.000000, -0.000000, 0.000000, 12297829748976910336.000000, 13527612613923438592.000000, 14757395478869966848.000000, 238.633118, 238.633118, 3592.250000
2271.981930, 24.100000, 111.500000, 0.000000, 0.000000, 145.500000, 12.400000, 40.500000, 84.000000, 0.014835, 0.003141, -0.713818, 1.745526, 1.056005, -0.441330, 0.000000, -0.000000, -0.000000, 0.000000, 12297829748976910336.000000, 13527612613923438592.000000, 14757395478869966848.000000, 238.633118, 238.633118, 3592.250000
2272.081675, 24.100000, 111.500000, 0.000000, 0.000000, 145.500000, 12.400000, 40.500000, 84.000000, 0.014835, 0.003141, -0.713818, 1.745526, 1.056005, -0.441330, 0.000000, -0.000000, -0.000000, 0.000000, 12297829748976910336.000000, 13527612613923438592.000000, 14757395478869966848.000000, 238.633118, 238.633118, 3592.250000
2272.182587, 24.100000, 111.500000, 0.000000, 0.000000, 145.500000, 12.400000, 40.500000, 84.000000, 0.014835, 0.003141, -0.713818, 1.745526, 1.056005, -0.441330, 0.000000, -0.000000, -0.000000, 0.000000, 12297829748976910336.000000, 13527612613923438592.000000, 14757395478869966848.000000, 238.633118, 238.633118, 3592.250000
2272.283628, 24.100000, 111.500000, 0.000000, 0.000000, 145.500000, 12.400000, 40.500000, 84.000000, 0.014835, 0.003141, -0.713818, 1.745526, 1.056005, -0.441330, 0.000000, -0.000000, -0.000000, 0.000000, 12297829748976910336.000000, 13527612613923438592.000000, 14757395478869966848.000000, 238.633118, 238.633118, 3592.250000
2272.384498, 24.100000, 111.500000, 0.000000, 0.000000, 145.500000, 12.400000, 40.500000, 84.000000, 0.014835, 0.003141, -0.713818, 1.745526, 1.056005, -0.441330, 0.000000, -0.000000, -0.000000, 0.000000, 12297829748976910336.000000, 13527612613923438592.000000, 14757395478869966848.000000, 238.633118, 238.633118, 3592.250000
2272.485452, 24.100000, 111.500000, 0.000000, 0.000000, 145.500000, 12.400000, 40.500000, 84.000000, 0.014835, 0.003141, -0.713818, 1.745526, 1.056005, -0.441330, 0.000000, -0.000000, -0.000000, 0.000000, 12297829748976910336.000000, 13527612613923438592.000000, 14757395478869966848.000000, 238.633118, 238.633118, 3592.250000
2272.586436, 24.100000, 111.500000, 0.000000, 0.000000, 145.500000, 12.400000, 40.500000, 84.000000, 0.014835, 0.003141, -0.713818, 1.745526, 1.056005, -0.441330, -0.000000, 0.000000, 0.000000, -0.000000, 12297829748976910336.000000, 13527612613923438592.000000, 14757395478869966848.000000, 238.633118, 238.633118, 3592.250000
2272.687244, 24.100000, 111.500000, 0.000000, 0.000000, 145.500000, 12.400000, 40.500000, 84.000000, 0.014835, 0.003141, -0.713818, 1.745526, 1.056005, -0.441330, -0.000000, 0.000000, 0.000000, -0.000000, 12297829748976910336.000000, 13527612613923438592.000000, 14757395478869966848.000000, 238.633118, 238.633118, 3592.250000
2272.788084, 24.100000, 111.500000, 0.000000, 0.000000, 145.500000, 12.400000, 40.500000, 84.000000, 0.014835, 0.003141, -0.713818, 1.745526, 1.056005, -0.441330, -0.000000, 0.000000, 0.000000, -0.000000, 12297829748976910336.000000, 13527612613923438592.000000, 14757395478869966848.000000, 238.633118, 238.633118, 3592.250000
2272.888894, 24.100000, 111.500000, 0.000000, 0.000000, 145.500000, 12.400000, 40.500000, 84.000000, 0.014835, 0.003141, -0.713818, 1.745526, 1.056005, -0.441330, -0.000000, 0.000000, 0.000000, -0.000000, 12297829748976910336.000000, 13527612613923438592.000000, 14757395478869966848.000000, 238.633118, 238.633118, 3592.250000
2272.989612, 24.100000, 111.500000, 0.000000, 0.000000, 145.500000, 12.400000, 40.500000, 84.000000, 0.014835, 0.003141, -0.713818, 1.745526, 1.056005, -0.441330, -0.000000, 0.000000, 0.000000, -0.000000, 12297829748976910336.000000, 13527612613923438592.000000, 14757395478869966848.000000, 238.633118, 238.633118, 3592.250000
2273.090291, 24.100000, 111.500000, 0.000000, 0.000000, 145.500000, 12.400000, 40.500000, 84.000000, 0.014835, 0.003141, -0.713818, 1.745526, 1.056005, -0.441330, -0.000000, 0.000000, 0.000000, -0.000000, 12297829748976910336.000000, 13527612613923438592.000000, 14757395478869966848.000000, 238.633118, 238.633118, 3592.250000
2273.191194, 24.100000, 111.500000, 0.000000, 0.000000, 145.500000, 12.400000, 40.500000, 84.000000, 0.014835, 0.003141, -0.713818, 1.745526, 1.056005, -0.441330, -0.000000, 0.000000, 0.000000, -0.000000, 12297829748976910336.000000, 13527612613923438592.000000, 14757395478869966848.000000, 238.633118, 238.633118, 3592.250000
2273.292005, 24.100000, 111.500000, 0.000000, 0.000000, 145.500000, 12.400000, 40.500000, 84.000000, 0.014835, 0.003141, -0.713818, 1.745526, 1.056005, -0.441330, -0.000000, 0.000000, 0.000000, -0.000000, 12297829748976910336.000000, 13527612613923438592.000000, 14757395478869966848.000000, 238.633118, 238.633118, 3592.250000
2273.392714, 24.100000, 111.500000, 0.000000, 0.000000, 145.500000, 12.400000, 40.500000, 84.000000, 0.014835, 0.003141, -0.713818, 1.745526, 1.056005, -0.441330, -0.000000, 0.000000, 0.000000, -0.000000, 12297829748976910336.000000, 13527612613923438592.000000, 14757395478869966848.000000, 238.633118, 238.633118, 3592.250000
2273.493547, 24.100000, 111.500000, 0.000000, 0.000000, 145.500000, 12.400000, 40.500000, 84.000000, 0.014835, 0.003141, -0.713818, 1.745526, 1.056005, -0.441330, -0.000000, 0.000000, 0.000000, -0.000000, 12297829748976910336.000000, 13527612613923438592.000000, 14757395478869966848.000000, 238.633118, 238.633118, 3592.250000
2273.594350, 24.100000, 111.500000, 0.000000, 0.000000, 145.500000, 12.400000, 40.500000, 84.000000, 0.014835, 0.003141, -0.713818, 1.745526, 1.056005, -0.441330, -0.000000, 0.000000, 0.000000, -0.000000, 12297829748976910336.000000, 13527612613923438592.000000, 14757395478869966848.000000, 238.633118, 238.633118, 3592.250000
2273.695343, 24.100000, 111.500000, 0.000000, 0.000000, 145.500000, 12.400000, 40.500000, 84.000000, 0.014835, 0.003141, -0.713818, 1.745526, 1.056005, -0.441330, -0.000000, 0.000000, 0.000000, -0.000000, 12297829748976910336.000000, 13527612613923438592.000000, 14757395478869966848.000000, 238.633118, 238.633118, 3592.250000
2273.796466, 24.100000, 111.500000, 0.000000, 0.000000, 145.500000, 12.400000, 40.500000, 84.000000, 0.014835, 0.003141, -0.713818, 1.745526, 1.056005, -0.441330, -0.000000, 0.000000, 0.000000, -0.000000, 12297829748976910336.000000, 13527612613923438592.000000, 14757395478869966848.000000, 238.633118, 238.633118, 3592.250000
2273.897300, 24.100000, 111.500000, 0.000000, 0.000000, 145.500000, 12.400000, 40.500000, 84.000000, 0.014835, 0.003141, -0.713818, 1.745526, 1.056005, -0.441330, -0.000000, 0.000000, 0.000000, -0.000000, 12297829748976910336.000000, 13527612613923438592.000000, 14757395478869966848.000000, 238.633118, 238.633118, 3592.250000
2273.997997, 24.100000, 111.500000, 0.000000, 0.000000, 145.500000, 12.400000, 40.500000, 84.000000, 0.014835, 0.003141, -0.713818, 1.745526, 1.056005, -0.441330, -0.000000, 0.000000, 0.000000, -0.000000, 12297829748976910336.000000, 13527612613923438592.000000, 14757395478869966848.000000, 238.633118, 238.633118, 3592.250000
2274.098994, 24.100000, 111.500000, 0.000000, 0.000000, 145.500000, 12.400000, 40.500000, 84.000000, 0.014835, 0.003141, -0.713818, 1.745526, 1.056005, -0.441330, -0.000000, 0.000000, 0.000000, -0.000000, 12297829748976910336.000000, 13527612613923438592.000000, 14757395478869966848.000000, 238.633118, 238.633118, 3592.250000
2274.199819, 24.100000, 111.500000, 0.000000, 0.000000, 145.500000, 12.400000, 40.500000, 84.000000, 0.014835, 0.003141, -0.713818, 1.745526, 1.056005, -0.441330, -0.000000, 0.000000, 0.000000, -0.000000, 12297829748976910336.000000, 13527612613923438592.000000, 14757395478869966848.000000, 238.633118, 238.633118, 3592.250000
2274.300806, 24.100000, 111.500000, 0.000000, 0.000000, 145.500000, 12.400000, 40.500000, 84.000000, 0.014835, 0.003141, -0.713818, 1.745526, 1.056005, -0.441330, -0.000000, 0.000000, 0.000000, -0.000000, 12297829748976910336.000000, 13527612613923438592.000000, 14757395478869966848.000000, 238.633118, 238.633118, 3592.250000
2274.400873, 24.100000, 111.500000, 0.000000, 0.000000, 145.500000, 12.400000, 40.500000, 84.000000, 0.014835, 0.003141, -0.713818, 1.745526, 1.056005, -0.441330, -0.000000, 0.000000, 0.000000, -0.000000, 12297829748976910336.000000, 13527612613923438592.000000, 14757395478869966848.000000, 238.633118, 238.633118, 3592.250000
2274.500710, 24.100000, 111.500000, 0.000000, 0.000000, 145.500000, 12.400000, 40.500000, 84.000000, 0.014835, 0.003141, -0.713818, 1.745526, 1.056005, -0.441330, -0.000000, 0.000000, 0.000000, -0.000000, 12297829748976910336.000000, 13527612613923438592.000000, 14757395478869966848.000000, 238.633118, 238.633118, 3592.250000
2274.601593, 24.100000, 111.500000, 0.000000, 0.000000, 145.500000, 12.400000, 40.500000, 84.000000, 0.014835, 0.003141, -0.713818, 1.745526, 1.056005, -0.441330, 0.000000, -0.000000, -0.000000, 0.000000, 12297829748976910336.000000, 13527612613923438592.000000, 14757395478869966848.000000, 238.633118, 238.633118, 3592.250000
2274.702632, 24.100000, 111.500000, 0.000000, 0.000000, 145.500000, 12.400000, 40.500000, 84.000000, 0.014835, 0.003141, -0.713818, 1.745526, 1.056005, -0.441330, 0.000000, -0.000000, -0.000000, 0.000000, 12297829748976910336.000000, 13527612613923438592.000000, 14757395478869966848.000000, 238.633118, 238.633118, 3592.250000
2274.803508, 24.100000, 111.500000, 0.000000, 0.000000, 145.500000, 12.400000, 40.500000, 84.000000, 0.014835, 0.003141, -0.713818, 1.745526, 1.056005, -0.441330, 0.000000, -0.000000, -0.000000, 0.000000, 12297829748976910336.000000, 13527612613923438592.000000, 14757395478869966848.000000, 238.633118, 238.633118, 3592.250000
2274.904483, 24.100000, 111.500000, 0.000000, 0.000000, 145.500000, 12.400000, 40.500000, 84.000000, 0.014835, 0.003141, -0.713818, 1.745526, 1.056005, -0.441330, 0.000000, -0.000000, -0.000000, 0.000000, 12297829748976910336.000000, 13527612613923438592.000000, 14757395478869966848.000000, 238.633118, 238.633118, 3592.250000
2275.005659, 24.100000, 111.500000, 0.000000, 0.000000, 145.500000, 12.400000, 40.500000, 84.000000, 0.014835, 0.003141, -0.713818, 1.745526, 1.056005, -0.441330, 0.000000, -0.000000, -0.000000, 0.000000, 12297829748976910336.000000, 13527612613923438592.000000, 14757395478869966848.000000, 238.633118, 238.633118, 3592.250000
2275.106774, 24.100000, 111.500000, 0.000000, 0.000000, 145.500000, 12.400000, 40.500000, 84.000000, 0.014835, 0.003141, -0.713818, 1.745526, 1.056005, -0.441330, 0.000000, -0.000000, -0.000000, 0.000000, 12297829748976910336.000000, 13527612613923438592.000000, 14757395478869966848.000000, 238.633118, 238.633118, 3592.250000
2275.207029, 24.100000, 111.500000, 0.000000, 0.000000, 145.500000, 12.400000, 40.500000, 84.000000, 0.014835, 0.003141, -0.713818, 1.745526, 1.056005, -0.441330, 0.000000, -0.000000, -0.000000, 0.000000, 12297829748976910336.000000, 13527612613923438592.000000, 14757395478869966848.000000, 238.633118, 238.633118, 3592.250000
2275.308255, 24.100000, 111.500000, 0.000000, 0.000000, 145.500000, 12.400000, 40.500000, 84.000000, 0.014835, 0.003141, -0.713818, 1.745526, 1.056005, -0.441330, 0.000000, -0.000000, -0.000000, 0.000000, 12297829748976910336.000000, 13527612613923438592.000000, 14757395478869966848.000000, 238.633118, 238.633118, 3592.250000
2275.409337, 24.100000, 111.500000, 0.000000, 0.000000, 145.500000, 12.400000, 40.500000, 84.000000, 0.014835, 0.003141, -0.713818, 1.745526, 1.056005, -0.441330, 0.000000, -0.000000, -0.000000, 0.000000, 12297829748976910336.000000, 13527612613923438592.000000, 14757395478869966848.000000, 238.633118, 238.633118, 3592.250000
2275.510515, 24.100000, 111.500000, 0.000000, 0.000000, 145.500000, 12.400000, 40.500000, 84.000000, 0.014835, 0.003141, -0.713818, 1.745526, 1.056005, -0.441330, 0.000000, -0.000000, -0.000000, 0.000000, 12297829748976910336.000000, 13527612613923438592.000000, 14757395478869966848.000000, 238.633118, 238.633118, 3592.250000
2275.611473, 24.100000, 111.500000, 0.000000, 0.000000, 145.500000, 12.400000, 40.500000, 84.000000, 0.014835, 0.003141, -0.713818, 1.745526, 1.056005, -0.441330, 0.000000, -0.000000, -0.000000, 0.000000, 12297829748976910336.000000, 13527612613923438592.000000, 14757395478869966848.000000, 238.633118, 238.633118, 3592.250000
2275.712261, 24.100000, 111.500000, 0.000000, 0.000000, 145.500000, 12.400000, 40.500000, 84.000000, 0.014835, 0.003141, -0.713818, 1.745526, 1.056005, -0.441330, 0.000000, -0.000000, -0.000000, 0.000000, 12297829748976910336.000000, 13527612613923438592.000000, 14757395478869966848.000000, 238.633118, 238.633118, 3592.250000
2275.813214, 24.100000, 111.500000, 0.000000, 0.000000, 145.500000, 12.400000, 40.500000, 84.000000, 0.014835, 0.003141, -0.713818, 1.745526, 1.056005, -0.441330, 0.000000, -0.000000, -0.000000, 0.000000, 12297829748976910336.000000, 13527612613923438592.000000, 14757395478869966848.000000, 238.633118, 238.633118, 3592.250000
2275.914029, 24.100000, 111.500000, 0.000000, 0.000000, 145.500000, 12.400000, 40.500000, 84.000000, 0.014835, 0.003141, -0.713818, 1.745526, 1.056005, -0.441330, 0.000000, -0.000000, -0.000000, 0.000000, 12297829748976910336.000000, 13527612613923438592.000000, 14757395478869966848.000000, 238.633118, 238.633118, 3592.250000
2276.015060, 24.100000, 111.500000, 0.000000, 0.000000, 145.500000, 12.400000, 40.500000, 84.000000, 0.014835, 0.003141, -0.713818, 1.745526, 1.056005, -0.441330, 0.000000, -0.000000, -0.000000, 0.000000, 12297829748976910336.000000, 13527612613923438592.000000, 14757395478869966848.000000, 238.633118, 238.633118, 3592.250000
2276.115869, 24.100000, 111.500000, 0.000000, 0.000000, 145.500000, 12.400000, 40.500000, 84.000000, 0.014835, 0.003141, -0.713818, 1.745526, 1.056005, -0.441330, 0.000000, -0.000000, -0.000000, 0.000000, 12297829748976910336.000000, 13527612613923438592.000000, 14757395478869966848.000000, 238.633118, 238.633118, 3592.250000
2276.215812, 24.100000, 111.500000, 0.000000, 0.000000, 145.500000, 12.400000, 40.500000, 84.000000, 0.014835, 0.003141, -0.713818, 1.745526, 1.056005, -0.441330, 0.000000, -0.000000, -0.000000, 0.000000, 12297829748976910336.000000, 13527612613923438592.000000, 14757395478869966848.000000, 238.633118, 238.633118, 3592.250000
2276.316656, 24.100000, 111.500000, 0.000000, 0.000000, 145.500000, 12.400000, 40.500000, 84.000000, 0.014835, 0.003141, -0.713818, 1.745526, 1.056005, -0.441330, 0.000000, -0.000000, -0.000000, 0.000000, 12297829748976910336.000000, 13527612613923438592.000000, 14757395478869966848.000000, 238.633118, 238.633118, 3592.250000
2276.417628, 24.100000, 111.500000, 0.000000, 0.000000, 145.500000, 12.400000, 40.500000, 84.000000, 0.014835, 0.003141, -0.713818, 1.745526, 1.056005, -0.441330, 0.000000, -0.000000, -0.000000, 0.000000, 12297829748976910336.000000, 13527612613923438592.000000, 14757395478869966848.000000, 238.633118, 238.633118, 3592.250000
2276.518367, 24.100000, 111.500000, 0.000000, 0.000000, 145.500000, 12.400000, 40.500000, 84.000000, 0.014835, 0.003141, -0.713818, 1.745526, 1.056005, -0.441330, 0.000000, -0.000000, -0.000000, 0.000000, 12297829748976910336.000000, 13527612613923438592.000000, 14757395478869966848.000000, 238.633118, 238.633118, 3592.250000
2276.619089, 24.100000, 111.500000, 0.000000, 0.000000, 145.500000, 12.400000, 40.500000, 84.000000, 0.014835, 0.003141, -0.713818, 1.745526, 1.056005, -0.441330, -0.000000, 0.000000, 0.000000, -0.000000, 12297829748976910336.000000, 13527612613923438592.000000, 14757395478869966848.000000, 238.633118, 238.633118, 3592.250000
2276.719726, 24.100000, 111.500000, 0.000000, 0.000000, 145.500000, 12.400000, 40.500000, 84.000000, 0.014835, 0.003141, -0.713818, 1.745526, 1.056005, -0.441330, -0.000000, 0.000000, 0.000000, -0.000000, 12297829748976910336.000000, 13527612613923438592.000000, 14757395478869966848.000000, 238.633118, 238.633118, 3592.250000
2276.819428, 24.100000, 111.500000, 0.000000, 0.000000, 145.500000, 12.400000, 40.500000, 84.000000, 0.014835, 0.003141, -0.713818, 1.745526, 1.056005, -0.441330, -0.000000, 0.000000, 0.000000, -0.000000, 12297829748976910336.000000, 13527612613923438592.000000, 14757395478869966848.000000, 238.633118, 238.633118, 3592.250000
2276.920337, 24.100000, 111.500000, 0.000000, 0.000000, 145.500000, 12.400000, 40.500000, 84.000000, 0.014835, 0.003141, -0.713818, 1.745526, 1.056005, -0.441330, -0.000000, 0.000000, 0.000000, -0.000000, 12297829748976910336.000000, 13527612613923438592.000000, 14757395478869966848.000000, 238.633118, 238.633118, 3592.250000
2277.020895, 24.100000, 111.500000, 0.000000, 0.000000, 145.500000, 12.400000, 40.500000, 84.000000, 0.014835, 0.003141, -0.713818, 1.745526, 1.056005, -0.441330, -0.000000, 0.000000, 0.000000, -0.000000, 12297829748976910336.000000, 13527612613923438592.000000, 14757395478869966848.000000, 238.633118, 238.633118, 3592.250000
2277.120715, 24.100000, 111.500000, 0.000000, 0.000000, 145.500000, 12.400000, 40.500000, 84.000000, 0.014835, 0.003141, -0.713818, 1.745526, 1.056005, -0.441330, -0.000000, 0.000000, 0.000000, -0.000000, 12297829748976910336.000000, 13527612613923438592.000000, 14757395478869966848.000000, 238.633118, 238.633118, 3592.250000
2277.221490, 24.100000, 111.500000, 0.000000, 0.000000, 145.500000, 12.400000, 40.500000, 84.000000, 0.014835, 0.003141, -0.713818, 1.745526, 1.056005, -0.441330, -0.000000, 0.000000, 0.000000, -0.000000, 12297829748976910336.000000, 13527612613923438592.000000, 14757395478869966848.000000, 238.633118, 238.633118, 3592.250000
2277.322296, 24.100000, 111.500000, 0.000000, 0.000000, 145.500000, 12.400000, 40.500000, 84.000000, 0.014835, 0.003141, -0.713818, 1.745526, 1.056005, -0.441330, -0.000000, 0.000000, 0.000000, -0.000000, 12297829748976910336.000000, 13527612613923438592.000000, 14757395478869966848.000000, 238.633118, 238.633118, 3592.250000
2277.423276, 24.100000, 111.500000, 0.000000, 0.000000, 145.500000, 12.400000, 40.500000, 84.000000, 0.014835, 0.003141, -0.713818, 1.745526, 1.056005, -0.441330, -0.000000, 0.000000, 0.000000, -0.000000, 12297829748976910336.000000, 13527612613923438592.000000, 14757395478869966848.000000, 238.633118, 238.633118, 3592.250000
2277.524092, 24.100000, 111.500000, 0.000000, 0.000000, 145.500000, 12.400000, 40.500000, 84.000000, 0.014835, 0.003141, -0.713818, 1.745526, 1.056005, -0.441330, -0.000000, 0.000000, 0.000000, -0.000000, 12297829748976910336.000000, 13527612613923438592.000000, 14757395478869966848.000000, 238.633118, 238.633118, 3592.250000
2277.625061, 24.100000, 111.500000, 0.000000, 0.000000, 145.500000, 12.400000, 40.500000, 84.000000, 0.014835, 0.003141, -0.713818, 1.745526, 1.056005, -0.441330, -0.000000, 0.000000, 0.000000, -0.000000, 12297829748976910336.000000, 13527612613923438592.000000, 14757395478869966848.000000, 238.633118, 238.633118, 3592.250000
2277.725622, 24.100000, 111.500000, 0.000000, 0.000000, 145.500000, 12.400000, 40.500000, 84.000000, 0.014835, 0.003141, -0.713818, 1.745526, 1.056005, -0.441330, -0.000000, 0.000000, 0.000000, -0.000000, 12297829748976910336.000000, 13527612613923438592.000000, 14757395478869966848.000000, 238.633118, 238.633118, 3592.250000
2277.826592, 24.100000, 111.500000, 0.000000, 0.000000, 145.500000, 12.400000, 40.500000, 84.000000, 0.014835, 0.003141, -0.713818, 1.745526, 1.056005, -0.441330, -0.000000, 0.000000, 0.000000, -0.000000, 12297829748976910336.000000, 13527612613923438592.000000, 14757395478869966848.000000, 238.633118, 238.633118, 3592.250000
2277.927481, 24.100000, 111.500000, 0.000000, 0.000000, 145.500000, 12.400000, 40.500000, 84.000000, 0.014835, 0.003141, -0.713818, 1.745526, 1.056005, -0.441330, -0.000000, 0.000000, 0.000000, -0.000000, 12297829748976910336.000000, 13527612613923438592.000000, 14757395478869966848.000000, 238.633118, 238.633118, 3592.250000
2278.028579, 24.100000, 111.500000, 0.000000, 0.000000, 145.500000, 12.400000, 40.500000, 84.000000, 0.014835, 0.003141, -0.713818, 1.745526, 1.056005, -0.441330, -0.000000, 0.000000, 0.000000, -0.000000, 12297829748976910336.000000, 13527612613923438592.000000, 14757395478869966848.000000, 238.633118, 238.633118, 3592.250000
2278.129456, 24.100000, 111.500000, 0.000000, 0.000000, 145.500000, 12.400000, 40.500000, 84.000000, 0.014835, 0.003141, -0.713818, 1.745526, 1.056005, -0.441330, -0.000000, 0.000000, 0.000000, -0.000000, 12297829748976910336.000000, 13527612613923438592.000000, 14757395478869966848.000000, 238.633118, 238.633118, 3592.250000
2278.230208, 24.100000, 111.500000, 0.000000, 0.000000, 145.500000, 12.400000, 40.500000, 84.000000, 0.014835, 0.003141, -0.713818, 1.745526, 1.056005, -0.441330, -0.000000, 0.000000, 0.000000, -0.000000, 12297829748976910336.000000, 13527612613923438592.000000, 14757395478869966848.000000, 238.633118, 238.633118, 3592.250000
2278.331271, 24.100000, 111.500000, 0.000000, 0.000000, 145.500000, 12.400000, 40.500000, 84.000000, 0.014835, 0.003141, -0.713818, 1.745526, 1.056005, -0.441330, -0.000000, 0.000000, 0.000000, -0.000000, 12297829748976910336.000000, 13527612613923438592.000000, 14757395478869966848.000000, 238.633118, 238.633118, 3592.250000
2278.432192, 24.100000, 111.500000, 0.000000, 0.000000, 145.500000, 12.400000, 40.500000, 84.000000, 0.014835, 0.003141, -0.713818, 1.745526, 1.056005, -0.441330, -0.000000, 0.000000, 0.000000, -0.000000, 12297829748976910336.000000, 13527612613923438592.000000, 14757395478869966848.000000, 238.633118, 238.633118, 3592.250000
2278.533122, 24.100000, 111.500000, 0.000000, 0.000000, 145.500000, 12.400000, 40.500000, 84.000000, 0.014835, 0.003141, -0.713818, 1.745526, 1.056005, -0.441330, -0.000000, 0.000000, 0.000000, -0.000000, 12297829748976910336.000000, 13527612613923438592.000000, 14757395478869966848.000000, 238.633118, 238.633118, 3592.250000
2278.634035, 24.100000, 111.500000, 0.000000, 0.000000, 145.500000, 12.400000, 40.500000, 84.000000, 0.014835, 0.003141, -0.713818, 1.745526, 1.056005, -0.441330, 0.000000, -0.000000, -0.000000, 0.000000, 12297829748976910336.000000, 13527612613923438592.000000, 14757395478869966848.000000, 238.633118, 238.633118, 3592.250000
2278.735103, 24.100000, 111.500000, 0.000000, 0.000000, 145.500000, 12.400000, 40.500000, 84.000000, 0.014835, 0.003141, -0.713818, 1.745526, 1.056005, -0.441330, 0.000000, -0.000000, -0.000000, 0.000000, 12297829748976910336.000000, 13527612613923438592.000000, 14757395478869966848.000000, 238.633118, 238.633118, 3592.250000
